/* XPM */
const static char* icon_xpm[] = {
/* columns rows colors chars-per-pixel */
"256 256 214 2 ",
"   c black",
".  c #0D0C0C",
"X  c #161414",
"o  c #1D1B1A",
"O  c #1A1816",
"+  c #22211F",
"@  c #242120",
"#  c #2D2A29",
"$  c #2B2726",
"%  c #332E2D",
"&  c #34302F",
"*  c #353231",
"=  c #3A3535",
"-  c #3C3937",
";  c #3E3B3A",
":  c #413D3C",
">  c #454141",
",  c #4A4544",
"<  c #4E4A4A",
"1  c #4C4947",
"2  c #524C4B",
"3  c #5A5453",
"4  c #5E5A58",
"5  c #575453",
"6  c #635D5C",
"7  c #625859",
"8  c #69635F",
"9  c #66615E",
"0  c #675E60",
"q  c #676261",
"w  c #6A6463",
"e  c #6C6866",
"r  c #6D6A69",
"t  c #6E6569",
"y  c #716967",
"u  c #716768",
"i  c #736D6C",
"p  c #766B67",
"a  c #74706E",
"s  c #78736F",
"d  c #736F70",
"f  c #757170",
"g  c #7B7473",
"h  c #7C7778",
"j  c #817775",
"k  c #837976",
"l  c #847C7B",
"z  c #81767A",
"x  c #86817E",
"c  c #8A827F",
"v  c #868080",
"b  c #8A8382",
"n  c #8F8988",
"m  c #958C8A",
"M  c #948A88",
"N  c #96918F",
"B  c #979496",
"V  c #9B9494",
"C  c #9D9897",
"Z  c #A59997",
"A  c #A49C9A",
"S  c #A99E9C",
"D  c #ACA09D",
"F  c #A49EA4",
"G  c #ADA5A4",
"H  c #AEAAA6",
"J  c #A6A2A0",
"K  c #B1A8A5",
"L  c #B4ABA9",
"P  c #B9ADAB",
"I  c #B2A4A5",
"U  c #BCB1AD",
"Y  c #BCB2B1",
"T  c #C0B1AF",
"R  c #C1B6B4",
"E  c #C4BCBB",
"W  c #CBBDBA",
"Q  c #C7B7B8",
"!  c #D6BDB9",
"~  c #CDC2BD",
"^  c #D4C5BE",
"/  c #C7BEC0",
"(  c #CCC3C3",
")  c #CFC8C3",
"_  c #D3C6C3",
"`  c #DAC4C3",
"'  c #D5C9C6",
"]  c #DDCBC5",
"[  c #D6CCCB",
"{  c #DCCDCB",
"}  c #D6C6CC",
"|  c #DAD2C5",
" . c #DDD2CD",
".. c #DDDBCE",
"X. c #DCCDD1",
"o. c #DDD4D3",
"O. c #DEDBD3",
"+. c #DDDCDC",
"@. c #DCD6DA",
"#. c #E2CECC",
"$. c #E5CAC7",
"%. c #E3D3CD",
"&. c #EAD4CE",
"*. c #E5DACE",
"=. c #EBDACD",
"-. c #E7D6C7",
";. c #F0D5CE",
":. c #E3CDD3",
">. c #EBCED4",
",. c #E6CDDC",
"<. c #E4D5D3",
"1. c #E9D5D3",
"2. c #E4DAD5",
"3. c #EBDAD6",
"4. c #E4D6DB",
"5. c #ECD5DB",
"6. c #E5DCDB",
"7. c #ECDDDB",
"8. c #F1D5D4",
"9. c #F1DBD5",
"0. c #F0D6DA",
"q. c #F1DEDB",
"w. c #DEE2DD",
"e. c #DDEADC",
"r. c #DAE5D3",
"t. c #E1E2CA",
"y. c #F1E0CF",
"u. c #E5E2D6",
"i. c #EAE3D6",
"p. c #E7E9D7",
"a. c #E5E2DD",
"s. c #EDE2DD",
"d. c #E5E9DD",
"f. c #ECEADC",
"g. c #EFE8D5",
"h. c #F2E2D4",
"j. c #F1E2DD",
"k. c #F3EADD",
"l. c #F7ECDB",
"z. c #E7F4DE",
"x. c #F9F1DC",
"c. c #DCDBE5",
"v. c #DED9E9",
"b. c #F1CEE0",
"n. c #E4DDE2",
"m. c #ECDDE2",
"M. c #E3DFEA",
"N. c #EBDDEC",
"B. c #E6D5E3",
"V. c #F2DDE2",
"C. c #F4DDEA",
"Z. c #F7DBE6",
"A. c #E7DEF0",
"S. c #DEE3E3",
"D. c #DEEAE2",
"F. c #DAE7E6",
"G. c #DDF2E5",
"H. c #E5E4E4",
"J. c #EDE4E3",
"K. c #E4EAE4",
"L. c #EDEAE5",
"P. c #E5E4EA",
"I. c #ECE5EA",
"U. c #E5EBEB",
"Y. c #EDECEC",
"T. c #F3E5E3",
"R. c #F9E5E5",
"E. c #F4E9E6",
"W. c #F9ECE5",
"Q. c #F3E5EB",
"!. c #F9E6EC",
"~. c #F5ECEB",
"^. c #F9EEED",
"/. c #E5F4E5",
"(. c #ECF3E6",
"). c #E6F2EC",
"_. c #ECF2EC",
"`. c #EDFAEC",
"'. c #E9FCE6",
"]. c #F4F2E5",
"[. c #F9F2E6",
"{. c #F5F2EE",
"}. c #F9F1EE",
"|. c #F4FAED",
" X c #FCFBED",
".X c #FFF9E6",
"XX c #E3E4F1",
"oX c #EDE5F3",
"OX c #E6EBF2",
"+X c #EDECF3",
"@X c #EDE5FB",
"#X c #EDEDFB",
"$X c #F4E5F2",
"%X c #FAE6F2",
"&X c #F4EDF2",
"*X c #FAEDF2",
"=X c #FCE6FD",
"-X c #F3EDFB",
";X c #FCEDFB",
":X c #E5F7F1",
">X c #EEF3F2",
",X c #EDFCF3",
"<X c #EDF3FB",
"1X c #EEFCFB",
"2X c #E6FAF7",
"3X c #F5F4F3",
"4X c #FAF4F4",
"5X c #F5FBF4",
"6X c #FBFAF6",
"7X c #F5F5FB",
"8X c #FBF5FB",
"9X c #F5FCFC",
"0X c #FDFDFD",
"qX c None",
/* pixels */
"qXqXqXqXqXqXqXqXqXqXqXqXqXqXqXqXqXqXqXqXqXqXqXqXqXqXqXqXqXqXqXqXqXqXqXqXqXqXqXqXqXqXqXqXqXqXqXqXqXqXqXqXqXqXqXqXqXqXqXqXqXqXqXqXqXqXqXqXqXqXqXqXqXqXqXqXqXqXqXqXqXqXqXqXqXqXqXqXqXqXqXqXqXqXqXqXqXqXqXqXqXqXqXqXqXqXqXqXqXqXqXqXqXqXqXqXqXqXqXqXqXqXqXqXqXqXqXqXqXqXqXqXqXqXqXqXqXqXqXqXqXqXqXqXqXqXqXqXqXqXqXqXqXqXqXqXqXqXqXqXqXqXqXqXqXqXqXqXqXqXqXqXqXqXqXqXqXqXqXqXqXqXqXqXqXqXqXqXqXqXqXqXqXqXqXqXqXqXqXqXqXqXqXqXqXqXqXqXqXqXqXqXqXqXqXqXqXqXqXqXqXqXqXqXqXqXqXqXqXqXqXqXqXqXqXqXqXqXqXqXqXqXqXqXqXqXqXqXqXqXqXqXqXqXqXqX",
"qXqXqXqXqXqXqXqXqXqXqXqXqXqXqXqXqXqXqXqXqXqXqXqXqXqXqXqXqXqXqXqXqXqXqXqXqXqXqXqXqXqXqXqXqXqXqXqXqXqXqXqXqXqXqXqXqXqXqXqXqXqXqXqXqXqXqXqXqXqXqXqXqXqXqXqXqXqXqXqXqXqXqXqXqXqXqXqXqXqXqXqXqXqXqXqXqXqXqXqXqXqXqXqXqXqXqXqXqXqXqXqXqXqXqXqXqXqXqXqXqXqXqXqXqXqXqXqXqXqXqXqXqXqXqXqXqXqXqXqXqXqXqXqXqXqXqXqXqXqXqXqXqXqXqXqXqXqXqXqXqXqXqXqXqXqXqXqXqXqXqXqXqXqXqXqXqXqXqXqXqXqXqXqXqXqXqXqXqXqXqXqXqXqXqXqXqXqXqXqXqXqXqXqXqXqXqXqXqXqXqXqXqXqXqXqXqXqXqXqXqXqXqXqXqXqXqXqXqXqXqXqXqXqXqXqXqXqXqXqXqXqXqXqXqXqXqXqXqXqXqXqXqXqXqXqX",
"qXqXqXqXqXqXqXqXqXqXqXqXqXqXqXqXqXqXqXqXqXqXqXqXqXqXqXqXqXqXqXqXqXqXqXqXqXqXqXqXqXqXqXqXqXqXqXqXqXqXqXqXqXqXqXqXqXqXqXqXqXqXqXqXqXqXqXqXqXqXqXqXqXqXqXqXqXqXqXqXqXqXqXqXqXqXqXqXqXqXqXqXqXqXqXqXqXqXqXqXqXqXqXqXqXqXqXqXqXqXqXqXqXqXqXqXqXqXqXqXqXqXqXqXqXqXqXqXqXqXqXqXqXqXqXqXqXqXqXqXqXqXqXqXqXqXqXqXqXqXqXqXqXqXqXqXqXqXqXqXqXqXqXqXqXqXqXqXqXqXqXqXqXqXqXqXqXqXqXqXqXqXqXqXqXqXqXqXqXqXqXqXqXqXqXqXqXqXqXqXqXqXqXqXqXqXqXqXqXqXqXqXqXqXqXqXqXqXqXqXqXqXqXqXqXqXqXqXqXqXqXqXqXqXqXqXqXqXqXqXqXqXqXqXqXqXqXqXqXqXqXqXqXqXqXqX",
"qXqXqXqXqXqXqXqXqXqXqXqXqXqXqXqXqXqXqXqXqXqXqXqXqXqXqXqXqXqXqXqXqXqXqXqXqXqXqXqXqXqXqXqXqXqXqXqXqXqXqXqXqXqXqXqXqXqXqXqXqXqXqXqXqXqXqXqXqXqXqXqXqXqXqXqXqXqXqXqXqXqXqXqXqXqXqXqXqXqXqXqXqXqXqXqXqXqXqXqXqXqXqXqXqXqXqXqXqXqXqXqXqXqXqXqXqXqXqXqXqXqXqXqXqXqXqXqXqXqXqXqXqXqXqXqXqXqXqXqXqXqXqXqXqXqXqXqXqXqXqXqXqXqXqXqXqXqXqXqXqXqXqXqXqXqXqXqXqXqXqXqXqXqXqXqXqXqXqXqXqXqXqXqXqXqXqXqXqXqXqXqXqXqXqXqXqXqXqXqXqXqXqXqXqXqXqXqXqXqXqXqXqXqXqXqXqXqXqXqXqXqXqXqXqXqXqXqXqXqXqXqXqXqXqXqXqXqXqXqXqXqXqXqXqXqXqXqXqXqXqXqXqXqXqXqX",
"qXqXqXqXqXqXqXqXqXqXqXqXqXqXqXqXqXqXqXqXqXqXqXqXqXqXqXqXqXqXqXqXqXqXqXqXqXqXqXqXqXqXqXqXqXqXqXqXqXqXqXqXqXqXqXqXqXqXqXqXqXqXqXqXqXqXqXqXqXqXqXqXqXqXqXqXqXqXqXqXqXqXqXqXqXqXqXqXqXqXqXqXqXqXqXqXqXqXqXqXqXqXqXqXqXqXqXqXqXqXqXqXqXqXqXqXqXqXqXqXqXqXqXqXqXqXqXqXqXqXqXqXqXqXqXqXqXqXqXqXqXqXqXqXqXqXqXqXqXqXqXqXqXqXqXqXqXqXqXqXqXqXqXqXqXqXqXqXqXqXqXqXqXqXqXqXqXqXqXqXqXqXqXqXqXqXqXqXqXqXqXqXqXqXqXqXqXqXqXqXqXqXqXqXqXqXqXqXqXqXqXqXqXqXqXqXqXqXqXqXqXqXqXqXqXqXqXqXqXqXqXqXqXqXqXqXqXqXqXqXqXqXqXqXqXqXqXqXqXqXqXqXqXqXqXqX",
"qXqXqXqXqXqXqXqXqXqXqXqXqXqXqXqXqXqXqXqXqXqXqXqXqXqXqXqXqXqXqXqXqXqXqXqXqXqXqXqXqXqXqXqXqXqXqXqXqXqXqXqXqXqXqXqXqXqXqXqXqXqXqXqXqXqXqXqXqXqXqXqXqXqXqXqXqXqXqXqXqXqXqXqXqXqXqXqXqXqXqXqXqXqXqXqXqXqXqXqXqXqXqXqXqXqXqXqXqXqXqXqXqXqXqXqXqXqXqXqXqXqXqXqXqXqXqXqXqXqXqXqXqXqXqXqXqXqXqXqXqXqXqXqXqXqXqXqXqXqXqXqXqXqXqXqXqXqXqXqXqXqXqXqXqXqXqXqXqXqXqXqXqXqXqXqXqXqXqXqXqXqXqXqXqXqXqXqXqXqXqXqXqXqXqXqXqXqXqXqXqXqXqXqXqXqXqXqXqXqXqXqXqXqXqXqXqXqXqXqXqXqXqXqXqXqXqXqXqXqXqXqXqXqXqXqXqXqXqXqXqXqXqXqXqXqXqXqXqXqXqXqXqXqXqXqX",
"qXqXqXqXqXqXqXqXqXqXqXqXqXqXqXqXqXqXqXqXqXqXqXqXqXqXqXqXqXqXqXqXqXqXqXqXqXqXqXqXqXqXqXqXqXqXqXqXqXqXqXqXqXqXqXqXqXqXqXqXqXqXqXqXqXqXqXqXqXqXqXqXqXqXqXqXqXqXqXqXqXqXqXqXqXqXqXqXqXqXqXqXqXqXqXqXqXqXqXqXqXqXqXqXqXqXqXqXqXqXqXqXqXqXqXqXqXqXqXqXqXqXqXqXqXqXqXqXqXqXqXqXqXqXqXqXqXqXqXqXqXqXqXqXqXqXqXqXqXqXqXqXqXqXqXqXqXqXqXqXqXqXqXqXqXqXqXqXqXqXqXqXqXqXqXqXqXqXqXqXqXqXqXqXqXqXqXqXqXqXqXqXqXqXqXqXqXqXqXqXqXqXqXqXqXqXqXqXqXqXqXqXqXqXqXqXqXqXqXqXqXqXqXqXqXqXqXqXqXqXqXqXqXqXqXqXqXqXqXqXqXqXqXqXqXqXqXqXqXqXqXqXqXqXqXqX",
"qXqXqXqXqXqXqXqXqXqXqXqXqXqXqXqXqXqXqXqXqXqXqXqXqXqXqXqXqXqXqXqXqXqXqXqXqXqXqXqXqXqXqXqXqXqXqXqXqXqXqXqXqXqXqXqXqXqXqXqXqXqXqXqXqXqXqXqXqXqXqXqXqXqXqXqXqXqXqXqXqXqXqXqXqXqXqXqXqXqXqXqXqXqXqXqXqXqXqXqXqXqXqXqXqXqXqXqXqXqXqXqXqXqXqXqXqXqXqXqXqXqXqXqXqXqXqXqXqXqXqXqXqXqXqXqXqXqXqXqXqXqXqXqXqXqXqXqXqXqXqXqXqXqXqXqXqXqXqXqXqXqXqXqXqXqXqXqXqXqXqXqXqXqXqXqXqXqXqXqXqXqXqXqXqXqXqXqXqXqXqXqXqXqXqXqXqXqXqXqXqXqXqXqXqXqXqXqXqXqXqXqXqXqXqXqXqXqXqXqXqXqXqXqXqXqXqXqXqXqXqXqXqXqXqXqXqXqXqXqXqXqXqXqXqXqXqXqXqXqXqXqXqXqXqXqX",
"qXqXqXqXqXqXqXqXqXqXqXqXqXqXqXqXqXqXqXqXqXqXqXqXqXqXqXqXqXqXqXqXqXqXqXqXqXqXqXqXqXqXqXqXqXqXqXqXqXqXqXqXqXqXqXqXqX`.0X4XY.0X0X0X9X0X`.0X0X9X{.0X9X0X0X0X>X8X0X9X0XY.0X0X0X0X0X0X0X6X7X0X0X9X9X0X0X6X4X*X0X3X1X&X0X6X0X3X0X0X0X8X6X0X0XY.0X0X6X0X3X3X0X0X0X9X6X0X9X3X0X0X5X0X0X9X0X0X0X0X6X0X0X0X0X7X0X0X9X8X6X0X0X0X5X0X7X5X6X0X7X5X4X0X6X6X5X0X8X7X0X0X0X0X4X0X0X0X0X0X3X0X0X3X7X0X0X5X0X0X0X+X0X0X9XY.3X0X0XqXqXqXqXqXqXqXqXqXqXqXqXqXqXqXqXqXqXqXqXqXqXqXqXqXqXqXqXqXqXqXqXqXqXqXqXqXqXqXqXqXqXqXqXqXqXqXqXqXqXqXqXqXqXqXqXqX",
"qXqXqXqXqXqXqXqXqXqXqXqXqXqXqXqXqXqXqXqXqXqXqXqXqXqXqXqXqXqXqXqXqXqXqXqXqXqXqXqXqXqXqXqXqXqXqXqXqXqXqXqXqX0X0X0X0X0X9X7X0X0X8X0X0X0X5X0X0X4X9X0X0X0X0X0X3X0X0X0X0X0X0X3X0X0X0X8X0X0X0X0X3X6X0X0X0X0X6X0X0X0X9X9X0X0X0X9X0X9X0X0X0X0X0X3X6X0X1X0X0X0X0X8X9X7X0X3X8X0X0X1X0X&X0X0X0X0X0X0X9XY.0X5X8X0X0X0X7X0X0X_.0X0X0X0X6X9X9X0X3X3X9X0X{.9X0X8X0X3X0X0X7X0X7X3X6X0X0X0X0X6X0X0X0X0X0X0X-X0X8X7X3X0X0X0X0X0X0X0X8X0X0XqXqXqXqXqXqXqXqXqXqXqXqXqXqXqXqXqXqXqXqXqXqXqXqXqXqXqXqXqXqXqXqXqXqXqXqXqXqXqXqXqXqXqXqXqXqXqXqXqXqXqXqXqX",
"qXqXqXqXqXqXqXqXqXqXqXqXqXqXqXqXqXqXqXqXqXqXqXqXqXqXqXqXqXqXqXqXqXqXqXqXqXqXqXqXqXqXqXqXqXqXqXqXqX7X0X0X0X0X0X9X3X0X0X0X5X0X6X0X0X0X8X6X8X5X0X0X0X0X0XY.0XY.0X0X0X4X4X9X0X0X0X0X0X0X0X3X5X0X7X0X0X0X0X0X3X7X6X<X4X0X0X6X6X4X0X0X0X6X0X0X8X0Xa.0X0X0X0X6X8X9X0X0X0X0X0X9X3X9X0XD.0X0X0X0X0X0X0X0X1X1X0X0X6X0X0X0X0X9X0X8X0X0XY.0X0X0X>X0X0X0X0X0X9X3X0X8X0X0X0XU.0X0X7X6X6X9X0X9X>X_.H.0X8X6X0X7X0X5X0X0X3X8X0X0X0X6X0X4X0X6X0XqXqXqXqXqXqXqXqXqXqXqXqXqXqXqXqXqXqXqXqXqXqXqXqXqXqXqXqXqXqXqXqXqXqXqXqXqXqXqXqXqXqXqXqXqXqXqXqXqX",
"qXqXqXqXqXqXqXqXqXqXqXqXqXqXqXqXqXqXqXqXqXqXqXqXqXqXqXqXqXqXqXqXqXqXqXqXqXqXqXqXqXqXqXqXqXqX3X0X0X0X9X9X8X0X>X0X3X7X6X8X0X0X3X7X8X5X0X6X3X0X0X0X0X0X0X>X0X8X6X5X6X8X0X0X7X0X0X0X0X0X0X3X3X0X0X0X0X0X0X0X5X0X0X0X0X0X0X0X8X0X0X7X0X6X3X8X0X0X9X0X0X0X0X}.6X0X0X0X0X0X6X0X0X0X0X0X6X0X0X0X6X3X7X0X0X5X0X0X0X6X0X0X0XJ.0X6X0X0X0X0XY.0X0X0X9X0X0X0X8X0X0X0X8X0X0X0X0X0X0X0X0X0X0X0X0X7X8X0XF.0X8XY.0X5X5X0X3X0X0X0X>X0X6XU.Y.0XH.0X0X3XqXqXqXqXqXqXqXqXqXqXqXqXqXqXqXqXqXqXqXqXqXqXqXqXqXqXqXqXqXqXqXqXqXqXqXqXqXqXqXqXqXqXqXqXqXqX",
"qXqXqXqXqXqXqXqXqXqXqXqXqXqXqXqXqXqXqXqXqXqXqXqXqXqXqXqXqXqXqXqXqXqXqXqXqXqXqXqXqXqXqXqX0X0X0X0X0X0X0XY.5XS.0X8X6X9X0X0X0X9X0X0X0X0X0X5X0X0X0X0X0X6X7X9X0X8X0X0X7X0X0X>X9X3X0X0X0X0X>X9X9X0X0X1X0X0X0X0X6X0X0X0X0X0X|.0X#X0X0X6X0X0X0X9X0X0X0X0X0X0X0X0X0X:X4X0X0X0X0X_.0X0X0X0X7X0X0X0X0X0X0X0X0X0X0X0X0X6X0X9X0X9X0X7X0X0X6X0X0X0X0X+X0X7X0X0X0X0X7X+X8X9X0X0X0X0X3X0X0X8X0X0X0X0X8X0X3X8X9X0X0X0X0X0X#X0X9X6X0X0X-X0X0X0X0X9X6X0X0X0XqXqXqXqXqXqXqXqXqXqXqXqXqXqXqXqXqXqXqXqXqXqXqXqXqXqXqXqXqXqXqXqXqXqXqXqXqXqXqXqXqXqXqXqX",
"qXqXqXqXqXqXqXqXqXqXqXqXqXqXqXqXqXqXqXqXqXqXqXqXqXqXqXqXqXqXqXqXqXqXqXqXqXqXqXqXqXqX0X6X0X0X5X6X0X0X0X0X7X0XY.9X0X0XY.5X3X&X0X3X0X8X5X7X0X0X9X0X7X0X0X3X5X0X0X_.3X0X3X0X0X0X0X0X0X0X0X0X0X0X6XP.0X0X0X0X0X1X4X0X0X3X0X0X0X6X5X9X8XY.0X0X0X0X>X0X0X0X>X0X0X7X0X0X0X0X6XE.0X0X0Xc.8X8X8X0X0X0X6X3X0X0X3X0X0X0X+X6X0X7X6X4X0X0X9X0X0X;X6X0X6X0X0X0XP.6X0X0X0X6X0X0X0X0XK._.0X0X3X6X0X0X7X0X6X0X&X0X7X0X0X0X6X0X0X7X5X7X9X0X0X0X6X0X0X0X0X0X0X,XqXqXqXqXqXqXqXqXqXqXqXqXqXqXqXqXqXqXqXqXqXqXqXqXqXqXqXqXqXqXqXqXqXqXqXqXqXqXqXqXqXqX",
"qXqXqXqXqXqXqXqXqXqXqXqXqXqXqXqXqXqXqXqXqXqXqXqXqXqXqXqXqXqXqXqXqXqXqXqXqXqXqXqX0X0X0X0X9X3X0X0X0X9X0X3X0X3X8X6X0X0X0X0X0X3X0X6X8X8X0X0X0X6X3XY.0X8X3X0X0X0X6X X9X6X0X0X0X[.7X0X0X0X0X3X6X0X0X0X0X0X0X0X0X0X0X0X0X3X9X0XY.0X3X7XY.8XY.0X0X0X0X0X6X0X0X9X7X0X3X0X9X5X6X0X9X0X0X0X0X6X`.6X0X3X9X9X0X0X0X6X0X0X3X9X6X0X0X0X7X0X0X0X7X0X0X0X0X0X0X6X0X0X3X0X6X7X0X6X8X0X0X9X5X0X0X8X0XY.0X0X0X9X0X8X0X0X0X0X6X0X0X0X0X0X0X0X0X0X9X0X0X3X3X0X9X0X0X8XqXqXqXqXqXqXqXqXqXqXqXqXqXqXqXqXqXqXqXqXqXqXqXqXqXqXqXqXqXqXqXqXqXqXqXqXqXqXqXqX",
"qXqXqXqXqXqXqXqXqXqXqXqXqXqXqXqXqXqXqXqXqXqXqXqXqXqXqXqXqXqXqXqXqXqXqXqXqXqX0X0X9X0X6X6X0X9X4X7X0X8X6X0X0X6X0X0X8X7X0X0X6X0X9X0X0X0X0X0X0X8X6X0X0X6X0XY.0X0X0X0X0X0X0X0X0X9X0X0X0X0X0X+X0X0X0X0X9X6X0X0X0X0X6X0X0X3X0X9X0X0X0X4X<X6X9X0X0X7X8X0X0X0X0X0X7X8X_.9X7X0X0X0X0X0X6X9X0X9X0X9X0X7X0X0X0X0X0X3X0X0X3X0X0X0X3X0X0X0X0X3X0X0X0XU.0X>X0X0X0X0X0X6X-X9XY.0X0X0X0X0X6XU.0X0X0X5X0X0X0X0X0X6X0X7X4X0X0X0X0X0X0X0X0X0X0X0X(.0X0X5X0X0X4XU.0X6X3X0XqXqXqXqXqXqXqXqXqXqXqXqXqXqXqXqXqXqXqXqXqXqXqXqXqXqXqXqXqXqXqXqXqXqXqXqXqXqX",
"qXqXqXqXqXqXqXqXqXqXqXqXqXqXqXqXqXqXqXqXqXqXqXqXqXqXqXqXqXqXqXqXqXqXqXqX0X0X6X9X0X4XQ.3X0X0X0X0X0X6X0X3X9XE.0X3X0X0X3X0XY.0X0X6X0X>X0X0X0X8X0X0X0X0X0X0X0X0X0X6X0X0X0X0X9X6X0X9X8X0X0X8X6X8X0X0X0X6X0X0X0X0X6X7X6X0X0X5X0X8X6X~.6X0X6X9X0X0X3X0X3X0X3X0X0X0X0X0X0X9X0X0X0X0X0X9X0X0X0X0X0X3X0X0X7X9X0X0X0X0XP.0X9X0X0X0X0X9X0X0X9X0X3X8X0X0X3X0X0X0X9X0X0X>X6X0X0X0X8X0X&X0X3X0X9X8X9X3X0X0X0X0X0X0X0XU.0X0X0X0X0X0X>X0X0X0X3X8X3X9X0X0X0X8X0X0X0X0X5X0XqXqXqXqXqXqXqXqXqXqXqXqXqXqXqXqXqXqXqXqXqXqXqXqXqXqXqXqXqXqXqXqXqXqXqXqX",
"qXqXqXqXqXqXqXqXqXqXqXqXqXqXqXqXqXqXqXqXqXqXqXqXqXqXqXqXqXqXqXqXqXqXqX0X0X0X0X0X0X5X0X0X-X0X0X0X0X0X6X0X0X0X8X7X0X3X|.0X0X5X4X8X6X0X7X6X8X0X6X0XY.0X0X0X0X0X0XY.0X<X3X8X0X0X8X0X0X0X5X6X0X3X|.9X9X0X0X0X0X0X8X0XI.3X0X0X>X0X9X0X0XY.0X0XY.0X8X0X0X0X0X0X9X3X0X8X3X6X3X7X3X0X9X0X6X0X9X0X0X0X6X0X4X0X6X0X0X0X0X0X0X0X3X6X6X0X0X4X0X0X0X8X3X0X0X6X3X0X0X8X9X0X6X0X0X0X0X0X6X0X9X0X6X0X0X0X0X3X0X0X0X8X0X9X0X0X3X0X6X8X3X0X0X6X>X3X0X0X8X0X4X0X0X6XP.0X0X0X6XqXqXqXqXqXqXqXqXqXqXqXqXqXqXqXqXqXqXqXqXqXqXqXqXqXqXqXqXqXqXqXqXqXqXqX",
"qXqXqXqXqXqXqXqXqXqXqXqXqXqXqXqXqXqXqXqXqXqXqXqXqXqXqXqXqXqXqXqXqX/.9X6X0XY.3X0X0X7X0X0X5X0X0X3X8X0X0X0X0X7X0X0X-X9X6X0X0XY.0X3X0X0X7X9X{.0X0X0X3X>X0XH.0X0X3X6X0X0X~.9X3X6X0X#X6X-X0X5X0X0X0X0X0X0X0X0X9X0X0X0X0XU.0X6X0X0X0XP.0X5XY.7X0X8X3X,X0X0X0X0X0X9X0X3X0X0X0X0X0X0X8X0X0X0X0X9X6X3X7X0X0X0XA.7X0X0X0X0X{.0X9X>X6X0X0X9X9X0X*X6X0X0X6X0X5X0X0X0X0X0X0X9X0X0X7XY.0X0X0X+X8X0X0X9X0X9X0X0X0X0X9X0X0X0X6X8X0X0X9X8X0X X0X0X0X3X0X3X3X6X0X0X0X3X0X0X0X8X0XqXqXqXqXqXqXqXqXqXqXqXqXqXqXqXqXqXqXqXqXqXqXqXqXqXqXqXqXqXqXqXqXqX",
"qXqXqXqXqXqXqXqXqXqXqXqXqXqXqXqXqXqXqXqXqXqXqXqXqXqXqXqXqXqXqXqX0X0X7X8X3X0X0X0X9X0X0X0X0X0X3X0X0X0X0X~.3X0X0X3X*X0X0X0X0X5X0X0X6X5X0X0X6X3X0X9X0X7X0X6X0X0X0X9X0X0XoX0X0X0X0X0X0X0X,X0X0X5X8XY.0X7X0X0X0X0X0X0X9X0X0X3X0X0X8X0X3X0X4X8X0X0X0X3X6X0X9XP.0X0X0X0X9X0X0X0X^.0X0X0X_.7X0XY.0X3XY.0X0X0X0X3X3X0X0X0X0X9X3X0X6X0X0XY.0X0X0X0X4X~.0X0X0X8X0X0X0X6X0X0X6X0X0X0X0X+X9X6X1X0X0X8X6X8X0X0X0X0X6X3X0X0X0X0X0X0X0X0X0X0X8X6X9X0X0XY.0X5X0X0X0X0X0X0X0X0X0X0XqXqXqXqXqXqXqXqXqXqXqXqXqXqXqXqXqXqXqXqXqXqXqXqXqXqXqXqXqXqXqXqX",
"qXqXqXqXqXqXqXqXqXqXqXqXqXqXqXqXqXqXqXqXqXqXqXqXqXqXqXqXqXqX7X8X0X1X0X5X9X8X0X8X0X0XY.9X0X9X0X3X9X0X0X0X3X7X0X0X0XY.0X0X0X0X0X9X0X0X0X0X0X8X6X0X0X6X,X0X0X0X0X0X0X0X9X4X>X0X0X0X0X5X0X3X0X0X9X0X0X0X0X6X0X3X0X0X0X6X0X0X0X0X0X0X0XM.3X X0X0X0X6X9X6X0XU.0X0X0X|.0X0X0X0X0X6X0X0X4X0X7X8X9X0XU.0X0X0X9X8X7X9X0X0X0X0X0X8X0X0XK.8X-X0X0X0X0X6X7X0XP.0XM.0X0X0X5X0X0X8X6X0X0X3X0X8X9X6X0X0X0X3X0X0X0X0X0X0X6X3X0X0X{.0X0X0X0X6X0X6X7X0X0X9X0X0X0X0X0X0X0X0X9X3X0X0X6X6XqXqXqXqXqXqXqXqXqXqXqXqXqXqXqXqXqXqXqXqXqXqXqXqXqXqXqXqXqXqX",
"qXqXqXqXqXqXqXqXqXqXqXqXqXqXqXqXqXqXqXqXqXqXqXqXqXqXqXqXqX0X0X0X0X0X0X0X0X{.0X>X&X0X6X0X0X0X6X0X4X6X9X7X0X0X5X0X6X6X0X0X0X3X6X0X0X5X0X0X0X0X9X0X0X0X8X0X0X0X0X0X0X8X0X0X0X0X6X0X9X0X0X0X0X0X0X6X0X0X0X6X9X0X0X5X0X8X0X0X0X8X0X7XY.&X7X9X0X0X0X7X6X9X0X0X0X6X9X7X0X0X0X0X6X7X>X0X0X0X0X0X0XY.0X3X0X0X0X7X+X0X0X6X6X0X0X0X0X0X0X0X8X0X0X0XY.4X3X0X0XI.0X8XU.0X5X0X&X0X6X0X0X0X0X0X0X0X9X5X6X9X0X0X0X0XU.0X0X6X6X7X6X0X0X3X0X0X9X0X}.0X0X>X0X5X9X0X8X0X7X8XY.0X0X0X9X0X0XqXqXqXqXqXqXqXqXqXqXqXqXqXqXqXqXqXqXqXqXqXqXqXqXqXqXqXqXqX",
"qXqXqXqXqXqXqXqXqXqXqXqXqXqXqXqXqXqXqXqXqXqXqXqXqXqXqXqX&X0X X0X8X6X0X6X0X0X8X0X0X0X0X0X6X9X0X0X4X9X0X8X0X3X0X0X8X0X6X7X6XP.{.6X0X0X3X0X0X0X8X0X0X0X0X0X0X0X7X8X6X8X X*X0X0X0X6X0X8X0X6X0X7X0X0X0X0X0X0X0X0X0X8X0X0X0X6X0X0X0XY.3X0X0X0X0X0X9X9X0X3X0X8X0X0X0X0X9X7X0X0X>X0X5X8X0X0X0X0X+X0X0X0X9X9X0X4X0X0X0X0X0X0X-XU.0X0X0X-X7X0X0X+X0X0X5X8X6X0X0X0X4X0X0X0X0X9X0X0X0X4X0X0X0X5X0X0X0X0X7X0X0X0X0X0X6X6X8X&XH.7X0X0X3X0X0X0X&X0X8X7X0X0X0X0X0X9X0X;X0X0X0X3X9X6X0X0XqXqXqXqXqXqXqXqXqXqXqXqXqXqXqXqXqXqXqXqXqXqXqXqXqXqXqXqX",
"qXqXqXqXqXqXqXqXqXqXqXqXqXqXqXqXqXqXqXqXqXqXqXqXqXqXqX0X0X3X0X0X3X0X0X0X9X0X0X0XY.8X0X3X0X5X0X0X8X0X0X4X6X9X9X3X0X7X0X6X0X7X0X0X0X;X8XY.0X0X9X0X6X0X0X0X6X0X3X6X0X6X0X0X5X9X8X0X9X8X0X0X0X0X9X0X0X0X0X8X0X3X9X8X0X0X0X0X0X0X0X0X).0X8X9X0X0X6XE.0X0X0X0X0X0X7X0X8X0X0X8X9X9X0X6X0X0X0X4X6X0X0X6X0X0X0X9X8X0X_.0X0X0X0X6X0X9X0X8X>X0X6X0X0X9X0X0X0X0XL.0X0X0X9X0X6X5X4X0X0X0X0X6X9X0X0X6X0X0X0X0XU.0X7X0X0X7X1X3X0X0X9X0X9X0X0X0X0X0X0X0X0X0X6X0X4X6X0X0X8X0X9X3X6X0X0X0X0XqXqXqXqXqXqXqXqXqXqXqXqXqXqXqXqXqXqXqXqXqXqXqXqXqXqXqX",
"qXqXqXqXqXqXqXqXqXqXqXqXqXqXqXqXqXqXqXqXqXqXqXqXqXqX3X0X0X6X7X9X0X#X0X0X9X3X9X3XP.0X9X3X0X6X0X0X0X9X7X8X0X0X_.3X-X8X4X7X0X6X6X0X0X0X0X0X0X5X0X0X0X0X6X0X&X0X0X0X0X0X3X0X0X3X0X0X0X0X8X8X0X>X0X0X0X0X0X0X0X&X0X0X9X0X0X0X0X0X0X8X0X6X8X0X0X6X7X0X3X7X0X0X0XU.9X0X_.4X0XU.U.0X0X&X0X0X6X0X8X0X0X7X9X<X0X0X3X0X7X8X0X|.0X0X0X0X6X0X{.0X0X0X3X7X0X0X0X0X0X3XP.6X0X7X0X0X0X0X0X}.6XY.0X5X0X8X0X3X7X6X0X0X0X0X0X3X0X3X6X3X7X3XU.0X6X0X+X0X8X0X0XP.0XU.~.6X0X9X8X0X0X7XY.8X0X0X0X0XqXqXqXqXqXqXqXqXqXqXqXqXqXqXqXqXqXqXqXqXqXqXqXqXqXqX",
"qXqXqXqXqXqXqXqXqXqXqXqXqXqXqXqXqXqXqXqXqXqXqXqXqX0X6X0X0X0X0X0X0X0X0X0X3X0X3X0X8X3X3XL.Y.0X0X0X0X0X0X0X0X0X0X9X0XY.0X9X9X0X0X0X6X0X0X0X0X0X0X>X0X0X0X7XH.0X0X3X0X0X0X0X0X3X9X8X9X4X0X3X0X0X3X0X,X8X0X5X6X3X_.0X9X6X0X0X9X0X0X0X0X6X0X0X3X0X0X0X0X0X0X0X0X0X0X6X0X6X3XY.0X4X,X0X0XY.0X0X+X0X8X0X0X3X9X0XY.0XY.0X4X0X0X8X6X0X7X0X0X0X0X0X0X5X6X0X6X0X3X0X0XU.0X0X9X3XY.0X0X0X6X0X0X5X6X0X0X5X0X0X0X8X0X3X0X&X0X0X0X0X_.3X0X0X3X0X6XY.0XY.0X4X0X0XY.0X0X0X8X0X0X0X0X9X0X3X0X0X0XqXqXqXqXqXqXqXqXqXqXqXqXqXqXqXqXqXqXqXqXqXqXqXqXqX",
"qXqXqXqXqXqXqXqXqXqXqXqXqXqXqXqXqXqXqXqXqXqXqXqX0X6X5X0X0X0X0X0X9X0X0X0X0X0X0X0X9X0X0X9X0X0X0X6X0X0X7X9X0X0X3X0X0X0X0X0X0X0X8X0X0X0X0X0X0X7X0X0X0X5X0X0X8X0X>X0X0X0X5X3X9X0X:X0X0X6X<X0X8X0X0X0X~.0X0X3X-X0X_.0X9X8X0X0X0X0X9X0X0X3X0X>X>X8X0X3X6X0X3X6X0X0X0X0X0X9X0X0X0X0X0X0X0X0X0X0X0X6X8X3XY.Y.6X0X0X0X0X0X#X0X8X0X8X5X9X0X0X0X0X0X0X0X0X0X3X0X0X0X0X0X~.0X5X9X0X0X0X0X+X0X=X9X0X0X0X+X0X0X0X0X3X0X0X0X0X0X0X0X0X0X0X0X0X0X0X0X0X0X0X0X0X9X0X0X0X0X0X6X7X0X0X0X3X0X9XoX0XP.qXqXqXqXqXqXqXqXqXqXqXqXqXqXqXqXqXqXqXqXqXqXqXqX",
"qXqXqXqXqXqXqXqXqXqXqXqXqXqXqXqXqXqXqXqXqXqXqX0X0X0X0X0X4X9X9X6X0X0X0X0X0X0X0X9XY.8X0X0X0X0XU.6X0X5X0X6X0X0X6X0X0X0X0X0X6X8X0X7X0X0X0X0X0X6X0X0X0X0X9X0X0X0X0X8X0X0X0X0X9X0X0X0X0X0X0X0X7X>X0X0X0X0X&X0X0XY.0XY.0X0X6X3X0X0X0X0X0X>XH.0X6X9X0X0X7X0X>X7XY.0X0X0X7X9X0X0X6X0X0X{.0XU.9X0X0X4X0X0X0X9XU.0X0X0X0X0XW.0X8XY.0X0X0X0X3X0X9X0X0X0X0X0X0X8X0X3X0X5X0X0X9X0X0XY.0X0X0X0X_.6X0X0X0X6X9X6X0X_.+X0X9X9XY.0X0X0X0X0X0X0X7X4X0X0X0X0X0X9X7X9X0X0X6X0X0X0X0X0X0X0X0X0X3X`.4X0X0XqXqXqXqXqXqXqXqXqXqXqXqXqXqXqXqXqXqXqXqXqXqXqX",
"qXqXqXqXqXqXqXqXqXqXqXqXqXqXqXqXqXqXqXqXqXqX3X0X0X9X0X0X0X0X0X5X9X0X0X0X3X0X6X0X0X0X0X8X0X).0X0X0X0X0X0X5X0X0X6X{.0X3X0X0X6X9X0X>X0X0X0X9X7X0X6X9XP.0X0X0X0X0X5X0X0X0X6X4X7X9X8X0X0X0X0X6X9X4X0X0X0X0X0X0X0X0X0X0X0X0X0X0X0X0X0X0X5X0X0X0X7X6X9XY.0X0X0X7X0X0X6X0X,X7X0X0X3X0X0X9X6X0X4X0X6X0X0X4X0X0X0X0X1X0X0X6X0X<X8X0X9X0X0X0X0X0X0X0X0X7X9X9X6XY.0X0X_.0X6X3X(.0X8X0X3X0XP.Y.0X7X6X0X0X6X0X0X0X0X8X0X8X0X6X0X3X1X3XY.0X_.0X5X0XU.0X0X0X0X0X0X6X7X0X0X0X6X0X3X0X9X0X0X9X8X0X0X0XqXqXqXqXqXqXqXqXqXqXqXqXqXqXqXqXqXqXqXqXqXqX",
"qXqXqXqXqXqXqXqXqXqXqXqXqXqXqXqXqXqXqXqXqX0X0X0X0X0X0X0X0X3X0X0X0X0X0X0X9X0X0X0X0X0X3X7X0X0X0X0X0X0X0X6X0X0X4X0X0X8X0X6X0X0X0X0X+X0X0X8X0X5X0X0X4X0X0X0X>X6X0X3X0X0X0X3X0X0X0X0X0X0X0X0X6X0X0X0X0X0X0X0X0X0X0X8X0X0X0X9X0X8X6X0X0X0X~.,X6X0X0XY.0X0X0X0X6X0X3XY.6X0X3X0X0X0X0X0X3X0X0X0X0X0X0X0X0XY.0X0X0X8X0X0X+X0X0X0X0X0X0X0X0X0X5X0X6X7X0X8X0X3X3X0X0XY.0X0X0X0X0X0X6X0X3X0X0X3X6X0X0X0X0X0X0X0X0X0X0X0X0X0X0X0X0X).8X X0X0X5X0X0X0X0X0X0X3X0X0X9X3X8X6X9X0X0X0X0X5X4X0X3X0X0X0X5XqXqXqXqXqXqXqXqXqXqXqXqXqXqXqXqXqXqXqXqXqX",
"qXqXqXqXqXqXqXqXqXqXqXqXqXqXqXqXqXqXqXqX0X0X0X0X0X6X0X9X0X0X5X0X9X0X0X0X5X0X9X0X0X0X3X0X0X3X0X0X8X3X4X0X0X0X0X0X0X9XL.7X|.7X7X6X0X0X0X0X0X0X0X0X0X0X0X&X0X0X0X5X5X0X0X0X0X5X0X3X0X0X6X0X3X0X$X0X0XP.0X0X6X0X0X0X4X0X3X0X0X0X0X0X0X0X0X0X0XP.0XY.0X0X7X0X0X9X0X0X0X0X0X0XK.9X0X0X3X0X0X8X0X0X0X0X0X6X8X9X6X0X0X7X6X0X8X0X9X0X0X0X0X0X0X0X0X0X6X0X0X0X8X0X0X0X0X0X0X7X9X0X0X0X0X0X0X0X6X>X0X0X0X0X0X>X0X0X0X7X0X X0X7X0X0X3X0X7X0X0X0X6X7X9X0X0X0X9X0X0X0X7X1X0X9X0X6X&X7X0X0X8X0X0X6X3X0XqXqXqXqXqXqXqXqXqXqXqXqXqXqXqXqXqXqXqXqX",
"qXqXqXqXqXqXqXqXqXqXqXqXqXqXqXqXqXqXqXqX6X0X3X9X0X0X0X0X0X0X0X0X0X0X0X6X0X5XY.0X8X3X3X0X0X0X0X0X5X3X0X0X6X0X6X&X5X0X8X0X0X*X0X0X6X7XS.7X8X6X6X6X8X0X0X0X0X0XY.0X8X0X9X0X0X3X0XY.0X0X0X>X8X+X3X6X6X0X6X0X0X3X0X0X0X0X&X7X0X0X0X0X6X0X0X0X9X5X5X6X0X0X0X8X0X0X0X0X0X6X0X0X0X0X{.3X3X3X0X0X0X0X4X6X0X0X6X0X0X0X|.0X8X0X0X0X0X0X0X0XU.6X0X0X0X+X0X0X9X0X8X5X0X0X0X0X7X&X0X0X0X0X9X0X6X0X9X0X0X0X~.0X0X0X~.0X>X0X9X0X9X0X6X3X3X0X0X~.0X0X0X>X(.0X0X0X0X6X0X0X9X0X{.Y.0X0X0X0X6X0X3XH.0X0X0X6XqXqXqXqXqXqXqXqXqXqXqXqXqXqXqXqXqXqXqXqX",
"qXqXqXqXqXqXqXqXqXqXqXqXqXqXqXqXqXqXqX3X7X0X0X0X0X0X0X8X0XL.0X8X6X4X0X0X7X0X8X0X0X0X3X0X3X6X0X3X3X0X0X0X6X7X0X0X0X0X3X7X0X8X0X0X0X0X3X0X0X4X0X6X5X0X0X0X>X5X0X0X0X>X0X0X0X0XY.9X0XY.0X0X0X0X0X0X0X0XP.0XU.0X0X0X7X9X0X4X0X6X0X0X8X9X3X_.0X0X0X0X0X0X0X0X0X0X3X0X8X0X8X0X0X0X+X0X0X0X0X5X3X9X0XY.*X6X9X0X0X0X3X0X5X0X,X6X7XY.0X0X0X0X0X8X9X0X0X6X+X0X0X0X0X0X0X0X0X9X0X6X0X8X3X0X0X0X0X0X0X0X9X6X0X>X0X0X6XS.0X7X7X0X3X6X0X4X1X3X0X0X0X0X|.6X9X0X0X0X0X0X0X0X0X0X0X0XoX3X0X6X0X0X8X0X0X0X+XqXqXqXqXqXqXqXqXqXqXqXqXqXqXqXqXqXqXqX",
"qXqXqXqXqXqXqXqXqXqXqXqXqXqXqXqXqXqX|.0X0X7X6X0X0X0X0X0X0X6X0X8X0X0X7X6X0X0X0X0X0X0X0X0X0X0X0X9X0X6X0X0X0X8X0X0X0X6X0X0X0X6X0X0X0X0X0X3X0X0X0X5X7X5X0X0X0X0X0X0X0X6X0X0X0X0XU.0X6XY.3X0X0XY.0X9X0X0X0X3X7X0X7X0X7X9X0X0X0X7X0X9X0X0X0X0X0X9X=X4X5X0X0X7X0X0X8X5X0X0X<X0X0X0X0X_.0X0X9X5X0X5X0X0X0X0X0X0X0X0X0X3X6X0X0X8X0X0X-X0X0X0XY.0X0X3X0X0X0X0X0X0X0X0X0X0X0X0X0X X0X0X3X9X0X0X0X0X0X0X6X0X3X0X0X0X9X0X8X0X0X6X0X0X0X0X0X0X0X0X0XU.8X9X0X0X0X0X0X0X0X0X6X0X0X0X0X0X0X0X0X0X0X6X0X0X0X0XqXqXqXqXqXqXqXqXqXqXqXqXqXqXqXqXqXqX",
"qXqXqXqXqXqXqXqXqXqXqXqXqXqXqXqXqXqX0X0X+.0X0X0X0X6X7X8X0X0X0X0X0X3X0X0X0X0X0X0X0X0X0X0X9X&X0X0X6X0X7X4X4X3X0X0X0X0X0X0X7X0X0X>X6X0X3X0X0X3X0X7X0X6X6X0X>X0X0X0X0X6X0X0X-X0X0X6X9X9X0X0X6X0X0X9X0X0X6X0X0X6X3X0X6X0X0X5X0X8X0X X0X0X6X0X0X0X0X9X0X0X0X0X0X0X3X0X0X+XY.Y.0X0X0X0X3X0X0X0X0X0X3X5X3X3X8X7X0X8X0X0X9X0X0X8X3X0X0X0X0X0X6X0X4X&X0X0XY.0X0X6X0X0X7X0X8X5X3X0X6X0X0X3X0X0X0X_.8X0X0X0X0X7X0X0X0X8X0X3X0XY.0X6X8X0Xw.9X7X7X0X*X0XU.5X8X9X7X6X0X0X0X0X0X0X0X0X0XP.0X0X6X0X0X0X0X6X7XqXqXqXqXqXqXqXqXqXqXqXqXqXqXqXqXqXqX",
"qXqXqXqXqXqXqXqXqXqXqXqXqXqXqXqXqX0X0X0X9X3X0X3X0X8X0X0X0X9X0X8X9X0XY.Y.4X8X7XY.0XY.0X0X9X0X8X0X0X9X0X4X0X0X>X0X0X0X0X0X0X0X9X3X0X0X7X0X0X8X0X9X7X9X0X0X0X0X0X0X0X0X7X0X0X0X6X8X/.0X0X0X3X0X8X3X0X0X4X5X0X0X0X6X0XU.0X0XY.5X0X0X0X7X0X0X0X0X0X3X0X0XP.6X0X3X0X6X0X0X0X0X0X0X0X0X0X0XY.0X0X0X0X3X9X0X0X4X9X0X8X7X0X0X0XXX0X7X0X0X0X0X>X8X8X5X3X0X>X0X0X0X_.1X0X9X0X0X0X0X8X0X0X0X0X3X0X0X0X8X0X0X0X0XU.0X0X7X0X0X0X0X0X0X0X0X0X7X0X|.0X3X7X7X9X0X>X0X0X9X0X0X0X0X0X8X0X0X~.^.XX0X0X0X).6X0X0X5XqXqXqXqXqXqXqXqXqXqXqXqXqXqXqXqXqX",
"qXqXqXqXqXqXqXqXqXqXqXqXqXqXqXqX0X9X0X8X0X3XI.9X3X3X0X9X0X0X0X0X0X0X0X0X0X8X9X0X0X8X0X0X7X6X0X0X3X7X0X0X0X3X6X3X0X0X3X6X0X0X0X0Xa.6X0X0X0X0X6X0XY.7X0X8X3X0X0X5X0X0X0X;X0XY.0X0X8X0X8X0X6X0X0X9X3X+X9X0X0X0X0X0X5X0X_.3X0X0X0X0X0X0X9X0X0X0XY.0X3X0X0X;X0X0X0XU.Y.9X0X6X0X5X0X0X0X0X0X0X0X0X0X0X0X0X8X0XU.0X0X9X8X9X0X0X0X0X0X<X_.0X9X0X3X0X0X8X0X6X0X0X8X0X0X0X5XY.>X0X8X0X0X0X0X0X7X0X0X0X3X0X0X0X3XU.0X0X0X8X0X0X0X0XU.0X0X0X7X0X6X9X7X6X0X0X0X0X0X8X8X0X0X0X6X9X0X0X0X0X9X0X0X7X0X0X0X0X0X6XqXqXqXqXqXqXqXqXqXqXqXqXqXqXqXqX",
"qXqXqXqXqXqXqXqXqXqXqXqXqXqXqXqX0X0X0X0X0X0X8X0X7X5X3X0X6X0X6X0X0X0X4X6X0X0X0X9X6X6X0X7X6X0X0X0X0X0X0X0X3X0X0X3X0X7X0X0X0X0X0X0X0X3X0X9X0X0X0X0X0X0X6X>X0X0X6X0XH.6X0X0X0X-X9X0X0X0X0X0X0X6X0X0X3X`.0X0X0X3X9X0X4X0X0X0X0X0X8X6X9X0X0X0X0X0X1X0X0X0X0X0X0X0X9X0X0X0X0X9X0X0X6X0X8X0X0X0X0X0X0X0X&X3X0X0X0X0X3X0X0X9X0X0X0X0X0X7X0X9X3X6X0X0X9X7X6XY.0X0X0X9X0X0X0X0X~.0X0X6X5X0X8X0X0X5X3X0X0X0X0X0X0X0X0X8X0X,X6X8X0X0X0X0X0X0X9X6X0X0X4X0X0X8X0X0X3X0X0X3X0X0X0X0X0XP.7X0X0X0X3X0X0X0X0X0X0X9XqXqXqXqXqXqXqXqXqXqXqXqXqXqXqXqX",
"qXqXqXqXqXqXqXqXqXqXqXqXqXqXqX#X9X0X4X0X0X0X+X4X0X>X3X6X0X9X0X0X8X9X|.0X0X~.0X0X0X0X_.0X0X6X0X6X0X0X0X6X0X0X4X0X0X7X0X0X0XU.0X%X~.9X0X0X0X0X0X3X0X6X0X7X9X0X6X0X0X0X0X0X3X3X6X0X0X0X0X0XH.8X0X0XY.9X6X-X0X_.P.0X0X0X0X0X0X0X1X0X0X6X0X0X0X0X0X0X0X-X3X0X0X0X0X0X0X7X0X0X3X0X6X9X3X0X0X6X0X8X|.0X9X0X0XE.0X0X9X0X4X0X6X0X6X0X5X3X0X0X0X0X{.0X6X6X0X9X0X0X6X0X0X|.0X9X8X0X9X6X0X0X9X0X9X0X0X6X0X4X0X9X0X0X6X0X0X0X0X0X0X6XY.0X7XQ.>X3X0X0X3X0X0X3X7X0X0X0X0X0X3X4XP.6X0X4X0X0X6X0X7X3XK.0X0X0X0X0X0XqXqXqXqXqXqXqXqXqXqXqXqXqXqXqX",
"qXqXqXqXqXqXqXqXqXqXqXqXqXqXqX3X0X0X8X6X6X7X0X0X0X0X7X3X0X3X0X6X0X0X0X0X6X0X0X3X0X0X0X0X6XP.0X9X|.7X0X0X0X_.0X X3X0X0X0X6X0X0XY.0X0X0X6X0X9X0X-X0X0X6X0X4X6X0X0X0X0X7X8X6X6X0X0X3X0X0X0X9X0X6X0X0X0X0XH.~.0X0X0X0X9X8X6X0X0X0XY.0X9X0X0X0X0X0X0X0X0X0X0X0X0X&X0X0X0X6X9X>X6X8X0X3X0X9X0X0X0XY.0X5X0X0X0X0X0X0X>X0X0X0X3X3X7X3X6X<X0X0X0X0X9X0X0X7X9X0X0X9XY.0X0XP.0X5X0X6X0X4X0X0X0X4X0X8X0X0X0X9X0X0X0X>X6X0X3X7X0X0X0X0X0X0X<X0X8X0X0X0X0X0X0X9X0X0X0X3X0X0X0X6X0X6X0X0X0X0X0X0X0X6X0X8X7X'.0X0XqXqXqXqXqXqXqXqXqXqXqXqXqXqXqX",
"qXqXqXqXqXqXqXqXqXqXqXqXqXqX6X0X0X0X0X0X0X0X6X0X3X0X9X0X0X0X0X0X0X0X8X0X0X0X7XL.0X0X9X3X0X7X0X0X0X0X0X0X0X0X0X0X6X6X8X0X0X0X0X0X9X0X<X0X0X0X9X0X0X|.3X7X0X9X5X4X0X0X<X0X0X0X0X9X0X_.0X0X0X0X0X0X0X0X0X9X0X0X5X5X7X0X0X9X0X0X0X0X0X0X3X3X0X0X6X0X0X9X0X0X3X0X0X0X0X{.9X9X9X0X0X6XY.6X0X4X9X0X0X0X9X0X0X0X0X0X8Xv.4X0X0X0X0X0X6X0X3XY.0X0X0X0X5X6X6X9X8X0X8X0X0X0X0X0X&X0X0XL.0X6X0X3X0X0X8X0XL.0X0X0X0X9X>X9X6X0X!.0X0X9X9X3X0X0X7X9X0X9X0X0X8X0X0X0X0X0X0X8X0X0X7XP.0X0X6X0X0X4X6X5X0X3X9X0X0X0X6X0XqXqXqXqXqXqXqXqXqXqXqXqXqXqX",
"qXqXqXqXqXqXqXqXqXqXqXqXqXqX+X3X3X0X0X0X6X0X9X0X0X0X6X}.0X0X0X0X{.0X7X3X0X0X3X6X7X3X6X5X3X0XH.0XH.0X0X0X&X6X0X0X0X0X0X8X>X0X0X0X6X0X0X0X0X0X8X5X0X4X6X9X0X6X5X*X0X6XK.3X5X0X6X(.0X0X0X9X0X0X0X0X0X>X0X0X0X6X0X0X0X0X0X0X0X0X6X9X0X0X0X0X0X0X0X3X0X0X0X0X7X0X0X0X0X0X0X0X6XY.>X0X9X0X7X0X0X0X6X0X0X0XH.0X7X0X8X0X0X9X0X6X0X8X4X0X0X0X0X0X0X0XY.Y.0X0X6X8X{.0X3X0X6X0X0X0X9X3X0X0X8X0X6X5X0X0X0X0X8X0X0X0X3X7X5X0X9X3XY.8X0X0X6X9X>X`.0X0X0XY.0X6X0X3X0X0X9X0X3X0X6X0X0X7X0X9X0X0X0X0X>X0X8X0X0X0X0X0XqXqXqXqXqXqXqXqXqXqXqXqXqXqX",
"qXqXqXqXqXqXqXqXqXqXqXqXqX6X9X1X0X0X7X3X0X0X8X0X0X0X0X0X+X0X0X0X6X3X6X0X6X5X9X0X0X0X6X0X|.0X0X+X9X6X3X9X0X0X0X0X0X7X0X0X0X0X0X0X0X3X0X0X0X8X0X9X0X0X0X0X0X0X0X8X6X0X0X0X0X0X6X9X,X0X0X0X0X0X>X0X0X5X0X8XU.U.0X0X8X0X0X0X0X0X0X0X9X0X4X0X6X9X0X&X0X6X5X8X0X3X0X0X0XY.0X0X0X0X8X0X0X0X0X0X7X0X0X9X8X0X6X0X0X0X3X0X8X0X0X4X0X0X0X9X0X0X0X0X0X0X0X0X5X0X0X3X0X>X9X0X9X9X0X>X0X8X0X7X0X5X6X0X0X0X0X0X9X0X0X6X0X}.0X0XY.0X0X7X8X0X0X0X0X0X0X0X0X0X6X0X9X0X0X0X7X8X4X0X0X0X8X8X0X0X0X0X0X0X0X5X6X0X0X8X&X0X3XqXqXqXqXqXqXqXqXqXqXqXqXqX",
"qXqXqXqXqXqXqXqXqXqXqXqXqX0X0X8X8X0X5X0X0X0X0X<X0X0X9X6X0X3X0X0X0X0X0X0X0X6X|.5X0X>X0X.X0X0X0X6X0X0X9X0X9X0X0X0X0X0X0X0X4X0X0X0X0X0XY.0X0X0X~.0X0X9X7X0X0X0X X9X0X0X0X0XY.0X0X7X0X3X0X0X0X7X0X8X7X3X3X3X0X0X0X0X0X6X9X7X0X0X0X0X4X3XP._.0X0X0X0X0X0X&X9X0X0X0X6X0X0X9X7X0X0X0X0X0X7X4X0X9X7X0X0X6X4X0X0X9X6X0XY.0X6X9X0X8X0X0X0X0X0X0X0X0X0X>X0X0X3X0X0X0X0X0X0X0X9X3X0X6X8X0X0X0X9X0X0X0X6X0X0X6X0X0X0X3X0X{.0X0X0X9X9X0X0X9X8X0X9X0X0X0X3X0X9X6X0X6X6X9X0X0X4X0X0X0X6XY.0X0X0X0X0X0X0X0X0X0X6X0X0X0XqXqXqXqXqXqXqXqXqXqXqXqXqX",
"qXqXqXqXqXqXqXqXqXqXqXqX0X0X0X0X9X3X0X8X6X0X0X0X0X0X0X0X0X0X0X0X0X0X9X0X4X0X6X0X3X0X0X0X0X0X6X9X0X9X4X0X3X0X0X0X7X0X9X0X0X9X3X0X0X0X5X6X0X0X8X0X0X0X0X9X9XH.0X0X8X3X0X0X>X6X7X~.8X0X{.8X0X0X9X0X0X6X0X0X0X0X0X0X3X0X3X3X9X0X6X0X0X0X0X0X8X0X6X0X6X9X0X8X0X0X0X0X0X4X6X3X5X0X0X8X0X0X0X0X0X0X0X8X6X6X0X9XY.0X0X0X0X9X0X0X6X0X8X0X0X8X0X3X0X0X0X0X0X0XY.0X0X0X0X0X0X3X3X0X0X0X0X6X0X9X0X7XY.0X0X9X0X|.0X0X0X8X0X0X0X5X~.0X0X9X0X0X0X0X0X0X6X<X0XY.0X0X9X4X0X0X0X0X3X0X0X6X3X0X0X0X0X0X3X0X0XU.0X0X0X6X0X3XqXqXqXqXqXqXqXqXqXqXqXqX",
"qXqXqXqXqXqXqXqXqXqXqXqX0X6X0X0X0X9X7X0X0X3X6X0X0X0X6X0X0X0X0X0X0X6X0X0X8X0X0X0X0X0X6X0X0X7X7X0X0X0X6X0X0X0X0X0X0X3X6X0X0X6X9X0X9X9X3X8X0X0X|.0X0X3X0X0X3X9X0X0X8X9X3X0X0X3X0X6X0X5X3X9X0X0X8X6X0X0X6X0X6Xw.,X3X0X4X0X0X0X8X0X0X0X0X].0X0X9X0X3X5X0X6X0X5X0X6X9X9X0X>X0X0X0X0X9X0X0X0X7X0X0X0X5X6X6X8X0X0X0X0X0X0X4X0X0X0X0X5X0X0X0X7X0X0X0X0X0X0X3X5X8X0X0X0X0X0X0X0X0X0X0X0X0X9X0X6X3X;X0X0X7X6X8X0X0X0X0X0X9X6X8X0X6X0X0X9X7X0X0X8X>X0X0X0X0X!.0X3X0X0X0X0Xm.0X6X0X0X8X9X0X9X0X0X0X0X0X0X0X3X9X6X0X0XqXqXqXqXqXqXqXqXqXqXqXqX",
"qXqXqXqXqXqXqXqXqXqXqX0X0X0X0X9X0X0X0X6X7X0X0Xc.9X5XY.0X0X0X3X0X0X9X0X0X0X0X6X0X0X0XY.0X5X6X6X0X3X0X0X0X0X9X0X0X0X0X6X0X>X0X6X0XP.0X6X3X0X6X5X0X0X0X0X0X0X6X0X~.0X0X3X0X3XY.0X0X8XY.0X0X0X0X0X0XY.0X6X0X0X6X6X0X9X0X0X0X3X0X6X6X0X9X0X6X0X0X0X6X7X3X0X9X0X0X7X0X4X0XS.0X0X0X0X0X0X0X0X6X0X0X6X0X0X0X3X6X6X0X0X0X6X0X7X0X9X6X0X0X8X0X0X0X9X6X9X0X0X0X0X0X0X0X5X0X0X0X4X4X3X0X0X0X0X0X0X6X5X0X9X8X6X0X0X0X0XP.6X9X0X5X0X0X0X0X8X0X3X7X0X0X0X0X6X0X0X0X9X0X6X+X0X0X0X0X0X6X>X0X0X8X>X0X0X8X9X7X0X0X0X3X6X3X0XqXqXqXqXqXqXqXqXqXqXqX",
"qXqXqXqXqXqXqXqXqXqXqX6X6X0X3X0X0X0X6X;X0X0X0X0X&X9X3X0X&X0X0X0X0X0X6X8X0X5X0X0X3X0X0X0X5X0X8X0X0X3X6X0X0X0X0X0X8X0X0X0X0X0X0X3X1X8X9X0X0X9X X0X0X0X0X{.6XP.6X0X9X0X&X0X0X0X0X9X_.0X5X8X0X0X0X7X0X3X0X9X0X0X0X0X5X0X0X0X0X0X9X0X0X0X0X0X0X6X0X0X&X6X0X0X8X0X_.0X0X4X0X4X0X5X0X7X9X7X0X5X0X0X<X0X9X0X0X0X0X0X0X0X9X|.0X9X0X0X6X0X0X_.0X0X0X0X0X0X0X0X0XY.3X0X7X0X0X3X0X0X-X0X0X0X0X0X0X0X0X8X0X0X0X0X0X0X0X0X0X0X0X0X0X0X0X0X6X0X0X7X0X0X0X8X8X0X0X0X0X0X0X0X9X7X0X0X0X9X3X6X0X6X6X0X>X3X6X0X7X0X0X0X7X0X3XqXqXqXqXqXqXqXqXqXqXqX",
"qXqXqXqXqXqXqXqXqXqXqX0X0X6X9X7X0X9X0X0X0X9X0X5X9X0X0X0XU.0X0X0X0X0X6X7X9X0X0X0X0X>X8X5X9X0X0X4X9X0X0X0X0X0X9X0X0X3X0X0X6X0X6X2X0X0X7X0X0X0X_.0X0X~.0X0X0X0X6X0X0X&X0X7X0X0X0X9X0X0X8X0X8X6X0X0X0X8X0XP.>X0X3X9X0X0X6X0X0X_.0X0X7X0X8X0X3X0X0X0X_.0X9X0X9X6X0X6X0X0X0X3X X0X0X9X6X7X0X0X0X0X0X0X0X6X0X0X0X0XY.0X0X>X0X6XA.0X0X0X0X9X0X1X0X0X6X}.0X6X0X6X0X0X0X0X5X8X3XY.0X3X0X6X0X6X0X0X6X0X0X0X7X0X0X0X0X0X6X0X0X}.9X0X0X0X0X0XY.+X0X0X0X0X0X0X7X9X6X8X0X0X0X0X0X0X3X0X8X0Xa.H.3X0X0X6X0X0X0X*X0X0XY.0X9XqXqXqXqXqXqXqXqXqXqXqX",
"qXqXqXqXqXqXqXqXqXqX6XY.0XU.0X0X0X0X6X7X0X0X0X0X0X5X6X#X0X0X0X3X0X0X0X#X0X0X6X0X9X0X8X0X9X0X0X9X0X0X8X0X0X-X:X8X0X0X9X0X9X7X0X8X0X9X0X0X0X0X0X0X0X9X0X0X0X0X6X0X0X0X0X0X0X4X0X9X3X0X0X0X0X0X0X3X6X0X0X0X9X0X0X0X8X0X0X0X7X0X9X0X9X3X7X0X0X0X0X0X0X0X6X0X7X6X0X0X0X0X0X0X0X0X8X0X0X0X0X6X6X9X4X.X0X0X0X0X4X0X0X0X8X0X0X0X0X0X0X0X6X0X0X0X9X6X3X0X0X3X0X3X0X0X0XY.0X9X0X6X0X0X0X9X0X0X0X8X0X0X+X0X6X0X0X0X0X&X0X8X0X6X0X0X0X0X6X0X0X9X0X6X0X0X6X8X0X0X0X9XL.9X0X9XU.0X0X0X0X0X8X0X0X0X8X0X0X0X0X9X0X0X0X6X0X4XqXqXqXqXqXqXqXqXqXqX",
"qXqXqXqXqXqXqXqXqXqXY.0X0X3X0X5X9X0XH.0X0X0X0X0X0X0X0X0X0X0X3X0X3X0X0X0X7X0X{.0X9X7X0X0X9X0X3X6X0X0X0X0X0X6X^.0X0X0X0X7X0X0X+X5X~.0X9X5X7X6X0X7X0X0X0X0X0X6X0X0X9X0X0X8X0X7X0X0X0X0X9X6X6X0X0X0X0X,X0X8X0X0X0X0X0X0X0X0X0X0X0X0X0X0X0X0X9X0X0X8X0X0X0X0X0X8X0X0X8X7X0X0X0X0X0X0X3X7X3X5X0X3X0X0X0X0X9X0X9XY.0X0X0X0X0X0X0X0X0X3X6X0X4X0X3X0X0X3X0X0X8X9X0X6X0X8X0X0X0X0X3X9X0X0X8X0X0X0X0X8X6X0X0X0X0X0X0X0X0X8X0X0X{.6X9X0X8X9X0X6X0X0X0X0X7X0X0X0X0X0X0X0X0X0X*X0X0X0X8X0X0X0X0X5X0X0X0X6X0X0X0X0X8X{.3X0XqXqXqXqXqXqXqXqXqXqX",
"qXqXqXqXqXqXqXqXqXqX0X0X0X0X0X0X0X0X0X0X4X9X0XY.0X0X0X0X6X0X2X0X5X0X0X0X0X0X0X9X0X0XK.3X0X0X0X0X6X0X3X>X8X4X9X0X3X0X6X0X9X3X9X0X3X5X0X0X0X0XY.9X9X0X7X0X0X0X9X7X0X+XK.0X0X0X0X0X3X0X0X0X0X9X0X5X5X0X0X0X7X0X3X3X6X7X3X0X6X0X0X3X0X0X0X0X0X0X0X0X6X,X6X0X0X0X0X0X5X3X0X6X4X0X8X0X0X5X9X9X0X0X0X0X~.9X0X0X0X6X5X6X+X9X0X0X0X0X0X0X0X0X7X3X0X9X0X0X0X0X0X6X0X6X0X0X7X X0X0X0X0X6X6X0X6X0X0X4X8X0X6X9X9X7X0X0X0X0X0X0X4X0X0X0X3X7X0X7X0X0X3X0X0X0X0X0X0X0X0X6X0X8X0X0X6X0XY.7X0X0X5X7X6X0X0X0X7X0X0X0X6X5X0X0X0XqXqXqXqXqXqXqXqXqXqX",
"qXqXqXqXqXqXqXqXqXqX6X0X0X+X5X0X0X0X0X0X0X9X0X0X6X3X0X0X0X0X0X0X0X8X0X0X0X3X0X0X0X{.0X3X0X0X0X0XOX7X9X9X0X0X0X9X0X6X0X6X3X0X3X0X8X0X0X|.0X0X0X0X3X9X0X0X0X0X0X0X|.8X0X0X0X>X9X0X0X0X0X0X9X0X0X3X0X0X0X0X0X0X0X0X3X0X0X0X3X6X0X0XK.0X0X0X0X0X0X0X0X0X6X0X0X0X6X0X0X0X5X0X6X0X0X0X/.0X0X0X7XT.9X0X&X6X0X0X0X3X0X4X0X9XP.0X6X3X0X0X0X5X0X0X>X0X0X8X0X0X6X0X9X0X0X0X0X0X0X0X#X0X0X0X6X+X2X0X6X0X0X0X0X0XY.9X0X3X0X3X9X0X0X4X0X0X0X0X0X8X9X0X0X0X6X0X6X0X0X0X0X9X1X8XoX0X0X0X0X0X0X0X0X7X0X0X0X0X0X0X0X8X0X0X0X8XqXqXqXqXqXqXqXqXqXqX",
"qXqXqXqXqXqXqXqXqX9X8X4X0X6X3X8X0X0X8X0X0X0X0X0X8X0X0X0X0X0X8X0X0X0X0X0X0X0X3X;X9X3X0X0X0X0X0X6X0X3X5XR.0X6X0X0X0X8X8X0X0X0X8X0X0X0X0X9XY.0X0X0X8X0X7X0X0X0X6X0X0X2X0X0X7X7X0X0X0X0X9X0X3X0X+X0X>X0X0X0X9X0X0X0X0X6X0X0X3X6X0X0X3X0X0X0X0X0X0X0X6X0X0X0X0X6X0X0X7X0X6X0X0X0X5XL.0X8X0X9X0X4X9X0X0X6X0X0X0X9X0X0X6X0X3X0X0X0X0X0X6X0X3X0X6X0X0X9X0X0X0X0X0X0X0X0X7X7X8X0XS.0XU.0X6XP.0X0X0X9X6X9X0X0X0X0X8X7X0X3X0X0X0X0X|.9X3X0X0X>X0X0X0X9X0X0X8X0X9X0X9X0X0X0X0X0X0X0X0X8X{.0X*X0X8X9X7X0X0X0X0X0X0X0X0X0X9XqXqXqXqXqXqXqXqXqX",
"qXqXqXqXqXqXqXqXqX6X8X0X0X8X0X#X0X0X>X0X6X0X0X0X0X0X9X0X0X0X0X0X0X0X6X8X3X3X0X0X0X0X0X0X0X0X0X0X0X5X0X0XY.0X0X8X0X0XY.9X0X9X0X3X6X6X0X0X0X0X_.0X3X~.0X5X0X0X8X0X5X3X0X0X X0X7X6X0X6X4X0X3X0X0X0X0X0X0X0X0X5X0X6X3X0X0X9X0X0X0X0X0X{.0X0X0X0X6X0X0X0X0X0X0X0X0X0X8X>X6X8X0X0X0X3X3X0X0X6X0X6X7X>XY.9X9X0X0X0X6X0X0X0X0X0X9X0X0X6X0X6X0X0X8X0X0X3X0X0X0X0X0X0X0X6X0X0X0X0X3X0X6X0X0X0X9X7X0X3X0X0X3X3X6X0X0X0X9X0X4X0X0X(.6X4X0X0X0X4X0X0X0X0X0X6X0X0X8X9X>X7X0X0X9X0X0X0X0X0X5X0X6X-X0X6X9X0X0X0X0X7X0XS.3X0X0XqXqXqXqXqXqXqXqXqX",
"qXqXqXqXqXqXqXqXqX8X6X3X_.3X0X3X0X0X0X0X3X0X0X0X0X3X5X0X0X0X6X0X4X5X0X9X0X0X7X0X0X0X8X0X0X0X0X0X0X0X0X0X0X0X6X0X0X3X0X8X0X0X0X0X0X0X6X0X>X0X6X0X9XU.3X0X0X0X0X3X0X0X0X0X0X8XU.0X3X0X0X0X5X0X0XH.0X0X0X8X0X0X0X8X9X0X0X0X0X0X0X3X0X0X0X0X0X3X3X0X0X<X0X9X0X3X0XU.0X0X0X0X0X0X0X0X0X0X5X8X0X0X6X4X0X6X0X0X0X0X0X6X8X6X0X0X6X6X0X).0X7X0X7X0X0X8X0X0X0X0X0X0X0XH.0X7X8X6X9X8X0X0X0X0X5X0X0X0X>X0X6X3X|.0X0X>X0X8X6X0X0X0X6X0X0X8X0X0X0X0X0X0XXX0X0X;X0X0X0X0X0X9X8X0X9X0X9X6X0X0X6X0X0X0X3X6X0X3X0X0X0X0X0X0X0X0XqXqXqXqXqXqXqXqXqX",
"qXqXqXqXqXqXqXqXqX3X0X0X6X0X0X9X0X+X0X3X6X0X5X0X0X0X7X3X9X0X0X9X0X0X0X0X0X0X0X4X3X3X8X3X0X0X3X0X9X6X0X6X0X~.}.0X0X0X0X0X9X0X0X0X0X0X0X0X0X8X0X5X8X0XY.0X0X6X*X0X0X5X0X{.0X9X0X0X0X3X3X0X_.0X<X0X0X0X0X0X0X0X0X0X0X6X0X0X9X6X0X5X0X0X0X0X0X0X0X0X0X3X>X0X5X3X0X0X0X0X0X0X0X0X;X0X7X0X3X6X8X8X9X0X7X0X0X0X0X3X0X0X0X0X0X0X0X8X0X3X8X>X0X0X0X9X0X0X0X0X5X0X0X0X&X0X3X9X0X0X0X0X0X4X0X0X0X6X0X,X0X5X9X0X7X0X0X0X0X0X8X).0X6X7X0X0X0X0X0X).0X0X5X3X0X5X0X0X0X0X0X0X0X0X9X9X0X0X0X0X0X0X#X7X0X0X0X>X0X0X0X0X0X0X6X6XqXqXqXqXqXqXqXqXqX",
"qXqXqXqXqXqXqXqX3X0X{.0X0X0X8X4X0X0X0X7XY.0X0X0X0X0X0X0X0X0X4X7X3X0X6X0X0X0X0X0X0X0X8X0X7X4X0X0X0X0X0X4X0X0X4X9X0X0X3X0X0X7X0X0X0X0X0X0X8X0X5X0X0X0X3X6X0X0X8X9X0X0X0X0X0X6X0X6X0X0X9XY.0XY.0X0X9X0X0X8X0X3X8X0X0X0X0X0X0X0X0X0X0X6X0X3X6X0X0X7X8X6X0X0X3X9X0X0X0X8X0X0X8X0X7X0X3X0X0X0X0X6X0X>X#XY.0X0X0X9X3X0X&X0X0X0X0X0X0X0X8X0X0X0X6X8X6X0X6X0X0X0X0X0X0X0X3X9X0XY.0XY.).9XY.0X0XY.0X8X0X0X4X0X0X0X0X0X0X0X4X0X6X0X5X3X0X0X0X6X9X9X3X0X0X0X0X0X0X0X0X3X8X0X0X0XY.0X0X0X0X5X0X0XI.3X0X0X0X0X0X0X0X0X0X>X0X0XqXqXqXqXqXqXqXqX",
"qXqXqXqXqXqXqXqX~.9X9X0XJ.0X0X0X8X7X0X0X0X0X0X0X0X0X0X0X0X6X0X0X3X0X9X0X0X6XP.0X0X+X0X0X8X3X6X0X9X6X0X0XY.0X4X9X0X0X0X0X0X8X0X0X0X0X0X0X0X0X0X0X7X0X9X6X0X0X0X7X0X6X0X0X0X9X6X0X0X6X9X6X0X0X=X8X0X6X0X0X9X6X8X0X0X8X0X0X0X9X0X0X0X0X7X0X9X7X0X3X0X0X6X8X3X0X0X9X0XY.5X0X0X+X0X6X0X0X8X0X0X4X0X9X6X0X0X0X0X6X0X8X0X0X3X0X7X9X0X8X0X8X9X0X0X3X0X3X0X9X0X0X0X0X0X0X4X0X0X0X5X0X0X0X0X0X0X0X0X0X0X5X6X0X0X3X0X0X0X8X6X0X'.8X0X0X0X7X0XU.0X0X0X5X0X0X0X3X0X8X7X0X0X0X8X0X0X0X0X0X0X0X0X0X0X0X0X6X0X0X0X6X0X_.0X0X0X0XqXqXqXqXqXqXqXqX",
"qXqXqXqXqXqXqXqX0X0X9X0X8X6X0X0X0X8X4X0X0X0X0X0X0X4X0X0X3X0X0X0X8X0X0X0X0X7X4X|.9X0X0XK.9X0X1X0X3X&X;X0X0X>X0X6X0X0X0X8X0X9X3X0X0XH.0X0X0X7X6X6X0X7X0X3X0X0X0X0X0X0X0X0X0X7X0X0X0X0X0X0X0X0X0X4X0X0X0X0X9X0X6X0X0X0X3X8X6X0X0X0X0X0X9X6X0X0X0X0X0X0X6X0X0X9X0X9X7X0XY.0X6X0X0X0X0X0X9X6X0X6X0X5X0X0X5X7X0X9X5XH.0X0X5X7X0X8X6X0X6X3X4X8X_.3X0X9X8X0X9X0X0X0X6X0X0X0X6X0X0X0X0X0X6X0X8X9X0X0X0X0X0X0X7X0X0X6X0X3X0X8X0X6X0X0X0X0X0X0X0X3X0X7X6X0X7X0X0X X3X0X0X0X_.0X0X0X0X0X6X0X6X0X3X0X0X0X0X9X8X>X8X3X0X0X0X8XqXqXqXqXqXqXqXqX",
"qXqXqXqXqXqXqXqX0X3X0X0X6X8X0X0X3X0X0X0X0X+.U.5X-X4XP.0X0X6X0X0X0X0X0X0X0X0X0X0X9XY.0X0X0X&X6X0X3X0X0X0X9X7X0X0X0X0X5X3X0X7X0X0X0X0X9X0X0X6X6X6X9X0X3X9X0X0X0X0X0X3X6X0X3X0X6Xe.0X6X0X0X0X0X6X0X0X4X0X0X0X0X3X0X7X0X6X4X0X0X0X0X0X0X0X7X3X6X&X4X0X7X0X0X0X0X0X8X0X0X3X0X0X0X0X0X6X0X0X3X0X0X0X0X0X0X0X0X7X0X0X0X0X0X0X0X0X3X0X0X0X0X5X0X6X3X0X{.0X0X6X9X0X0X0XY.0X0X>X8X0X0X8X0X_.0X0X6X0X6X0X0X0X0X0X0X6X8X0X8X0X6X0X0X0X;X4X0X0X&X0XI.0X-X<X0X0X6X0X8X0X6X0X0X0X0X0XY.0XY.3X0X0X0X3X0X5X4X0X>X0X0X0X0X0X0X0X6XqXqXqXqXqXqXqXqX",
"qXqXqXqXqXqXqXqXY.9X3X8X0X&XY.0X1X3X0X8X0X6X~.7X9X`.0X6X0X0X0X0X0X0X6X8X0X0X9X7X0X0X0X5X0X3X0X|.0X0X0X0X0X2X0X0X0X0X0X0X7X`.0X3X0X3X0X0X0X0X0X0X0X|.0X;X0X0X0X0X7X0X0X8X3X0X0X8X0Xr.0X0X0X6X0X0X0X0X0X0X0X;X0X6XK.0X0X0X0X9X0X0X9X0X0X9X0X0X`.0X9X0X6X8X3X3X9X0X0X0X0X0X6X0X0X0X0X0X7X3X6X6X3X0X0X6X0X0X0X0X6X0X0X6X0X0X0X0X0X6X0X8X9X3X0X9X0X0X8X].$X0X8X0X0X0X8X0X8X6X_.0X0X0X7X0X0X0X-X0X0XY.0X0X5X7X5X6X0X3X6X0X6X0X0X0X0X0X3X0X&X0X3X4X3X0X0X6X9X0X0X0X8X0X9X0X6X6X0X6X0XU.0X7X0X0X8X0X9X0X0X3X0X0X0X_.0X0XqXqXqXqXqXqXqXqX",
"qXqXqXqXqXqXqXqX0X0X9X0X7X0X0X0X0X0X8X0X0X0X9X0X0X0X0X5X0X0X0X4X0X0X0XY.0X3X0X>X0X3X0X0X0X0X0XY.0X0X6X4X0X8X7X0X0X0X8X9X3X0X0X0X).0X8X0X0X0X9X0X7X0X4X5X0X0X4X0X9X0X0X6X0X0X7X7XP.0X3X0X0X0X8X0X0XP.0X0X0X7X6X*X0X9X0X0X0X6X0X8X6XI.0X4X0X0X8X>X3X0X0X0X0X0X0X3X0X3X0X{.9X3X0X0X0X@X6XU.0X3X0X0X0X9X0X8X0X0X0X0X0X~.0X;X0X4X4X0X9X0X9X0X0X0XY.0X0X0X0X0X0X0X0X5X8X0X0X0X0X).0X0X7X X0X0XY.7X0X6X6X0X0X0X+X<X0X0X0X0XE.9X0X6X4X6X5X0X4X0X0X0X0X0X0X0X0X0X6X_.0X0X0X8X4X0X0X0X0X0X0X0X8X0X0X0X6X~.6X4X0X0XY.6X0X7XqXqXqXqXqXqXqXqX",
"qXqXqXqXqXqXqXqX0X0X0X9XY.6X0X3X3X8X7X9X0X0X8X0X4X0X0X8X0X5X3X0X6X>X6X0X0X6X0X6X8X.X3X8X8X0X3X6X6X3X7X6X6X6X0X0X6X6X0X3X6X6X0XY.3X0X8X0X6X8XL.0X0X0X8X6X#X6X8X0X8X6X0X6X0X,X6X9X8X3X4X0X0X0X3X4X0X0X0X6X0X6X8X4X0X8X0XZ.3X1X3X3X0X6X0X0X0XP.4X3X0X0X0X0X8X8X6XY.0X0X4X0X3X>X0X{.3X3X0X8X6X9X0X9X0X6X0X3X0X0X6X6X7X9X9X9X&X0X4X9X0X3X9X3X5X~.9X6X0X8X3X0X>X0X6X3X9X0X0X0X0X0X9X0X0X3X0X6X0X6X0X3X0X0X0X0X3X6X0X`.0X0X0X6X9X0X8X~.5X3X^.0X0X0X6X6X3X0X8X0X9X3X7X0X0X0X0X0XU.3X0X3X0X3X,X0X0X,X0X0X0X9X0X0X8X0X0X0XqXqXqXqXqXqXqXqX",
"qXqXqXqXqXqXqXqX3X0XP.6X0X0X;X0X0X0X3X5X9X6X5X6X6X8X0X6X7X4X0X0X8X8X0X~.0X0X0X6X8X6X3XY.0X0X&X@.0X9X0X0X0X4X0X0X6X0X0X0X0X<X0X7X6X0X6X8X3X6X4X0X0X,X9X0X6X0X6X6X0X6X X0X8X0X6X0X8X4X0X6X7X6X4XY.0X&X3X8X8X5X,X4X0X&X0X0X0X0X8X0XY.8X0X6X6X3X6X0X4X0X6X6X8X0X3X0X8X8X3X4X6X3XY.6X0X7X0X6X&X7X8XU.0X6X0X8X6X4X0X_.;X0X8X0X0X6X0X3X0X0X{.6XY.8X0X6X6X0X0X0X6X3X0X&X0X0XY.8X3X8X8X8X0X4X6X0X4X0X0X0X6X0X-X6X6X6X0X0X0X8XY.0X&X0X0X6X6X0X~.0X5X0X0X0X4X&X6X0X3X8X0X4X5X0X0X8X6X0X6X6X3X0X8X0X6XH.0X0XH.0X6X&X0X0X0X8XqXqXqXqXqXqXqXqX",
"qXqXqXqXqXqXqXqX0X0X9X8X5X0X0X7X~.0X3XY.5X6X0XP.9X0X0X0X0X4X4X8X0X0X6X0X4X8X0X6X0X0X0X6X0X6X{.{.0X6X9X].3X6X0X;X0X8XT.5X6X0X6X0X8X3XU.>X6X8X6X3X0X8X6XY.~.0X0X0X6X0X&X0X0X0X4X0X!.5X8X~.{.9X3X9X8X6X8X3X7X6X+X6X0X6X6X6X6X0X0X6X0X7X9X0X0X8X6X3X0X0X8X8X6X8X6X9X,X0X6X6X9X8X0X8X0X6X0X0X5X0X4X4X8X6X3X6X0X8X0X6X6X8X3X0X0X0X0X3X6Xe.0X&X6X0X4X0X6X0X6X9X0XY.4X3X3XY.<X8X0X0X0X0X4X0X6X4X0X7X0X7X3X6X0X6X0X5X0X6X4X3X0X0XU.6X~.0X4X8X5X4X6X6X0X6X0X3X~.0XU.3X9X0X6X0X0X0X0X8X6X6X5X0X7X+.0X0X{.U.5X8X0X0X0X0X0X5XqXqXqXqXqXqXqXqX",
"qXqXqXqXqXqXqXqX6X9X8X6X3X8X0X6X0X0X0X0X0X8X#X0X).6X9X6X0X0X4X4X0X6X0X&XY.0X{.9X6X1X4X6X0XY.{.6X{.>X6X6X0X0X0X5X6X+XY.0X|.0X3X4X6X6X3X~.6X;XP.6X0X6X6X6X+X].0X#X9X4X6X~.6X9XL.0X5X0X&X8X8X6X{.5X3X3X4X6X0X8X~.6X4X0X0X8X6X0X6X4X8X0X&X&X~.7X0X&X0X8X8X0X&X6X8X8X9X4X0X0X8X0X4XY.4X4X8XOX3XL.0X0X6X0X0X0X4X0X6X0X~.0X0X6X0X4X0X0X3X0X0X0X3X3X6X|.0X0X0X3X0X6X6X3X6XP.3X0X0X6X0X6X6X0X3X0X6X'.4X8X4X6X0X6X0X3X4X0X6XY.0X8X6X&X~.7XY.6X0X6X6X0XY.9X0X6X8X~.0X6X8X.X6X0X6X0X3X0X7X0X0X0X0X5X6X0X0X7X0XY.6X0XP.0X9X6XqXqXqXqXqXqXqXqX",
"qXqXqXqXqXqXqXqXL.0X0X4X0X6X4X0X0X8X7X5X3X0X3X8X4X4XH.3X0XY.8X0X0XL.4X6X6X0X0X3X3X0X8X8X6X8X0X0X,X6X4XP.6X0X7X~.3X6.&X6X6X0X X8X9XW.4X4X6X0X5X8X6X6X0X3X3X6X3X8XP.4X7X3X>X6XJ. X0X4X3X8X6X0X6X9X&X0X7X6X&X6X4X8X8X0X6X8XY.8X6X3XY.S.6X6X6X4X4X3XY.I.5X4X6X6X0X0X0X0X6X9X6X0X0X6X&X&X6X6X;X0X0X8X3X{.0X4X8X} {.0X0X3X6X&X0X3XL.0X6X7X6X<X0X0X9X|.0X6X0X8XY.+X8X0X0X3X0X3X6X0X7X.X3X0X6X7X6X0X0X0X0X0X0X8X5X0X>X4X3X6XY.4X3X8X6X0X*X+X6XY.8XI.8X7X4X7X9X0X0X0X8X3X4X0X6X8X4X6X0X8X~.0X6X8X0X6X8XH.3X0X3X0X6X8X6X3XqXqXqXqXqXqXqXqX",
"qXqXqXqXqXqXqXqX6X0X0X0X8X0X3X0X+X6XY.~.0X6X4X~.6X8X0X6X3X8X6XY.0X6X7X6X|.3X0X&X<X0X&X0X6Xr.{.6X6X-XY.6X3X6X6X6X6X6X0X8X0X5X8X6X6X0X6X8X5X6X6X0X0X0X8X0X0X6X6X3X;X0X8X3X6X+X6X8X6X6X6X~.6X4X0X3X6X8XY.4X0X8X0X&X6X0X0X{.6X0X0X4X8X3X4XI.8X0X&X6X0X{.{.6X8X6X0X3X|.#X6X3XY.3X6X{.U.6X3X4X0X0X6X6X3X0X8X6X6XE.0X0X*X0X3X6X0X&X6X0X4X0X0X0X6X+X0X3X0X6X0X8X8X3X0X0X6X6X6X0X3X0X0X3X6X0X~.0X9X|.0X~.8X0X3X|.6X6XU.6X6X4X6X6X8X8X3X6X4X;XQ.Y.6X4X9XY.6X0X{.4X`.P.6X3X0X7X7X0X0X0X6X0X0X0X4X6X&X6X0X6X0X3X0X8X4X+X0X6XqXqXqXqXqXqXqXqX",
"qXqXqXqXqXqXqXqXY.5X0X0X0X0X6X&X8X8X3X4X4X6X0X6X0X3X6X1XL.6X~.0X8X8X3X9X3X8X3X-X3X3X8X6X|.&X0XP.0X6X8X6XL.P.0X6X4X0X8X4X6X6X3X6X4X6X0X0XY.H.6X0X6X0X6X8X4XK.3X0X4Xa.Y.6X4X8X5X8X0X8X9X0XP.6X6X8X8X6X~.*X0X6X;XY.0X4X6X3X0X6X6X|.Y.6X6X0X6X6X8X8X8XY.6XH.{.6X3X0X3X6X0X6X6X6X3X3X0X0X0X6X6X0XW.0X0X3X0X3X{.4X8X9X6X8X7X6X6X3X>X0X4X6X4X8X3X0X6X0X7X4X9X0X6X0X6X0X6X4X8X7X4X3X{.6X|.6X6X6X5X0X&X6X5Xn.8X4X4X0X4X0X0X0X8X8X3X6X4X&X0X6X~.6X3X>X6X3X6X8X6X8X6XY.{.4X+X6X3X4X6X9X0X8X0X6X3XP.0X0X4X3X5X0X6X0X3X8X0X0XqXqXqXqXqXqXqXqX",
"qXqXqXqXqXqXqXqX0X0X+.0X0X6X0X8X0X0X0X6X0X0X6X0X0X8X8X3X6X3X&X6X&X6X0X6X4X4X-X6X6X&X8X3XP.4X9X6X3X6X8XQ.I.0X0X&X^.6X0X&X0X8X9X&X0X&X0X6X8X0X0X4X8X6X6X8X3X0X0XY.6XY.{.0X3X6X0XE.8X6X6X*X3XoX6X*X0X8X3X6X4X6X6X0X6X8X6X4X4X6X0XP.6X8X6X6X6X3X6X8X8X3X6X4X6X7X6XL.~.4X6X3X4XY.6X4X0X0X3XP.0X6X8X6X6X8X6X&X5X0X4X0X4X0XY.6X0X0X0X6X XY.8X7X6X6X0X6X9X6X9X0X&X6X7X6X6X8X&X~.0X8X6X0X0X6X0X0X6X6X4Xd.8X6X3X~.3X8X4X6X8X6X6X0X7X3X9X8X6X6X0X6X6X0X6X8X9X9X6X0X6X0X0X8X6XY.0X0X0X3X5X6XY.3X0X6X8X0X0X0X6X7XP.0X9X4X0X0XqXqXqXqXqXqXqXqX",
"qXqXqXqXqXqXqXqX6X0X0X0X8X3X0X X3X0X0X3X7X8X3X7X8X6X0X8X6X6X0X8XJ.6X8X&X4X6X6X4X0X6X6X4X4X3X6X4X8X0X6X6X6X6XT.3X3X6X~.4X6X6X6X9X8X6X6X6XP.6X6X3X6X0X6X4X3X8X4X4X0X8X6X3X6X6X8X6X6X&X4X6X~.8X7X6X6X4X|.8X3X6X6X8X4X6X4X4X3XY.|.8X6X3X3X8X6X6X,X>X4X4X4X^.6X8X8X6X6X8X8X*X6X8X0X{.6X4X6X6XY.5XY.8X8X0X&X4X7X6X{.0X&X6X6X{.8X8X6XH.6X3X0X(.&X0XY.4X4X6X~.0X0X0X6X8X8X3X6X6X8X0X3X6X4X8XY.8X8X6X6XJ. X6X6X7X6X3X4XY.].6X6XU.6XH.8X6X8X3X8X4X6X8X8X6X6X6X8X6X6X!.4X4X0X3X6XU.6X9X~.{.3X8X0X7X&X6X0X4X3XY.6X6X6X0X9X0XqXqXqXqXqXqXqXqX",
"qXqXqXqXqXqXqXqX0X0X8X0X0X8X0X6X6X{.0XI.^.6X6X0X4X4X9X{.6X0X&X8X4X0X8XI.8X6XI.&X8X6XY.8X6X6X5X6X7X6X&X4X4X8X].~.6X6X0X8XQ.6X8X8X8X8X~.3X6X4X8X0X4X8X6X6X9X3X6X4Xw.4X9XE.8X6X X8X3X4X4X6X3X8X4X8X3X4X3X[.6X6XY.6X8X4X3X4X6X6X4X{.6X4X8X6X8X{.7XT.~.Y.6X3X4X4X6X7X6X6XP.6X4X6XY.4X6X8X3X6X6X3X8X6X8X6X6X6X6X8X0X3X~.3X3XE.5X3X3X6X8X[.6X0X&X3X6X6X3X~.Y.3X6X6X3X7X X5X6X6X6X0X8X6X6X8X6X6X0X8X8X6X3X8X8X6X6X6X3X8X8X3X6X4X6X6X3X4X6XP.4X7X6X6X6X8X6X4X6X6X3X4X0X6X6X6X8X6X9X6XY.4XP.4X6X8X6X0X4X0X0X3X6X8X9X6X0X0XqXqXqXqXqXqXqXqX",
"qXqXqXqXqXqXqXqX8X0X&X0X0X0X3XI.6X6X{.0X-X6X7X6X4X0X|.4X4X0X6X X6X3XY.0X6Xn.6X7X4X6X{.^.8X6X3X8X3X6X6X6X4XD.6XY.3X6X6X4X0X6X6X6X6X6X6X3X X4X6X6X8X~.*X8X6X4X5X3X6X6X&X6X4X}.8X4X9X6X6X_.8X6X6X3X4X8X4X6X+.8X6X8X8X6X6X4XoX4X8X8X8X6X6X8X6X7X|.3X6X8X4X8X3X4X*X8X6X6XE.8X*X8X6X6X3X4X4X6X3X6X6X0X8X6X}.6X~.3X0X6X5X3X3X8X0X4X3X6X0X6X9X!.3X6X6X8X0X6X6X8X6X6X].0X^.6X3X8X6X~.3X8X~.0X0X&X6X4X6X|.&X6X6Xa.3X9X4XV.6X3X3X4X8X8X4X3X6X4X3X8X~.8X&X~.6X4X6XP.6X3X6X8X6X8X6X6X5X&X6X0X0X6X0X6X8X0X8X9X9X7X8X8X8XQ.0X0XqXqXqXqXqXqXqXqX",
"qXqXqXqXqXqXqXqX4XY.8X8X0XK.0X8X0X<X8X6X3X6X4X3X0X6X6X6X6X0X8X{.6X~.4X+XH.E.4X4X3X~.6X6X_.{.[.~.6X4X&X4X~.6XT.4X6X6X4X-X4X6X4X3X3X6X~.5X6X3X3XP.4X3X~.7X8X3X^.Y.8X3X6X8XE.6X4X4X4X6X8X4X8X4X4X8X4XE.6X6X&X6X4X6X6X6X4X3X4X3X6X6X4X{.6X7X4X6X4X_.3XE.-X6X&X4X6X4X8X4X4X3X6X4X;X5XY.5X4X4X4X6X+XE.6X6X8X X8X6X6X3X6X{.{.8X~.6X0X4X0X3X0XY.4X8X6X~.9X6X6X8X6X0X4X6X6X6XoX3X6X&X6X8X4X6X6Xi.6X3X4X8X3X&X4X4X8X6X8X4X6X4X4X8X6X8X6X3X6X}.4X4X8X4X7X(.&X3X6X6X4X&X6X8X4Xn.4X4XU.3X6X0X3X6XP.6X0X6X4X6X6X4X6X0X,X3XY.6XqXqXqXqXqXqXqXqX",
"qXqXqXqXqXqXqXqX0X0X6X0X6X3X7X3X0X8XH.0X$X0X4X8X3X4X8X8X8X6X4X3X4X4X6X7X4X3X4X3X3X5X<X8X%X*X4X~.4X6X4X8X[.8X6X8XT.4X8X6X^.6X6X4X4X4X6X8X8XY.3XY.4XH.4X4X6X4XY.9X3X5X6X4X3X4X`.4X6X8X6X6X4X3X4X~.4X4X}.U.4X6X4X6X3XC.4X3X4X{.4X4X{.3X4X4X4X3X6X6X4X6XP.a.3X&X4X6X6X3X4X6X_.6X4X{.4X6X8X6X6X8X~.4X3X4XP.4X6X~.8X4X5Xa.4X3X6X3XY.3X8XE.6X&X6X0X6X0X6X8X0X4X;X6X3XI.6X|.{.6X4X~.6X6X4X3X8X4X8X6X8X{.8X6X8X4XJ.Y.4X6X4X6X3X4X4X6X6X4X5X6X6X{.|.4X4X3X8XL._.4X4X8X6X4X6XH.8X0X4X4X8X0X6X|.4X9X6X7X0X4X6X3X4X*X0X6XU.0XqXqXqXqXqXqXqXqX",
"qXqXqXqXqXqXqXqXY.0X9X5X3X0X6X<X3X6X*X8X6X0XI.0X6X^.8X3X9X6X3X&X X4X~.M.6X4XL.6X4X^.~.6X4X_.6X3X+XY. X4X3X!.4X6X&X4X4X3X3X~.Y.4X4X3X4X4X8X~.5X4X6X4X6X4XL.6X~.~.4X4X~.4X7X4X3X3X3X4X4X3X{.{.6X6X{.4X3X4X4X3X~.%X4X6X4X4X4X6X4XY.4X3X4X6X3X4X4X4X|.|.4X4X6X&X3X&X|.5X4X4X3X4X{.4X4X3X4X4X}.4X6X4X6X8X4X6X6X4X6X6X4X6X4X4X6X8X3X X6X3XL.4X8X6X8X}.3X8X6X6X4XY.3X4XY.6X4X4X7X4X4XU.8X6X&X4X6X4X8X&X3X6X{.&X4X|.L.4X4X3X4X6X{.^.L.6X6X*X8X4X4X6X~.6X4X6X4X~.4X4X3X8X&X6X6XH.6X6X3X6X3X6X4X6X4X6XH.3X0X8X0X3X~.8X0X0XqXqXqXqXqXqXqXqX",
"qXqXqXqXqXqXqXqX0X0X9X4XQ.|.8X9X6X0X8X8X0X*X8X6X6X8X6X6X7X4X4X6X4X4X6X~.L.4X4X4X8XY.4X4XL.4X4X_.~.4X4XY.4X{.4X4X6XE.3XE.4X4X4X~.3X4X X6X4X&X~.4X6X4X3X8X}.P.6Xa.3X4X6XP.6X4XJ.Y.~.6X*X6X4X4X3XT.6X3X8X{.8X4X4X8X4X4XQ.4X{.4X4X3X{.~.3X4X|.4X4X{.4X&X3X4X4X&X2.&X4X~.Y.3X4X4X{.8X4XL.~.{.4X4X{.8XY.6X&X6X8X3X8X4XY.3X6X8X^.4X4X6X4XP.4X5X8X6X4X$X~.4X6X;X6X~.4X4X4X6X&X4X^.4X4X6X6X*XH.6X*XH.3X4X4X{.~.6X;X4X4X4X4X4XL.{.4X7X4X4X(.4XP.6XE.4X&X4X4X6X8X6X8X4X~.6X6X~.4X6X~.3X3X~.3X6X4XY.8X0X6X6X8X6X0X8XK.0X0X6XqXqXqXqXqXqXqXqX",
"qXqXqXqXqXqXqXqX0X;X3X0X0X6X0X*X6X6X+X0X6X8X5X6X4X8X`.}.8X3X4X6X4X}.~.4X4X3X8X4X6X4X4X4X~.4X4X4X+X4X4X4X&X{.4XL.4XY.4X4X4X4X6X4X4XH.6X4X8X4X4X8XY.6X~.+X4X4X|.{.I.E.~.6X{.~.4X6X&X4X3X4X6X8X4XS.{.3X4X4XL.~.4X4X4X4X4X4X8X6X~.4X~.E.&X4X4XL.P.~.4XJ.}.L.4X6X4X~.4X&X%X{.~.4X4X6X3X4X4X4.4X4X4X6X4X3X&X8Xn.6X6XY.4Xn.Y.6X8X6X6X8X5X~.3X6X8X&X4X4X4X7X0X6X_.6X X6X8X|.Y.4X8X6X;X].6X!.4X6X6X3X4X6X4X4X4X}.Y.{.3X4X4X&X3X3X4X4X6X4X4X3X4X4X3X3X&X4X5X>X3X^.U.4X3X6X8X^.3XP.8X4X3X6X4X4X4X8X4X&X9X4X8X6X6X0X6X8X0X6XqXqXqXqXqXqXqXqX",
"qXqXqXqXqXqXqXqX0X0X{.6X6X6X6X0X0XY.1X{.6X6X4X3X8X6X8X6X~.4X4X3X4X8X6X8XI.4X4X4X*X4X[.4XJ.4X4X4X3X~.~._.4X4X*X3XE.8XI.4X~.8X3X4X{.4X}.4X4X XY.4XE.{.4X4X4X4Xs.4X{.{.4X4X4X4X4X4X^.3X4X&X&XE.4X4X~.8X^.4XY.3X_.+X4X4X4X{.~.4X{.*X4X4X4X4X~.3X4X{.4X4X3X!.3X3X{.4XY.4X4X4X~.}.}.4X4X4X4X~.3X4X8X4X4X&X4X{.3X~.4X8X].4XL.4X6X4X6X8X6XP.4X4XL.4X3X&X4X5X8X%X6X4X}.4X4X~.6X8X&X4X6X4X3X4X6X4X4X4X~.4XJ.L.{.(.4X4X4X4X~.3X%X~.Y.4X4X X4X4X4X4X4X~.3X6X4X8X4X4X8X4X6X~.6X3XJ.~.6X4X4X6X4X8X6X3X6X6X4X3X0X4X4X0X6X&X0X0XqXqXqXqXqXqXqXqX",
"qXqXqXqXqXqXqXqX7X0X;X4X1X{.~.&X3XH.6X7X{.4X6X6X6X4X4X6X4X4X3X~.~.4X6X^.4X4X3X4X$X4X*X4XY.4X4X3XY.&X4X4X4X&X~.*X3X4X4X3X4XW.~.4X~.4X*XU.}.3X4X4X3X}.4X~.J.3X|.4XP.3X*X~.4X4X4X4X4X4X4XU.4X{.4X4XJ.}.(.4X}.3X4X4X4X{.3X4X3X}.4X4X&X4X~.4X4X}.4X~.{.&X4X{.4X2.4X4X}.4X4X4XJ.4X}.{.4X*X3X4X4X4X4X4X{.H.4X4X*X7X6X8X3X4X4X4X4X6XI.4XE.6X6XI.3X5X8X6X6X4X^.~.4X4X4X4X8X4X6X[.4X4X{.Y.o.3X{.4X~.L.(.^.{.4X~.g.3X4XJ.].4X~.4X4X}.4X4X4X3X~.4X4X4X&X}.4X4X X4XL.$X3X~.Y.{.B.{.6X4XH.8X5X7X3X6X3X8X4X6X6X3X6X8X9X3X0X8XY.qXqXqXqXqXqXqXqX",
"qXqXqXqXqXqXqXqX9X_.6X4X6XU.4X6X4X6X8X4X~.4X3X3X8X4X6X3X4X{.4X4Xa.4X~.H.4X4X4X}.{.L.P.E.~.4X4X4X{.7.f.}.E.4X{.4X4X~.4Xd.4X4X4X4X4X4X~.~.4X4X4X4X4X4X3X3X4XY.&X}.4X4X{.4X3X4X4X}.4X4X[.{.~.3XW.k.{.4X4X}.4X^.~.4X4XE.6.4X4X4XJ.4X4XE.~.Y.}.3X+X}.~.4X{.}.{.~.&X~.L.~.~.L.4X3X X}.3X4X4X4XH.4X~.{.4X{.4XL.4X&XE.4X6X3X{.6X4X6X4X8X4X~.6X3X3X4X4X~.~.6X4X~.6X}.L.-X4X4X4X4X4X{.4X&X4X*X4X~.4X4X4XE.3X4X&X4X4X4X4XL.3XU.3X4X4X4X3X].~.3X4X~.~.4X4X4XI.}.~.I.4X4X4X4X&X4X4X{.4X*X4XI.4X~.8X6X6X4X3X4X4X4X8X6XY.Y.6X3XqXqXqXqXqXqXqXqX",
"qXqXqXqXqXqXqXqX4X X6Xd.6X8X&X6X6X{.4X4X3X4X3X6X}.4X4X^.!.4X3X~.&X7X3X4X3X~.~.4X4X~.{.4X~.E.4X4X4X7.4X}.4X4X{.L.{.~.4X4X4X4X3X4XT.].4X~.L.~.Y.4X}.4X4X4X4X7.3X4X{.T.~.3X3X3XE.4X4X4X4X4X*XQ.4X}.{.4X3X4X{.}.4X{.j.4XJ.P.4X~.*X4X4XL.E.4XE.T.4X3X4X4X4X4X4X].[.3X{.{.4XT.*X4X4X}.~._.3X3X4X4X{.].W.4XL.Y.4X4X7X3X4X4X4X4X4X4X8X4X6X4X4X4X4X8X~.E.4X8X4X3X4X~.3X4X4X4X4XQ.4X&X4X4X$X4X4X4X4X4X{.Y.4X~.~.>X4X4X4X].4X4X4X4X*X}.~.4X4X4X4X~.(.{.4XH.}.3XI.*X&X4X4X3X~.3X4XK.{.4X{.4X|.6X+X4X8X6X5X6X{.7X6X0X3X6X3X6XqXqXqXqXqXqXqXqX",
"qXqXqXqXqXqXqXqX7X4X5X8X4X4X8X6X6X4X&X6X3X4X4X4X~.~.L.3Xd.4X4X4X^.3X3X3X4X{.4X4X}.4X}.4X4X4X~.Y.4X&X$X~.Y.].4XL.~.~.E.4Xa.6.4X~.}.4X~.}.4X*XT.4X4X}.~.H.~.&X^.f.4X4X3X4X}.~.3X4XT.4XL.3X3X4X~.4X~.4X4XW.{.H.4X}. X}.W.~.[.{.}.Y.Q.~.~.4XO.3X^.E.E.o.~.{.4X~.}.Y.Q.{.4X4X4XH.].3Xs.~.}.T.4X4X&X3X4X4XJ.3XJ.E.4X{.~.~.4X4X[.{.4X3X~.~.~.8X&X4X&X|.4X4X3X~.;XU.7.4X4X4XJ.4X4XW.^.].~.~.4X4X~.4X4X}.s.3X{.T.{.E.~.[.}.3X4X^.$X}.4X}.^.4X4X4X4XL.{..X~.*X}.4X3XP.W.&X4XP.4X4X{.4X4X3X6X~.6X4X&X6X~.6X6X8X6Xm.Y.0X4X~.qXqXqXqXqXqXqXqX",
"qXqXqXqXqXqXqXqX0X5X4X5X6XP.4X6X8X4X4X{.4XE.4X4X3XY.4XJ.L.}.4X4X~.E.4X4X~.4XL.&X4X}.4X4X}.}.~.].^.*X4XT.~.&X[.4X~.4XJ.{.~.4X^.3X}.H.}.~.4XL.~.4X4XW.4X4X}.4X}.4X4X4X4X4X4XE.4X6.4XT.}.^.L.{.{.}.3X4X^.~.4XY.}.*X!.4X!.4X~.%X~.~.}.4X}.4X~.^.{.}.4X!.!.3X{.E.3XE.}.E.L.~.Q.~.~.3X Xj.}.4X4X4X%XH.4X~.4X~.}.4X4X4X}.4X4X4X X&X4X~.4X4X4X{.4X4X[.3X3X4X&XE.4X4X4X4X~.4XL.{.4XE.].*X_.4XE.Y.4X~.4X!.^.E.^.Y.{.P.{.~.{.}.4X4X4XI.!.~.~.J.{.~.4X4X~.4X^.4X3X&X4X~.4X XK.3X~.Y.~.4X{.4XH.4X4X4X4X~.8X~.&X6X~.3X6X7X6X0XqXqXqXqXqXqXqXqX",
"qXqXqXqXqXqXqXqX8X3X6X3X3X~.4X3X3X-X3X4X4X4X4X~.R.3XE.4X4X4XY.*X3X4X4XE.4X3X~.T.R.}.3XE.4X!.4X}.4XL.}.3X4XE.~.4X^.}.4X}.T.}.~.E.E.*X^.].4X~.4X{.L.oX~.~.4X~.4X4X4XE.~.{.4X3X^.4XL.}.4X}.*X4X}.4X..4X}.}.~.}.3X~.}.~.W.T.I.E.&X{.}.Q.^.E.&X^.}.{.~.L.3XT.{.{.^.4X4X^.E.4XE.~.E.}.T.W.4X4X^.*X~.4X~.3XR.{.~.4X4X7.J._.3X*X4XE.4X3X3X4X4X4X4XY.4X~.4XI.4XJ.3X}.4X4X}.P.4X4X4XL.3X4X4XY.7.4X{.~.{.I.}.!.4X4XH.E.L.~.}.}.~.{.s.~.$XW.4X4X^.4XE.&X}.L.4X~.4X&XE.J.T.P.~.}.4X~.{.K.4X~.P.~.4X3X7X4X4X3XL.4X8X6X6X6XH.0XqXqXqXqXqXqXqXqX",
"qXqXqXqXqXqXqXqX0X4X0X4X3X6X3XU.*X4XH.4X4X[.~.Y.&X4X4X[.[.4X4X4XE.I.*X4X}.^.&X}.4X~.4XT.E.&X!.!.~.^.{.T.~.{.~.Q.4Xk.s.~.P.*X^.&X4X^.W.%X~.~.^.4X^.4X4XZ.4X*X}.4X~.4X&X3X}.~.3X~.4X^.m.{.L.}.~.{.E.~.4X^.[.~.&X^.~.n.^.{.E.3X^.*X^.}.s.}.~.L.~.4X~.~.~.~.&X~.^.}.^.[.+X^.4X*X{.J.Y.}.4X~.4X^.~.}.@.{.3XI.J.4X3X4X~.3X~.4X4X~.4X{.{.4XE.4X4X}.4X4XE.4X3X^.4X4X~.4X}.Q.~.~.4XE.3X{.}.Z.L.3X{.4X}.3X~.%X}.~.E.4X~.4X~.}.}.W.4X~.Y.4X~.{.4X~.4X^.!.4X}.4X~.4XP.*XT.3XT.o. X>Xm.3X4X4X3X3X4X6X6X6X~.6X}.Y.~.7X8X6X{.6XqXqXqXqXqXqXqXqX",
"qXqXqXqXqXqXqXqX0X6X4X7X8X3X4X6X*X4X4X{.4X4Xa.~.&X4X4X4X&X{.J.{.L.^.4X~.~.4X~.}.*X~.~.~.E.L.d.4X{.d.^.4X&X7.~.!.^.}.^.&XE.3XT.~.{.{.T.3XE.~.~.~.}.3X4X~.[.{.4X&X4X~.~.u.E.].^.4X*XQ.L.4XT.~.~.4XQ.T.Y.{.L.~.3X].}.}.E.Q.W.*XQ.^.6.T.{.~.^.^.}.E.Q.E.I.^.^.^.~.T.~.~.^.}.W.J.E.m.4X~.~.^.{.}.3X{.T.^.4X~.4X&X~.4X4X~.&X{.*X{.4XE.4X&X}.4X4X4X4X3X%X4X4X3X[.4X&X4X4X$X^.^.H.{.&XE.J.Q.~.m.4X~.~.E.{.{.4X~.~.J.^.4X4X^.{.~.4X}.E.J.6.^.}.}.^.~.{.^.^.W.~.L.}.4X4XJ.4X4XI.4XT.4X4X4XE. X4X4X4X4X3X3X4X~.8X6X3X6X6X4XqXqXqXqXqXqXqXqX",
"qXqXqXqXqXqXqXqX3X4X6X8X6X4X4X5X8X4X6X4X4X4X4X!.4X}.4X~.{.^.~.4X4XQ.{.~.E.4XL.}.~.}.~.E.T.~.^.~.^.E.~.L.m.~.^.~.}.E.~.E.J.6.~.$XY.~.^.~.}.E.T.4X~.}.~.{.~.4XJ.~.L.~.}.^.E.4X~.}.{.}.^.4X~.L.^.~.*XE.{.~.L.~.~.~.^.L.~.{.~.{.Q.~.4.~.~.W.^.L.7.^.^.~.^.&XQ.^.!.{.Q.~.{.{.^.~.^.T.~.~.T.L.4X*X{.^.L.~.~.{.4XR.{.L.{.{.4XY.3X4X{.4X&XE.].4X4X^.~.J.L.&X4X~.~.].~.4X4XE.4X}.{.W.~.E.W.J.}.}.~.}.T.{.4X}.^.~.^.~.}.E.Q.~.~.^.E.~.{.~.^.B.*X~.T.3XJ.{.!.6.{.}.~.4XQ.^.}.[.6.E.4X3X{.3X4X3X{.4X$X4X4X8X4X4X5X8X8X4X|.4XqXqXqXqXqXqXqXqX",
"qXqXqXqXqXqXqXqX0X7X4X6X4X8X6.4X3X4X4X~.3X].3X}.4X4X~.~.I.}.L.~.~.~.*XE.^.~.~.Q.}.&XE.E._.~.^.H.L.~.&X~.~.m.E.T.J.l.~.{.~.^.E.W.4XT.~.E.}.}.{.L.~.4X~.%X~.m.Y.T.J.4X}.^.~.W.{.}.L.~.W.T.~.~.U.Q.^.^.~.L.*XE.!.~.~.~.E.^.E.~.~.s.~.~.~.~.L.^.~.~.~.^.~.[.C.~.{.T.~.~.^.E.}.7.~.^.E.E.&X~.Y.L.^.~.*X~.4X*X3XT.}.m.E.4X6.T.!.~.4X2.~.~.I.&X}.E.4X4X4X3X4X{.*X4X}.}.~.E.+X{.*XJ.}.}.*XI.Y.}.~.{.^.{.}.~.~.~.}.}.~.~.^.~.~.~.{.T.~.^.}.^.}.~.~.{.}.}.I.{.^.E.^.}.~.4X^.4X}.4X4X4X}.4X3X4XL.3X4X4X~.4X4X6X4X&X4X6X|.6XqXqXqXqXqXqXqXqX",
"qXqXqXqXqXqXqXqX0X4X4X3X6X3X4X+X4X4X4X{.{.4XE.3XW.L.%X~.4X^.}.^.~.&X].~.Y.4.L.^.~.^.~.L.^.E.~.f.E.~.~.~.~.^.~.{.E.~.~.^.J.~.L.~.~.^.T.{.4X~.^.Q.T.~.^.&X}.4X^.~.J.^.3X~.4X~.T.J.^.}.^.&X&X^.W.E.R.f.^.E.Y.^.~.E.^.^.T.{.!.T.^.E.^.^.R.R.!.~.k.~.T.{.^.~.W.^.~.~.L.m.~.E.~.~.~.~.I.m.{.~.T.^.{.~.~.}.P.4X{.}.%XY.4X~.[.4X{.}.4X&X3X4X~.~.H.{.*X~.~.[.~.!.~.*X4X~.~.}.4X~.!.~.~.~.~.}.~.I.^.W.^.~.~.{.4X~.{.~.J.L.~.^.^.~.E.~.~.E.T.~.~.k.}.}.X.I.L.E.d.{.{.~.{.4X4X{.Q.&X}.k.4X~.E.3X4X3X4X6X{.4X4XY.s.|.E.9X9X~.qXqXqXqXqXqXqXqX",
"qXqXqXqXqXqXqXqX0XP.d.8X4X4X&X4X3X4X4X~.].4X4X3X{.I.^.{.^.^.U.~.4XR.^.~.~.^.~.~.!.^.!.~.~.N.m.T.W.Q.E.W.~.Q.~.E.^.^.~.~.E.].~.^.~.~.E.T.Y.E.E.~.^.}.^.~.E.~.~.J.^.~.^.^.~.~.~.s.~.~.~.~.~.~.~.Q.~.^.~.~.~.~.E.~.^.~.Q.2.V.~.~.E.~.E.~.E.~.W.~.E.~.7.~.~.~.!.~.T.E.~.1.J.^.f.^.~.T.{.E.7.3X!.L.^.*X~.[.^.^.}.T.{.4X{.}.!.~.}.}.~.~.~.T.4X}.4X}.4X4X^.^.4X3XT.~.E.E.J.^.4X~.~.~.L. .}.~.Q.~.E.~.}.~.J.~.7.T.J.E.{.W.~.^.~.~.~.N.~.L.J.E.^.~.~.~.}.J.~.}.~.Q.~.~.~.E.&XL.4X4X{.{.~.[.4X4X{.L.!.4X4XY.4X4X6X8X3X4X&XqXqXqXqXqXqXqXqX",
"qXqXqXqXqXqXqXqX8X6X8X!.4X4XQ.&XT.3X~.4X3X{.}.~.~.4X}.}.^.{.J.6.~.s.~.T.~.7.~.~.W.J.E.R.~.E.J.~.~.T.J.J.E.I.~.W.~.E.Q.^.~.~.T.E.~.~.<.~.~.^.^.E.{.^.~.~.}.~.J.^.T.f.L.!.~.}.~.}.E.^.~.s.~.^.~.E.J.^.T.~.T.~.^.E.E.E.^.E.^.~.~.~.E.m.W.J.3.E.T.s.j.E.W.6.~.W.P.!.!.E.~.W.^.W.I.~.^.3XE.~.^.L.Q.~.~.[.E.~.~.3XE.4X~.E.].{.L.^.&XR.{.T.W.3XL.Z.!.~.}.{.E.4X~.^.{.Y.k.^.}.^.a.~.^.~.~.!.E.~.~.T.{.~.E.s.~.o.E H D n f q 5 > * X o & : < q g b m L E ( m.~.!.{.^.4XJ.}.L.4XL.^.~.4X4X4X4X4X~.4X4X4X}.4X~.7X~.6X8XQ.&XqXqXqXqXqXqXqXqX",
"qXqXqXqXqXqXqXqX0X8X~.6X4X4Xs.&X4X~.4XE.4X~.^.d.%X~.^.}.~.T.E.^.J.~.~.^.~.~.^.W.s.~.T.E.T.~.E.W.E.~.T.s.W.~.~.Q.~.~.~.~.^.!.E.~.R.E.E.E.V.~.E.J.T.~.~.W.^.!.~.~.2.7.E.~.~.~.^.E.E.{.T.L.~.~.E.E.^.6.W.a.~.~.T.^.~.~.E.E.E.~.E.E.s.L.!.T.E.^.E.E.~.~.T.7.J.E.J.2.E.E.E.J.~.~.~.T.T.R.~.E.~.T.W.~.~.E.I.^.W.~.E.~.R.~.~.}.L.~.^.&X~.~.E.~.~.Y.{.E.T.~.E.T.^.Q.Y.~.~.~.~.^.^.W.J.~.E.J.~.~.5.L.6.E V i o                                               - h C ~ 6.*X{.I.Q.}.~.E.W.L.^.3X}.J.^.~.L.4X6X4X4X3X~.3X6X3XqXqXqXqXqXqXqXqX",
"qXqXqXqXqXqXqXqX6X8X6X4X4X4X4XL.L.4XJ.i                                                                                                                 K ~.~.~.E.~.~.i                                                                                                                                           g R.k.E.J.^.^.~.^.7.E.T.~.~.~.T.3X~.~.C.^.E.^.~.^.~.!.^.T.L.~.~.~.T...F e                                                                   5 V ) ~.{.{.&X~.s.E.~.4X4X^.m.{.}.{.4X4X4X6X6X6X-XqXqXqXqXqXqXqXqX",
"qXqXqXqXqXqXqXqX0X4X{.^.~.4X$X4X~.~.4Xi                                                                                                                 H ^.~.W.~.E.~.f                                                                                                                                           g !.J.~.W.~.H.^.~.~.Y.~.^.~.~.~.~.~.{.T.J.E.~.~.!.~.~.W.f.~.E.T.G 4                                                                               * b ( ~.~.3X4X}.{.*X~.4X4XR.3X3X3X4X4X6X4X4XqXqXqXqXqXqXqXqX",
"qXqXqXqXqXqXqXqX0X4X4X|.4X4XI.T.4X~.^.a                                                                                                                 H ~.J.W.E.E.3.u                                                                                                                                           i ~.^.^.f.W.*X~.^.~.{.~.}.2.~.E.~.~.~.~.^.^.~.T.~.E.~.^.4.+.C *                                                                                         1 G +.3XE.3X4X3XW.a.W.4X&X*XI.E.4X4X4XqXqXqXqXqXqXqXqX",
"qXqXqXqXqXqXqXqX8XY.4X4X4X~.4X4X}.}.}.a                                                                                                                 G ~.~.~.^.~.J.i                                                                                                                                           g k.E.o.~.{.L.{.7.!.~.T.^.~.!.~.7.L.E.7.~.~.^.<.T.J.m.{ D $                                                                                                   l [ 4XR.x.~.~.3X4X4X4X6.4XH.Y.4XqXqXqXqXqXqXqXqX",
"qXqXqXqXqXqXqXqX0X{.3X4X3X4X!.J.4X^.*Xf                                                                                                                 G W.!.E.!.7.W.i                                                                                                                                           i ~.m.L.~.~.T.~.~.~.!.E.T.E.~.H.~.J.~.C.~.~.E.~.~.k.U :                                                                                                           r / ~.4XE.T.3X+X4X4X4X4X4X^.qXqXqXqXqXqXqXqX",
"qXqXqXqXqXqXqXqX6XQ.(.4X4X4X~.~.*XL.E.i                                                                                                                 K E.~.f.q.C.W.i                                                                                                                                           f ^.E.L.~.T.s.~.4.!.T.J.^.~.E.E.L.7.!.O.~.2.j.E.<.l                                                                                                                   A I.~.3X!.L.4XQ.4X4X4X4XqXqXqXqXqXqXqXqX",
"qXqXqXqXqXqXqXqX0X&X4XL.4X4X3XJ.*X~.}.f                                                                                                                 G E.2.T.E.6.l.i                                                                                                                                           g ^.E.T.E.!.~.E.~.E.~.~.~.J.7.!.~.~.E.E.J.~.E.R :                                                                                                                     V ].~.4X$XL.4X4X_.4X4X4XqXqXqXqXqXqXqXqX",
"qXqXqXqXqXqXqXqX+XOXJ.L.}.~.4XW.4X~.L.f                                                                                                                 A H.W.U.T.~.E.w                                                                                                                                           s ~.L.~.2.T.Q.T.T.V.E.^.E.s.s.E.E.T.T.7.T.E.A                                                                                                                         N {.!.a.4X*X4XE.4X4X4XH.qXqXqXqXqXqXqXqX",
"qXqXqXqXqXqXqXqX0X4X{.4X~.L.J.~.{.}.L.f                                                                                                                 I E.T.E.E.7.T.i                                                                                                                                           s R.~.T.~.T.T.E.E.m.E.E.f.E.k.j.L.L.] E.E.V                                                                                                                           V {.E.E.~.3XI.Y.3X3X4X4XqXqXqXqXqXqXqXqX",
"qXqXqXqXqXqXqXqX0X4X&X3X~.4X4XT.}.^.{.f                                                                                                                 I E.E.7.~.f.~.i                                                                                                                                           g E.E.~.T.E.I.T.T.~.7.E.T.E.~.T.E.T.E.T.l                                                                                                                             C I.4XL.4XE.~.4X~.4X4X4XqXqXqXqXqXqXqXqX",
"qXqXqXqXqXqXqXqX9X4X4X3XE.Q.^.~.L.T.~.i                                                                                                                 F 6.7.J.E.2.T.i                                                                                                                                           f T.~.7.~.E.E.T.E.~.E.W.E.E.R.E.~.j.E.c                                                                                                                               B {.4X{.4X4X4XE.Q.4X4X8XqXqXqXqXqXqXqXqX",
"qXqXqXqXqXqXqXqX0XE.4XL.L.^.~.E.^.^.}.i                                                                                                                 G T.E.E.j.j.~.i                                                                                                                                           i E.~.E.E.~.T.E.E.E.7.!.k.E.E.E.E.R.C                                                                                                                                 m }.J.^.&XE.~.4X&X4X3X4XqXqXqXqXqXqXqXqX",
"qXqXqXqXqXqXqXqX7X4X4X4X}.3X~.^.J.~.E.i                                                                                                                 I E.E.T.m.T.s.i                                                                                                                                           f T.j.E.7.E.E.Q.T.E.E.E.T.q.E.T.j.K                                                                                                                                   C ~.~.{.~.4X4X~.~.4X+XE.qXqXqXqXqXqXqXqX",
"qXqXqXqXqXqXqXqX0XL.~.~.J.~.4X^.}.~.T.f                                                                                                                 G T.T.a.T.3.k.w                                                                                                                                           f s.E.J.E.!.E.7.T.T.f.E.E.7.E.s.( .                                                           : l F Q ] :.| T.T.j.7.o._ U m 6                                         C 4X6.{.&XE.4XL.~.|.4X^.qXqXqXqXqXqXqXqX",
"qXqXqXqXqXqXqXqX0X4X^.~.E.!.~.^.~.~.^.i                                                                                                                 G T.E.7.E.T.E.i                                                                                                                                           i T.J.E.E.T.R.R.m.E.R.4.Q.E.T.=.<                                                       , Z _ 3.7.q.T.T.T.T.T.3.T.T.T.a.T.T.i.1.R k o                                 C T.%X~.~.~.5.3X$X4X+X4XqXqXqXqXqXqXqXqX",
"qXqXqXqXqXqXqXqX0X}.4X{. XL.Q.~.~.~.~.i                                       k j.7.3.3.1.j.6.j.3.q.j.2.-.9.T.T.T.%.<.s.T.4.7.T.T.%.4.3.T.T.E.T.R.T.E.E.E.T.7.q.7.T.9.E.T.E.E.E.E.E.4.E.7.E.E.E.E.5.7.E.5.k.T.7.T.T.u.f.q                                       i 1.j.j.T.3.j.T.T.T.T.T.7.T.T.T.T.j.J.E.E.T.E.E.E.J.E.T.E.E.T.T.E.E.E.E.j.T.T.f.l                                                     6 R j.7.T.j.T.q.7.T.q.T.k.4.T.T.k.T.j.V.j.T.T.k.1.L 7                             B 7.^.Q.4X{.^.3X4X4X&X4XqXqXqXqXqXqXqXqX",
"qXqXqXqXqXqXqXqX0X4X}.4X{.}.R.Y.^.L.E.i                                       l 7.7.3.j.3.j.1.j.9.i.j.j.5.T.q.m.7.j.7.9.T.T.T.j.k.T.T.T.T.T.T.T.s.T.E.T.T.T.m.T.J.T.T.T.1.T.q.E.E.T.j.j.1.E.<.T.E.7.E.7.3.j.T.1.T.j.1.n.w                                       i q.T.s.j.q.T.4.T.7.j.T.T.s.2.T.E.E.E.T.E.E.E.E.E.T.E.4.E.E.k.E.T.E.E.j.T.2.E.R                                                   = U 9.q.i.j.3.V.#.T.j.j.j.a.q.&.2.j.T.T.T.s.E.T.T.E.4.T.5.( p                         m ~.~.L.^.4X}.~.E.4X4X4XqXqXqXqXqXqXqXqX",
"qXqXqXqXqXqXqXqX0X}.{.^.{.&XE.7.^.~.~.i                                       j j.j.q.q.3.j.j.j.7.s.j.j.j.j.q.q.7.1.j.7.T.0.T.T.q.7.4.T.T.k.R.T.T.T.T.T.7.s.7.E.o.1.E.T.J.T.E.E.E.T.1.s.E.E.7.E.s.0.7.J.T.3.T.7.T.j.T.q.6                                       u 1.7.s.h.T.q.V.j.m.T.j.3.T.T.T.V.T.9.E.T.E.q.7.s.E.T.E.T.j.E.T.T.T.T.T.7.4.T.2                                                 j o.j.7.T.j.T.q.T.j.T.8.q.T.1.s.7.J.T.1.T.T.V.T.R.j.T.E.E.E.m.H.~ 5                     C E.E.^.J.{.}.4X^.{.4X~.qXqXqXqXqXqXqXqX",
"qXqXqXqXqXqXqXqX6X4X&X^.~.s.W.}.E.J.E.a                                       l 3.q.q.1.q.j.j.q.j.3.j.5.j.9.j.j.1.k.j.s.7.T.T.j.T.T.j.s.j.T.T.T.E.5.E.7.E.E.E.T.E.E.j.E.E.9.!.j.2.2.T.T.E.T.7.q.2.s.l.T.T.T.T.j.j.T.q.8.q                                       i i.3.j.i.7.%.T.2.T.7.T.T.T...T.T.T.j.s.E.j.f.T.h.T.7.E.3.T.E.T.m.E.J.7.E.T.G                                                 S j.T.j.T.j.7.j.T.q.1.7.q.V.T.T.7.T.5.7.T.T.j.k.T.9.o.E.7.7.j.E.E.7.J.G #                 C W.E.E.L.}.^.4X4X3X{.J.qXqXqXqXqXqXqXqX",
"qXqXqXqXqXqXqXqXY.4X~.}.W.{.~.{.^.~.~.i                                       l %.j.q.q.j.q.q.1.&.j.j.j.t.j.j.j.j.j.7.s.3.T.m.6.T.7.7.T.T.T.7.7.7.V.J.E.J.7.j.E.<.E.L.J.T.R.T.J.J.E.j.f.E.E.T.W.E.T.7.T.1.q.V.T.T.j.T.7.w                                       u i.7.1.j.3.T.j.T.s.1.7.T.j.V.T.j.E.4.T.6.E.T.E.3.R.3.T.E.E.E.V.T.T.7.T.H.#.#                                             . U 1.7.7.j.q.q.T.q.q.7.j.7.T.j.s.q.j.] 7.T.j.j.T.7.T.T.T.q.T.T.E.T.E.T.Q.E.<.i               C ^.&XE.^.Y.{.}.~.4X].4XqXqXqXqXqXqXqXqX",
"qXqXqXqXqXqXqXqX0X3X~.~.~.V.~.~.~.T.E.i                                       k 7.q.7.j.7.j.j.j.7.j.q.7.1.&.j.i.j.s.j.s.m.T.7.7.T.7.T.T.j.T.T.s.T.T.f.3.V.T.7.6.T.E.E.7.T.4.E.T.T.E.T.T.T.T.E.T.T.T.3.9.7.7.T.q.T.j.j.s.q                                       y 1.7.7.9.5.q.7.j.T.T.1.j.q.j.T.T.T.j.i.1.7.E.E.E.T.T.7.E.T.T.7.1.T.T.j.q.I                                               I J.q.7.j.j.T.T.7.0.T.T.T.j._ T.:.7.j.s.1.7.T.T.m.T.7.J.T.7.m.T.T.T.Z.~.T.E.J.T.K X           B I.&X~.{.}.T.4X}.6.4X{.qXqXqXqXqXqXqXqX",
"qXqXqXqXqXqXqXqX8XE.~.}.~.^.W.~.^.E.!.i                                       k q.9.3.q.1.7.9.j.q.9.j.7.2.q.q.j.j.j.j.j.1.h.7.1.j.j.3.T.T.T.T.1.T.E.T.j.E.E.T.V.E.V.<.!.E.E.E.<.7.E.T.T.s.T.H.j.T.T.8.T.E.q.T.T.} j.2.2.w                                       y j.3.j.q.j.n.%.7.q.3.T.T.k.7.q.j.E.<.E.T.3.T.T.7.E.T.k.E.1.E.V.T.k.Z.q.T.,                                             Z ,.j.3.q.s.j.j.j.j.T.7.7.j.V.5.j.9.j.T.T.j.E.7.j.T.q.T.7.T.7.E.E.s.T.E.E.E.J.7.E.~.{ 3         V m.W.7.~.{.~...4X4X}.{.qXqXqXqXqXqXqXqX",
"qXqXqXqXqXqXqXqX0X&X~.~.^.~.{.!.T.J.~.a                                       k 7.3.9.q.0.j.q.t.q.q.j.{ 7.j.>.7.7.q.T.q.J.j.#.s.T.j.3.J.T.T.E.s.E.q.E.T.j.7.T.7.T.E.E.E.E.7.E.!.J.T.T.%.E.E.E.T.j.j.s.6...T.1.T.j.s.T.7.w                                       y 3.j.s.T.j.q.7.T.{ T.7.T.T.T.Z.T.j.3.T.5.j.E.T.T.T.E.7.J.T.E.T.E.J.T.E.R                                             i 3.3.5.7.0.T.j.q.0.m.3.h.3.7.s.j.7.j.j.m.V.#.T.T.J.3.T.j.T.k.j.1.a.j.7.7.T.s.L.T.E.<.~.T.m       N !.}.~.^.%X4X1.N.3X~.4XqXqXqXqXqXqXqXqX",
"qXqXqXqXqXqXqXqX0X^.4X~.^.}.T.I.~.7.2.i                                       k 7.7.q.7.q.8.q.7.q.7.j.j.1.j.<.7.j.1.j.j.j.3.7.q.7.V.0.T.T.j.7.T.4.E.E.J.E.V.E.L.T.E.~.7.E.T.3.s.7.Q.E.T.9.7.E.3.7.T.E.T.T.T.j.J.1.j.T.T.w                                       i 3.s.&.1.T.T.T.` T.T.T.T.T.T.T.%.7.T.E.s.s.T.3.J.7.E.E.T.j.s.T.E.i.T.5.s                                           + #.7.3.j.7.j.3.7.j.1.j.2.j.j.j.q.j.q.7.s.q.q.T.k.q.$.T.j.T.7.T.T.T.T.E.j.E.j.E.E.p.E.f.7.~.T.E &   B ^.^.L.{.{.~.}.&X^.*X$XqXqXqXqXqXqXqXqX",
"qXqXqXqXqXqXqXqX6X4X}.^.~.2.E.V.k.E.E.i                                       l 3.9.q.<.j.q.$.j.9.q.:.0.7.T.q.q.j.j.7.j.7.T.3.T.T.T.T.T.T.j.T.T.J.J.4.7.T.E.T.2.m.E.:.2.E.E.k.E.K.E.T.E.T.T.T.R.E.T.1.f.j.j.T.T.1.j.7.j.w                                       r 1.j.5.T.9.j.T.j.7.j.T.T.-.T.{ T.T.T.2.T.T.1.T.*.s.j.7.T.s.o.T.T.T.j.4.X                                           Z 1.! q.1.j.s.q.j.7.4.1.8.h.7.T.T.3.1.7.7.i.j.V.T.T.T.q.T.q.T.T.T.s.T.E.k.j.T.T.J.T.E.E.!.R.E.~.T.{.k.W.E.E.L.~.~.~.V.6.E.4XqXqXqXqXqXqXqXqX",
"qXqXqXqXqXqXqXqX3X4X}.}.~.~.E.~.~.3.T.i                                       k q.3.7.q.;.q.3.3.3.q.9.7.q.q.7.j.q.7.T.j.#.j.7.T.T.3.T.T.T.T.j.T.E.T.J.7.7.E.!.7.~.5.T.E.k.E.s.T.E.E.E.E.R.E.T.T.T.T.E.T.T.T.1.6.T.j.q.T.w                                       r 5.T.9.7.T.q.j.j.T.j.T.7.1.T.T.7.T.j.j.7.T.J.s.T.T.s.E.3.u.s.T.T.T.j.U                                           ; 7.j.7.s.j.s.5.6.j.7.7.7.j.j.q.3.j.j.| 3.7.j.1.T.3.q.T.T.7.T.T.1.T.7.E.j.T.T.T.m.7.T.E.s.T.E.~.!.~.~.~.~.c.{.^.*X{.4X$XT.4XH.qXqXqXqXqXqXqXqX",
"qXqXqXqXqXqXqXqX6X~.Q.o.^.T.~.7.~.j.H.i                                       l q.q.q.1.%.3.q.3.#.q.q.q.3.9.4.7.3.j.&.q.T.3.7.q.T.T.q.1.f.7.T.E.V.T.T.m.E.s.E.T.7.s.E.>.J.E.3.J.E.T.E.E.T.7.E.E.E.q.7.T.7.E.h.s.j.T.*.T.8                                       i q.q.7.7.j.3.5.q.T.q.T.j.E.T.T.H.T.%.<.V.J.E.T.T.T.s.T.s.T.T.V.4.m.9.g                                           S j.j.3.j.j.j.j.7.4.j.1.T.7.q.T.j.q.7.j.7.h.s.q.T.T.3.9.q.j.7.6.T.T.T.T.3.E.T.s.E.E.<.E.J.J.E.E.W.!.T.{.T.7.7.~.~._.^.J.{.*XP.qXqXqXqXqXqXqXqX",
"qXqXqXqXqXqXqXqX0X~.~.J.{.{.~.~.~.E.T.i                                       k 9.q.;.3.&.q.q.8.q.q.q.q.q.q.q.1.T.7.j.7.3.j.T.T.3.T.s.T.T.E.q.m.T.E.h.T.%.4.T.T.h.7.Y.T.~.T.T.s.E.E.7.4.E.E.B.E.n.E.E.T.T.7.T.j.7.T.2.j.6                                       u 9.%.q.7.j.7.s.V.3.1.q.T.T.j.T.T.T.E.T.j.T.2.E.T.E.s.s.E.T.T.T.T.s.T.#                                         X <.j.#.;.j.9.&.j.0.7.9.j.5.j.q.j.1.s.1.q.q.7.T.T.j.j.T.T.k.T.j.T.T.T.j.j.R.T.J.j.J.V.E.E.T.7.!.~.J.~.T.~.{.~.{.E.E.4X~.~.~.P.4XqXqXqXqXqXqXqXqX",
"qXqXqXqXqXqXqXqX5X4X3Xs.T.T.W.~.~.J.E.p                                       l %.q.9.3.q.1.q.q.7.3.j.q.j.7.1.9.3.0.7.9.3.s.n.1.7.<.q.E.7.m.7.T.7.E.#.E.T.E.T.7.~.T.E.~.E.Q.E.Q.!.E.~.T.E.T.E.E.j.7.7.T.7.T.T.7.V.V.T.T.w                                       y 1.j.T.j.q.<.m.j.1.T.T.T.s.T.T.T.j.T.T.E.7.T.V.T.W.T.3.j.T.3.T.T.T.{                                           k &.3.%.j.j.1.j.q.7.1.s.q.7.7.q.j.j.#.j.7.T.7.j.7.q.7.T.3.b.T.7.j.V.j.T.E.' E.7.T.j.E.J.s.6.E.J.T.T.E.l.E.^.~.~.&X}.E.3X4XT.].4.qXqXqXqXqXqXqXqX",
"qXqXqXqXqXqXqXqX0X~.}.7.Q.~.W.~.E.~.E.i                                       k 0.7.8.7.9.q.1.3.q.q.q.3.9.7.1.7.j.j.q.4.j.1.j.T.T.J.9.T.T.7.J.7.E.i.T.Q.T.~.E.J.~.T.E.E.E.E.T.E.T.R.E.~.E.E.q.6.E.E.6.V.T.T.T.T.3.T.j.k.q                                       y j.T.5.j.j.T.0.{ T.q.j.7.s.T.<.| 7.E.q.7.E.T.9.E.T.T.j.T.T.J.V.7.7.L                                           P 0.q.j.j.9.q.a.j.q.7.j.j.1.j.V.j.j.#.q.q.3.1.T.#.j.T.q.T.9.1.k.7.T.k.s.E.j.7.E.T.E.E.T.T.E.E.7.~.E.~.L.s.~.d.5.~.s.~.E.E.J.&X4XqXqXqXqXqXqXqXqX",
"qXqXqXqXqXqXqXqXY.}.Q.~.u.~.~.~.~.E.T.i                                                                                                           8 n.T.3.~.!.7.T.T.~.T.~.7.E.~.J.E.J.E.E.E.E.E.T.7.V.E.T.T.T.T.T.J.T.q.q                                       t j.T.j.4.<.T.T.T.T.0.7.T.7.#.V.R.k.T.T.7.E.T.T.k.T.7.J.E.E.q.7.T.T.m                                         . 1.a.q.3.q.q.9.q.3.j.j.j.j.j.7.q.j.3.q.j.j.7.j.7.7.s.h.T.j.q.T.j.5.T.T.j.q.T.7.T.E.q.T.E.E.E.E.E.~.s.T.~.~.~.~.R.~.~.}.~.^.4XE.E.qXqXqXqXqXqXqXqX",
"qXqXqXqXqXqXqXqX6X}.~.~.{.~.J.1.T.!.E.i                                                                                                           w j.E.E.T.T.E.E.E.s.~.~.T.E.~.7.7.T.T.E.T.~.7.T.7.m.E.E.J.T.T.T.{ T.q.7                                       e 3.2.3.7.m.T.j.k.T.4.T.j.T.T.T.T.T.1.T.E.E.T.T.T.7.7.E.T.T.E.T.j.q.8                                         6 7.3.j.7.V.7.q.3.7.j.%.q.j.7.3.j.7.j.7.%.5.j.7.j.j.T.T.6.{ 7.T.j.j.j.T.V.T.j.T.3.T.T.T.T.T.T.T.L.3.E.i.T.~.~.[.E.}.~.~.Y.4X{.I.4XqXqXqXqXqXqXqXqX",
"qXqXqXqXqXqXqXqX8X}.a.~.~.~.~.~.E.~.J.i                                                                                                           w ~.T.E.E.E.E.T.s.T.!.~.E.~.!.~...T.E.T.~.T.T.!.T.s.T.T.E.7.E.j.T.k.T.q                                       i j.3.j.T.q.j.7.j.T.T.k.T.T.E.T.j.T.s.E.3.s.E.J.7.E.j.E.T.T.T.4.T.T.:                                         m j.q.q.<.7.1.q.%.1.<.1.q.9.7.1.1.3.j.j.a.1.j.j.q.q.j.j.T.9.j.q.T.T.j.T.s.q.T.T.T.T.T.8.E.7.E.E.E.T.L.R.E.E.W.a.!.~.L.E.L.J.}.!.^.qXqXqXqXqXqXqXqX",
"qXqXqXqXqXqXqXqX9X~.^.E.~.s.L.~.E.E.!.i                                                                                                           q E.R.E.T.E.E.3.Q.E.W.~.E.T.~.~.~.J.J.T.Q.E.E.T.T.7.E.E.V.T.T.T.T.T.V.w                                       p j.1.j.q.T.j.T.T.s.T.j.T.T.T.q.k.P.E.#.T.T.T.T.T.7.T.E.7.%.q.q.T.7.                                          D q.7.q.q.9.3.q.3.1.T.q.j.j.3.q.:.7.7.q.j.7.1.j.j.T.s.#.q.j.j.j.V.5.T.k.j.s.7.T.T.:.T.q.E.E.V.T.E.T.!.T.E.J.!.~.^.J.E.J.~.{.}.4X4XqXqXqXqXqXqXqXqX",
"qXqXqXqXqXqXqXqX0X3X~.~.H.s.E.T.~.~.T.i                                                                                                           q T.T.s.Q.E.~.~.T.s.~.~.~.~.~.E.~.~.T.W.J.!.E.E.~.E.5.R.T.T.T.T.s.2.T.q                                       r 8.T.4.j.1.T.j.m.<.9.T.T.7.T.T.T.T.q.m.T.T.7.K.T.s.E.V.T.0.J.T.T.{                                           W q.3.s.j.j.7.q.j.q.q.q.#.5.3.1.q.] 7.j.s.j.7.q.q.q.j.3.7.T.j.k.V.j.s.T.j.j.q.s.T.T.j.3.j.E.T.J.T.2.7.7.T.E.E.4.~.^.~.a.}.[.{.*X4XqXqXqXqXqXqXqXqX",
"qXqXqXqXqXqXqXqX0X^.~.~.{.~.~.~.T.s.m.i                                                                                                           w ~.~.Q.j.#.E.~.!.!.~.~.s.~.E.V.T.!.W.a.s.T.I.E.2.T.E.2.E.T.j.s.2.T.j.w                                       i j.j.s.T.j.T.j.q.E.E.1.E.T.R.T.k.7.T.E.7.T.T.T.T.E.m.T.T.T.T.j.T.~                                           ] *.3.9.3.q.3.1.i.7.%.q.3.q.<.q.7.3.j.j.q.j.3.q.T.J.7.9.j.q.T.H.9.j.q.3.4.j.1.s.k.k.j.J.5.s.5.T.1.m.T.T.~.~.E.~.~.J.^.(.T.^.4X~.+XqXqXqXqXqXqXqXqX",
"qXqXqXqXqXqXqXqX0XH.~.~.^.f.2.~.!.E.s.i                                                                                                           e E.7.T.a.E.E.E.~.~.E.E.W.E.7.~.E.^.k.E.^.~.W.~.v.J.E.E.7.E.E.a.R.T.H.q                                       i j.T.%.7.T.{ T.T.7.V.E.T.T.T.T.m.s.T.E.T.j.T.7.J.s.E.E.T.T.7.T.1.Y                                           1.8.j.q.q.1.q.3.3.j.j.1.j.0.q.<.q.%                                                                       * T.~.Q.~.~.^.~.E.3X~.~.qXqXqXqXqXqXqXqX",
"qXqXqXqXqXqXqXqXH.E.^.~.Q.E.E.U.~.E.T.i                                                                                                           7 s.T.~.3.~.s.E.T.~.~.<.T.~.!.s.^.E.E.^.E.E.k.!.E.J.T.R.~.T.k.T.T.q.T.w                                       y T.V.7.T.T.j.T.T.2.T.E.T.j.7.T.E.V.7.E.T.E. .E.3.s.E.E.E.T.T.7.E.Y                                           7.q.q.q.7.%.q.&.i.6.q.&.7.q.7.3.1.%                                                                       - ~.Q.n.].}.T.W.^.~.s.^.qXqXqXqXqXqXqXqX",
"qXqXqXqXqXqXqXqX0X&X[.*X~.^.E.T.E.!.T.w                                                                                                           q ~.E.~.T.^.f.j.T.~.!.E.T.{.W.^.E.~.W.~.W.E.!.~.~.T.W.7.5.E.E.k.E.T.T.w                                       p B.T.T.7.V.j.J.j.3.T.j.T.T.E.T.j.E.j.E.7.7.7.7.E.j.E.T.E.T.E.T.7.U                                           3.] q.q.3.3.q.q.7.i.1.1.q.q.q.j.8.%                                                                       : J.T.~.~.^.~.V.^.E.H.~.qXqXqXqXqXqXqXqX",
"qXqXqXqXqXqXqXqX0X~.~.L.E.~.^.E.W.E.s.i                                                                                                           e 7.~.W.E.T.~.E.m.~.s.E.E.~.L.E.^.~.Q.~.Q.E.L.E.E.E.E.E.s.j.E.6.E.q.T.8                                       i q.7.J.7.f.j.T.T.7.m.m.1.j.T.E.J.q.R.T.E.T.j.7.j.T.E.m.3.T.T.j.T.P                                         @ 3.3.9.3.q.q.q.7.j.7.%.j.j.q.q.7.3.%                                                                       - ~.~.5.T.J.^.^.&X{.^.4XqXqXqXqXqXqXqXqX",
"qXqXqXqXqXqXqXqX9X^.~.^.~.~.~.!.R.T.E.y                                                                                                           q f.W.a.^.~.~.^.~.E.~.^.E.~.~.^.E.6.E.~.I.T.~.T.E.!.E.2.J.E.J.j.E.E.q.w                                       r j.7.3.s.j.s.7.7.E.k.7.T.T.3.E.E.q.E.q.E.!.L.E.E.E.E.E.1.s.T.T.a.L                                           9.9.j.q.q.q.7.7.q.j.9.q.q.j.q.q.j.*                                                                       : j.~.~.W.~.~.^.j.Y.~.4XqXqXqXqXqXqXqXqX",
"qXqXqXqXqXqXqXqX0X4X~.~.s.~.Q.~.~.E.E.i                                                                                                           t ~.~.~.E.R.~.~.~.{.T.{.T.^.~.E.2.J.~.R.3.~.E.~.L.E.~.5.q.!.7.T.s.V.E.6                                       i 7.T.j.] q.T.T.q.T.T.k.T.5.J.E.T.!.E.E.T.R.4.3.T.Z.E.s.f.T.s.k.E.Y                                           7.3.7.&.q.q.3.q.q.3.3.q.3.&.9. .1.&                                                                       - ~.E.~.L.~.T.T.E.~.T.|.qXqXqXqXqXqXqXqX",
"qXqXqXqXqXqXqXqX0X4X}.Y.}.~.!.E.E.E.J.i                                                                                                           e !.N.s.^.L.T.^.~.T.3X~.!.o.{.Y.~.~.~.^.T.W.~.P.E.!.<.j.~.E.4.m.T.T.T.q                                       w T.T.T.T.7.<.<.T.T.E.J.J.T.E.T.T.E.!.E.E.W.E.E.!.6.s.j.E.E.T.7.<.R                                           3.9.q.3.8.9.9.q.q.3.q.3.q.&.q.q.7.&                                                                       ; 7.E.E.T.^.~.~.~.^.}.~.qXqXqXqXqXqXqXqX",
"qXqXqXqXqXqXqXqX0X~.~.}.~.J.^.T.!.~.T.i                                                                                                           e E.~.6.7.R.L.E.~.E.}.a.<.].E.a.H.W.C.^.~.~.~.{.E.7.E.T.7.J.s.T.E.T.E.e                                       w T.T.j.T.7.&.T.7.T.E.T.T.T.E.W.<.E.E.E.7.a.E.E.J.E.E.L.j.s.L.T.E.W                                           ~ 4.q.q.q.q.3.q.q.#.q.9.q.j.q.9.q.&                                                                       : ~.!.E.~.~.}.^.^.4X}.&XqXqXqXqXqXqXqXqX",
"qXqXqXqXqXqXqXqX3X~.{.&X~.a.~.~.T.E.T.p                                                                                                           q J.L.s.L.~.~.[.L.~.~.P.].E.L.}.6.J.}.~.h.~.~.W.~.~.~.E.s.T.T.s.k.7.T.0                                       w T.T.T.j.E.7.k.E.E.E.T.E.!.~.T.E.!.E.T.T.E.T.T.i.E.E.3.E.E.T.E.E.E                                           ~ q.q.j.q.3.q.q.q.q.3.3.3.$.j.q.q.&                                                                       ; ~.E.~.E.T.~.~.^.f.!.{.qXqXqXqXqXqXqXqX",
"qXqXqXqXqXqXqXqX0X~.*XE.Y.^.J.~.E.~.E.i                                       k s.%.9.&.7.3.1.j.j.j.T.T.T.T.T.V.4.T.1.3.k.J.E.T.~.2.W.7.~.E.~.~.J.E.~.s.~.~.}.}.E.*XT.T.}.Y.~.~.}.!.~.~.E.4.6.^.W.E.W.~.T.~.7.J.E.m.E.J.w                                       u #.T.T.T.E.7.j.E.T.T.3.T.T.7.f.J.E.J.E.7.7.!.J.W.s.!.E.T.j.T.{ T. .                                          T %.3.3.7.q.9.1.7.7.q.#.9.q.q.q.q.&                                                                       - E.!.T.E.{.T.^.~.^.{.6.qXqXqXqXqXqXqXqX",
"qXqXqXqXqXqXqXqX8X_.~.E.^.C.i.E.W.E.j.w                                       k j.s.s.j.q.7.#.q.3.j.7.T.j.j.T.T.E.E.q.E.T.j.E.E.Y.T.E.T.7.E.J.^.E.~.^.~.~.~.~.~.E.oXE.4XJ.E.4XI.T.Y.^.^.~.~.J.~.{.E.~.2.~.E.~.3.J.~.s.j.e                                       i j.T.9.T.E.j.E.T.E.7.k.7.!.E.E.E.J.E.E.E.Q.7.E.s.s.V.7.E.W.E.T.6.7.                                          Z q.&.7.q.9.1.j.&.q.{ 7.$.>.%.5.3.&                                                                       - E.7.L.E.~.~.~.E.{.J.*XqXqXqXqXqXqXqXqX",
"qXqXqXqXqXqXqXqX~.~.E.4XQ.J.~.~.!.E.~.i                                       k j.j.j.&.s.&.7.m.j.1.T.7.%.i.2.1.q.T.T.T.T.E.W.~.E.J.W.~.E.~.E.~.~.E.&X~.~.E.}.J.^.~.~.~.}.Q.~.&XE.Q.}.~.^.~.^.L.V.~.~.~.~.7.~.T.m.E.q.E.6                                       y T.E.T.-.T.7.J.E.E.E.E.~. .T.T.7.~.!.T.i.3.s.T.E.E.T.E.T.E.T.E.B.V.*                                         j q.j.$.q.1.3.1.=.3.3.2.1.q.q.s.7.&                                                                       - ~.~.~.~.~.^.~.E.T.~.E.qXqXqXqXqXqXqXqX",
"qXqXqXqXqXqXqXqX0X4X4X[.R.Q.{.E.E.!.E.i                                       l 5.1.j.j.j.j.9.7.j.3.7.T.s.3.T.s.E.T.s.E.E.E.2.E.W.~.4.T.~.~.T.~.^.E.3XE.^.}.}.}.{.E.}.}.~.}.^.~.T._.E.^.}.~.4.E.E.~.s.~.E.~.~.~.!.<.E.7.e                                       y T.T.T.T.T.T.T.q.V.T.k.J.R.E.E.~.s.T.E.E.E.E.E.k.T.J.E.E.E.m.j.T.T.7                                         - 3.q.q.q.j.1.j.j.j.&.a.q.9.9.8.9.&                                                                       ; T.E.E.k.^.~.^.&X+.^.K.qXqXqXqXqXqXqXqX",
"qXqXqXqXqXqXqXqX0X~.~.E.T.Q.~.~.T.T.T.i                                       k q.j.j.7.j.j.k.j.T.7.7.s.T.T.J.7.E.V.7.~.T.L.7.~.E.~.~.J.T.J.^.~.~.^.^.}.^.T.3XT.s.&X3X7.~.^.3XQ.4X~.~.^.k.^.~.~.}.E.L.T.T.E.~.E.E.7.E.N.0                                       8 &.j.E.s.T.7.E.E.T.!.L.E.E.~.3.T.~.j.L.m.s.~.E.~.~.<.E.T.P.T.7.E.E.n                                           _ %.3.7.q.7.1.=.q.7.7.q.7.5.3.q.&                                                                       ; Q.Q.T.~.~.W.~.E.E.}.J.qXqXqXqXqXqXqXqX",
"qXqXqXqXqXqXqXqX9X~.~.{.~.s.W.J.K.E.E.i                                       k J.q.j.j.4.q.T.j.T.T.T.2.E.7.T.T.E.E.V.E.E.~.s.~.7.E.~.!.}.~.~.E.~.W.~.4X~.~.{.R.~.4Xa.~.~.^.&XL.[.~.^.4X}.f.^.o.7.~.E.~.~.E.T.E.J.E.!.E.w                                       i T.7.T.T.E.k.3.7.!.E.E.O.T.j.E.E.f.~.j.~.E.T.~.E...~.T.7.R.E.E.T.1.L                                           D q.1.6.3.&.j.7.q.q.q.q.3.7.3.q.%                                                                       - ~.T.T.T.6.~.^.E.oX~.4XqXqXqXqXqXqXqXqX",
"qXqXqXqXqXqXqXqX8X3X~.~.].E.a.^.~.~.R.i                                       l s.T.3.j.q.T.j.3.0.T.T.j.7.J.1.E.E.T.T.E.E.W.E.E.~.~.{.~.~.T.6.}.3X~.^. X~.~.4X^.}.4X^.}.4Xo.~.~.4X~.T.~.E._.}.^.{.s.~.<.E.~.E.!.~.V.E.E.w                                       i s.T.T.5.E.T.E.E.E.E.7.E.!.~.!.!.2.<.E.~.T.7.T.W.E.E.E.~.E.E.T.T.3._                                           8 q.3.q.7.3.q.$.3.i.#.3.j.3.8.q.j.3.q.8.q.<.j.7.q.q.q.7.1.&.j.3.                                        : s.E.2.E.I.^.~.~.~.4X~.qXqXqXqXqXqXqXqX",
"qXqXqXqXqXqXqXqX4X~.}.~.~.Y.~.T.~.!.R.i                                       l j.1.T.q.T.T.T.T.T.V.E.h.T.T.7.J.E.E.Y.E.T.~.~.E.^.^.J.T.~.^.~.J.}.}.}.T.4X~.~.{.}.}.4X4XT.{.}.}.E.~.{.4X~.*X}.~.I.~.J.L.f.^.~.<.~.m.!.j.w                                       i T.T.T.E.q.L.T.E.E.~.~.E.E.T.~.E.<.E.~.~.E.T.J.!.T.m.~.!.J.T.T.T.T.s..                                           _ 3.q.j.j.q.1.7.9.7.1.j.9.3.1.j.q.q.3.q.1.j.j.j.h.<.j.3.q.<.q.                                        : E.E.3.T.E.C.T.^.^.^.}.qXqXqXqXqXqXqXqX",
"qXqXqXqXqXqXqXqX3X4XL.^.E.~.~.W.E.T.4.i                                       l T.J.<.&.s.j.j.T.q.V.E.T.T.E.E.T.T.E.j.~.~.Y.!.^.~.~.~.}.~.4XE.3X^.~.}.4X}.~.^.(.4X}.H.~.4X4X~.a.4X*XL.}.^.^.~.^.^.].~.~.^.{.T.7.1.~.7.E.q                                       i V.E.J.E.E.T.j.E.E.Q.E.E.E.q.T.~.!.~.k.E.f.~.L.T.!.~.~.<.E.!.T.J.T.E.q                                           M 7.j.q.3.i.q.q.7.5.3.9.3.3.s.3.j.q.q.1.7.9.1.7.q.7.0.q.j.7.q.                                        ; m.J.~.~.~.L.H.}.E.}.}.qXqXqXqXqXqXqXqX",
"qXqXqXqXqXqXqXqX0X^.7.L.W.T.a.T.!.6.q.i                                       z j.j.s.T.T.1.7.T.T.#.T.E.T.E.J.E.W.!.T.E.~.Y.7.E.^.~.~.~.3X^.T.~.*X}.Y.4XT.4X3X4X3X{.W.4X X{.3X~.P.4X4X{.4X}.~.Y.T.~.L.m.~.^.~.^.E.~.!.T.9                                       i 7.E.T.E.T.T.E.!.T.T.~.~.E.W.E.E.~.s.~.~.E.Q.E.~.E.T.<.s.T.~.T.E.T.m.S                                           o ] 9.q.q.q.7.3.=.9.3.3.7.q.3.3.q.7.$.1.j.q.j.q.q.q.q.q.q.3.1.                                        : T.!.~.V.~.k.~.E.^.}.^.qXqXqXqXqXqXqXqX",
"qXqXqXqXqXqXqXqX0X3X3X~.^.Q.~.{.W.~.R.i                                       l 3.j.T.T.j.j.m.1.E.V.q.V.E.T.Q.E.t.!.~.T.E.i.~.~.{.T.I.4X*X}.*X}.{.4X3X&XE.4X&X}.~.%X~.L.3XE.*X~.}.^.~.~.}.~.~.~.}.~.T.^.~.~.^.^.~.L.T.!.q                                       i T.E.i.1.7.E.E.E.T.T.~.~.W.~.s.k.~.E.E.~.L.E.~.<.E.E.~.E.~.E.E.E.E.T.{                                             n 1.q.7.q.0.1.1.9.s.j.<.1.q.q.h.3.5.1.s.9.7.7.9.3.^ 7.j.q.7.                                        : E.T.<.W.~.~.^.^.^.~.&XqXqXqXqXqXqXqXqX",
"qXqXqXqXqXqXqXqX5XH.4XE.}.^.s.~.E.~.~.i                                       l s.T.T.T.T.T.s.7.E.E.E.E.E.E.j.j.E.E.~.W.Y.W.~.s.~.~.{.T.{.J.}.{.Q.{._.E.7.^.}.{.^.J.{.*X^.4X4XJ.f.4XT.3X~.T.4XE.T.T.{.~.T.E.~.m.^.E.T.E.w                                       i ~.T.3.E.T.E.E.~.~.E.~.T.7.T.6.E.~.J.W.~.~.J.~.~.~.E.~.~.T.E.I.T.E.E.m.2                                             Q %.q.q.3.j.j.q.9.h.j.q.q.1.3.7.3.-.1.&.j.3.7.9.j.#.q.7.q.                                        - f.7.E.~.7.~.~.J.^.L.}.qXqXqXqXqXqXqXqX",
"qXqXqXqXqXqXqXqX0X4X~.4XE.^.!.H.~.W.~.f                                       l T.T.3.T.m.V.T.7.T.E.T.E.J.7.m.W.2.~.^.J.E.~.}.T.~.].^.4X~.6.*X4X~.4XE.3XJ.3X}.4X*X4X&X3X4XL.4X4X4X{.[.4X4X{.3X}.3XJ.{.~.L.~.T.E.Q.E.^.J.q                                       i m.s.T.T.7.E.W.a.T.E.W.k.^.E.!.{ !.^.~.W.!.R.~.2.~.T.T.W.~.~.E.E.~.E.s.S                                             2 ] q.q.j.q.3.q.#.7.1.7.q.j.q.q.3.9.s.9.=.1.q.3.#.q.q.2.q.                                        : J.m.T.~.T.~.6.~.~.~.*XqXqXqXqXqXqXqXqX",
"qXqXqXqXqXqXqXqX0X}.}.}.^.~.T.~.E.~.~.i                                       x T.T.T.T.V.7.E.E.m.%.s.~.7.m.~.E.~.~.~.W.~.Y.^.~.&X^.L.~.4X!.}.P.4X4X4X~.4X4XT.4X{.4X{.4X4X_.4XE.}.4X4X4X4X}.J.O.*XT.^.J.~.W.~.~.E.J.~.T.8                                       u E.T.J.~.L.E.E.E.7.E.~.~.W.^.~.E.^.~.^.~.E.~.{.E.^.~.E.W.~.E.T.T.E.J.~.4..                                             p 3.3.q.7.9.#.3.5.j.q.$.%.:.s.9.3.q.3.q.3.1.7.q.7.q.%.&.                                        : ~.~.~.~.~.W.~.~.}.~.}.qXqXqXqXqXqXqXqX",
"qXqXqXqXqXqXqXqX6XJ.}.^.~.4XJ.~.!.E.Y.r                                       l s.3.T.T.E.E.E.7.R.q.s.E.T.~.~.~.~.^.~.J.~.^.^.}.}.^.}.~.W. X~.E.].~.3X~.&X*X~.3Xz.4X~.4X4X~.Y.~.4X*X4X&X}.~.&X3XL.{.*X^.^.^.^.{.^.~.~.~.e                                       i 7.T.~.f.!.T.m.E.J.4.6.T.L.L.~.~.T.^.~.~.^.J.T.~.T.J.T.J.Q.~.~.E.E.!.n.s.c                                               m q.j.q.#.7.q.q.q.q.7.3.1.0.q.7.9.&.3.q.9.q.3.q.q.3.q.                                        - E.Z.~.E.^.~.Y.~.~.}.^.qXqXqXqXqXqXqXqX",
"qXqXqXqXqXqXqXqX0X4X{.~.^.}.T.6.&X~.~.i                                       g k.0.T.h.T.T.E.f.E.{ ~.T.~.E.W.4.!.L.~.J.H.^.~.{.4XE.~.{.Q.4X~.3X4XT.W.Y.4X3X&X$X{.4XE.Y.m.&X4X~.4X~. XY.Q.4X4XT.W.{.~.{.^.*X^.T.^.~.~.E.e                                       i 7.T.~.Q.~.2.~.~.Q.~.J.L.~.^.W.~.x.T.~.2.T.~.m.J.E.T.L.W.~.~.~.Z.~.E.k.7.)                                                 m ^ 1.j.j.7.q.7.j.&.q.9.s.q.q.q.1.j.&.3.q.%.q.q.7.q.                                        : 4.T.W.k.6.~.^.}.}.6.}.qXqXqXqXqXqXqXqX",
"qXqXqXqXqXqXqXqX0X4X^.L.~.^.^.^.E.~.7.i                                       l E.E.E.E.E.T.T.Z.E.L.!.~.~.~.L.7.~.E.^.^.}.6.4X~.3X^.!.3X4XT.|.~.J.3X~.4X4X4XL.}.oXJ.}.~.4X4X4X4X4X4X*X~.&X4X4X~.}.~.J.}.{.~.^.~.7.~.L.E.e                                       i E.E.T.V.s.E.E.R.E.~.2.~.W.~.~.~.~.~.^.~.Q.W.^.^.^.6.^.V.W.E.o.~.~.~.Y.T.6.a                                                 j 1.7.7.8.7.q.3.3.q.1.3.q.q.` 5.9.q.q.j.6.q.q.j.q.                                        - ~.T.L.Q.J.~.~.!.^.c.&XqXqXqXqXqXqXqXqX",
"qXqXqXqXqXqXqXqX6XY.J.}.I.~.~.E.7.~.~.f                                       b E.T.s.E.3.T.E.E.s.E.J.s.^.W.~.~.~.^.~.W.4XI.4X}.T.4X[.4X3X3X^.~.~.4X4X4X4X8X4X4X~.3XY.4X}.4X4X3X4Xo.3XY.~.3X^.4X~.}.~.~.J.E.Q.^.2.^.~.~.q                                       i T.E.J.~.T.J.E.J.~.^.~.W.E.^.~.~.~.J.W.~.}.^.6.J.~.m.^.~.E.I.] T.L.T.T.~.T.`                                                   < W #.5.s.7.3.q.7.j.j.7.j.3.q.-.q.1.3.%.2.7.q.q.                                        ; E.E.~.~.W.Q.E.!.}.{.s.qXqXqXqXqXqXqXqX",
"qXqXqXqXqXqXqXqX0X4XE.}.&XE.}.&X{.~.E.i                                       l E.E.T.E.T.E.T.E.E.~.E.~.H.a.~.^.~.^.Q.{.^.3X~.}.4X}.~.~.~.*XY.*X3X4X~.8XE.4X6X4X~.3X4X4X4X4X4X4X4X4X4X4X4X~.4X~.{.J.L.~.].3X{.~.^.{.~.T.w                                       i ~.W.~.E.~.E.T.p.T.J.~.~.~.~.~.~.}.N.~.T.K.~.{.2.E.~.^.~.Q.m.~.E.Q.E.E.~.T.E.m                                                     x %.%.q.q.q.s.7.8.1.h.3.j.7.3.j.0.] s.3.7.q.                                        - s.7.L.~.n.~.Y.}.6.}.4XqXqXqXqXqXqXqXqX",
"qXqXqXqXqXqXqXqX8X4X~.4XE.4X}.~.Z.~.~.i                                       l s.E.T.s.j.l.E.~.T.~.~.~.~.E.K.~.~.^.&X}.L.R.s.{.R.4X+X~.4X4X~.4X4X~.4X4X8X3XP.L.E.4X4XQ.4X3X4X4X~.4XT.P.{.4X{.4X3X~.{.4X}.E.E.*Xf.~.6.k.q                                       i W.E.W.T.J.~.E.~.1.~.~.~.~.~.^.I.~.^.s.~.*X^.E.~.~.{.{.^.~.Q.T.Q.T.~.T.J.E.Q. .*                                                     X l ! j.7.j.q.7.q.j.j.j.q.q.9.q.j.1.9.j.q.                                        ; 7.!.o.T.~.T.{.~.Y.^.~.qXqXqXqXqXqXqXqX",
"qXqXqXqXqXqXqXqX0X4X4X~.&X~.4X^.^.~.{.i                                       l T.~.7.~.E.~.7.~.T.~.m.[.~.~.~.E.~.E.E.4X}.}.3X4X{.4X4X*X~.4X&XW.&XY.4X6X~.4X4X~.}.8X~.6X6X{.{. X3X&X{. X}.[.J.^.4XE.^.}.L.~.~.E.^.^.~.~.e                                       i Q.~.~.~.~.n.~.E.6.^.T.E.7.}.~.Q.&X~.E.^.~.4X^.~.4XT.~.^.!.~.{.~.W.~.T.E.k.2.E.E                                                           3 Z ~ 9.j.j.3.j.3.3.j.q.0.V.#.i.7.q.                                        ; ~.~.T.{.J.!.^.E.~.~.~.qXqXqXqXqXqXqXqX",
"qXqXqXqXqXqXqXqX0X}.~.4X6.4X~.~.^.}.~.f                                       b Q.T.~.E.J.E.E.^.E.E.^.~.E.E.~.E.s.~.3X~.%X!.4X}.4X4X3X3X4X6X4X4XI.6X3X4X3X5XL.4X3X4X&X4X5X3X4X~.3X4X3X4X~.&XY.4X3X4X}.4X<.&X~.}.<.H.^.~.q                                       i ~.E.E.T.~.T.T.T.{.7.~.~.~.&X7.^.~.}.~.~.~.{.[.J.H.T.}.{.~.~.L.~.!.4.T.E.~.W.E.E.m                                                               $ p V P W ]  .4.] q.7.9.&.| {                                         : ~.~.C.~.J.^.~._.^.{.E.qXqXqXqXqXqXqXqX",
"qXqXqXqXqXqXqXqX0X4X4X~.T.~.4X}.L.!.Q.i                                       l T.~.E.~.T.C.~.E.~.[.L.^.~.~.&XJ.4X{.4X}.T.3X4X4X4XE.4X4X4X4X4X3X6X4X3X4X4X4X;X4X}.~.~.4X~.3X4X3X4X4X4X4X~.L.E.4XI.4X3X~.}.4X~.~.~.3X}.E.t                                       r E.T.J.^.~.}.~.{.~.~.E.}.Y.^.{.{.Y.W.~.~.{.~.~.~.}.6.J.~.E.E.~.E.~.7.d.^.~.E.E.~.J.7                                                                                                                                   : E.E.E.W.~.~.^.~.~.}.E.qXqXqXqXqXqXqXqX",
"qXqXqXqXqXqXqXqX0X4X~.~.4XT.4X^.}.~.L.a                                       b E.T.T.E.E.j.~.~.^.~.4X}.!.~.{.4XE.4X4X3X4X4X4X4X&X4X4X~.4X3X7.6X4X4X4X3X8X8X3XV.8X6X%X4X~.&X6X4X3X3X7X4X3X~.{.4X~.4X~.3Xr.{.}.3X~.{.l.^.r                                       f W.~.4.^.^.T.^.^.E.~.Y.m.}.J.4.^.}.L.~.}.~.4XT.~.^.W.~.~.m.J.N.J.{.L.T.2.Q.L.!.T.E.2.1                                                                                                                                 - E.!.~.^.{.~.&X~.*X}.W.qXqXqXqXqXqXqXqX",
"qXqXqXqXqXqXqXqX0X4XL.4X3X}.~.L.^.~.{.r                                       l ~.~.~.I.~.^.7.T.~.^.6.^.J.f.J.^.~.~.^.~.4XY.}.~.I.{.4X}.%X4X3X{.6X*X4X6X6XL.{.6X3X4X3X8X6XE.8X4X~.6X4X4X4X>X}.4X].4XJ.~.~.}.}.7.Y.T.J.}.w                                       d ~.J.R.E.E.~.}.^.^.~.4X^.&X~.{.6.Q.{.oX2.$X{.~.}.~.~.L.}.~.^.&X~.T.L.E.~.W.~.~.J.T.L.o.-                                                                                                                               : T.E.E.~.T.^.~.~.E.~.~.qXqXqXqXqXqXqXqX",
"qXqXqXqXqXqXqXqX0X^.4X4X6.R.4X~.^.}.~.i                                       b J.!.~.^.s.L.L.^.~.!.~.}.[.~.^.}.}.2.J.4X4X4XU.3X+X].3X8XL.4X{.5X3X_.~.4X4X4X3X8X6X4X7X4X{.6X6X6X4X X6X%X4X4X4X4X4X~.4X}.$X{._.^.^.}.^.E.e                                       w T.~.s.~.~.~.&XQ.}.~.{.4XW.{.{.{.{.&XT._.~.&X4X4X^.3X7.K.~.E.L.!.^.~.{.~.T.~.E.E.!.~.E.[ #                                                                                                                             - ~.~.E.^.k.}.U.}.~.{.~.qXqXqXqXqXqXqXqX",
"qXqXqXqXqXqXqXqX3X4X4X~.}.E.&X[.}.}.&Xi                                       l ~.I.}.~.~.~.~.L.[.[.J.T.E.4X4X4X~.4X4X4X4XE.&X~.Y.~.6XL. X~.4X4X~.8X4X3X{.5X~.W.6X4X6X8X8X6X8X4X8X4XY.4X|.~.4X4X~.4XP.4X~.4X}.&XJ.~.{.{.e                                       i T.E.}.E.}.T.}.~.}.k.<.~.^.}.^.%X~.n.}.4X3X[.*X4X}.7.^.{.{.T._.~.^.^.Y.~.~.f.~.Q.3.~.k.~.{ 1                                                                                                                           : ~.Q.~.~.}.E.^.^.4X{.~.qXqXqXqXqXqXqXqX",
"qXqXqXqXqXqXqXqX0X4X4XE.J.3X{.4X4X&X}.f                                       x J.~.!.7.!.^.^.4X4XE.{.~.~.L.}.4X4X}.4X4X4X4X3XE.4X6X8X4X6X~.8X4X4X|.7X6X4X6X4X4X6X8X5X5X8X~.>X3XoX4X~.&X4X4X4X4X4XJ. X4X~.4X}.~.}.4X{.%Xe                                       i ~.~.!.k.~.{.~.~.~.~.I.!.E.}.}.{.T.[.4XE.+X~.n.^.4X~.4X}.4X}.!.~.Q.L.~.~.^.^.^.J.7.~.L.~.~.4.6                                                                                                                         ; T.~.~.J.s.~.3X~.6.4XP.qXqXqXqXqXqXqXqX",
"qXqXqXqXqXqXqXqX3X}.3X4X^.z.}.4XY.T.^.d                                       b E.W.~.~.^.}.~.R.~.4X}.~.*Xa.4X{.3X{.&X3X4X4X{.~.4X4X6X8X6X6X3X8X|.6X8X6X8X6X^.4X8X~.6X3X6X{.Y.6X6X6XY.6X8X~.4X4X4X*X4X4XP.&X3X{.4X!.}.E.q                                       f !.s.~.{.}.}.~.J.}.~.~.*X^.~.{.{.4.{.!.].4X^.4X{.}.4XQ.^.*X~.W.H.^.*X~.}.~.~.^.~.Y.~.L.2.T.2.m.b                                                                                                                       : L.J.7.}.^.~.m.].4X!.E.qXqXqXqXqXqXqXqX",
"qXqXqXqXqXqXqXqX0X3X4X{.{.3XT.4X4X4X^.f                                       b {.~.~.m.n.Y.^.~.&X}.&X4X4X~.4X~.~.4XI.4X{.~.6X8XP.6X4X4X4X{.~.6X8X8X}.3X4X6X6X-X6X4X3X(.3X6X8X3X8X6X4X4X6X~.3X{.3XI.{.}.].4X*X{.}.3X{.^.e                                       r E.~.~.[.{.^.}.}.k.J.~.&XT.4X~.&X~.2.~.4X*X4X4X6.}.4X{.4XL.$X{.L.E.H.!.&XE.^.~.~.s.}.~.^.~.L.~.~.R =                                                                                                                   : E.].~.^.~.E.^.4X4X4X[.qXqXqXqXqXqXqXqX",
"qXqXqXqXqXqXqXqX0X6X4X4XL.4X}.3X{.4X~.a                                       b J.).4.~.^.&X^.4X4X[ }.I.}.L.4X3X3X4X4X~.T.4X4X~.6X4X4XE.8X6X3X~.3X6X6XoXH.3X6X7X6X6X&X4X6X4X5X4X7X6X8X6X~.3X4X{.4X4X4X4X4X4Xj.4XT.4X}.4Xr                                       f 4XT.W.4XR.~.^.~.L.}.4X~.^.I.Y.~.4X3X4X{.&X4X{.4X^.}.W.^.~.4X}.Q.~.h.~.}.[.~.~.T.T.~.~.s.7.E.#.T.E.' h                                                                                                                 w ~.~.{.4X}.I.^.*X~.+X~.qXqXqXqXqXqXqXqX",
"qXqXqXqXqXqXqXqX0X4X%X4X4X4XT.^.T.}.4Xi                                       b ~.^.}.J.&X~.o.4X X4X{.[.3X).4XJ.4X4X3XJ.P.Y.3X4X8X6X6X7X6X6X8X0X&X5X6X0X8X~.Y.6X&X6XP.4X6X4X~.3X8X4X~.6X4X8X4X4X4X4XL.4X~.4X~.^.%XJ.~.~.w                                       a {.}.~.Q.4X2.4X}.4X}.4XE.}.H.4X3X4X4X[.3X*X*X~.~.4X3X3XE.K.{.3X4X+.E.J.4X}.E.&X~.^.~.~.~.W.!.~.E.E.~.L.( e                                                                                                       : V ( !.~.~.^.^.~.L.E.~.J.{.4XqXqXqXqXqXqXqXqX",
"qXqXqXqXqXqXqXqX5X5X{.&X4X4X4X4X4X4X}.a                                       b ^.L.}.4X^.~.7.^.I.4XH.4XT.3X4X4X+X4XY.>X3X~.6X3X~.4XP.3X+.4X8X6X6X6X3X8X0X0X6X#X6X3X8X0X6X&XH.&X{.Y.6X8X6X3X6X&X3X3X4X4X4X4XoX~.}.3XH.{.r                                       a ~.E.3X&X7.~.3X~.^.~.4XY.3X].Y.Y.4X*X4X4X4XJ.~.3X~.&X4X4XE.T.4X}.3X4X4Xa.^.~.^.~.~.T.<.~.~.^.~.^.~.~.T.L.3.E 6                                                                                             3 m ' E.f.^.^.~.q.^.E.4X4X&X].Y.4X{.qXqXqXqXqXqXqXqX",
"qXqXqXqXqXqXqXqX0X4X4XJ.4X$XT.{.4X3X(.f                                       v ^.}.].}.{.~.E.4X~.*X{.^.~.4X4X4XH.4X4X&X6X4X6X4X6X3X4X3X6X3X6X6X3X0X6X6XOX8X7X8XY.3X6X7X6X6X0X6X-X6X6X8X8X4XL.6X%XP.4X4X4X}.{.}.Q. X4X~.r                                       i 4XE.3X}.T.m.Q.4X4X4X{.^.4X4X*XW.4X2.4X~.4X~.4X{.3X%X4X4X4X~.Y.4XJ.4Xk.&X~.~.{.L.^.E.{.^.~.~.~.{.^.E.E.l.E.E.E.( m @                                                                               % l L o.T.~.~.~.E.~.^.!.~.4XE.4X{.~.{.E.4XT.qXqXqXqXqXqXqXqX",
"qXqXqXqXqXqXqXqX0X6X4XL.4X8X4X].{.^.4Xf                                       b ~.L.3XE.4X4X4X}.I.J.4X4X4X4X4X4X4Xn.4X4X6X6X8X7X{.3X8X6X0X6X8X5X6X8X0X6X4X6X6X8X0X4X!.6XQ.I.3X4X6X6X~.4X3X6X4X8X4X4X6X~.6X&X4X&X4X~.P.~.r                                       f ~.^.3X3XE.}.4X~.3XE.~.4X4X4X4X3XE.4X~.~.4X4X4X4XE.4X{.~.4X4XE.~.4XT.4X&X~.E.J.~.3X~.~.*X^.~.}.~.T.E.T.6.^.E.I.~.E.o.R b %                                                                 = l L [ q.E.f.Q.~.E.j.k.J.~.2.~.}.~.&X}.k.3X~.&X{.~.qXqXqXqXqXqXqXqX",
"qXqXqXqXqXqXqXqX0X3X4XL.~.4X4X4X4XY.*X{.a.4XL.^.W.3X!.E.2.4X4X~.&XL.^.4X4X^.4XW.~.4X&XI.}.[.4X&X4X}.L.4X}.4X4X6X{.&X3X3X8X8X8X&X6X4X6X6X6X8X4X0XY.3XY._.8X6X0X4X7X0X6X0X0X8X6X4X6X0X].3X~.3X~.6X4XE.|.4X4X4X}.3X4X4X4X3X}.~.3XE.~.4X}.~.4X4XJ.~.k.~.E.~.4X4XE.].E.^.4X4X~.4X4X4X+X4X*X{.{.4X4XE.4X4XoX4X4X3X4X3X{.4X4X4X4X4XL.J.4X[.E.4X{.4X{.}.4X~.4X~.}.^.T.}.P.!.E.E.~.T.@.~.E.s.~.T.~.J._ G l >                                               = i V R o.!.E.E.E.3.T.~.s.T.T.E.}.T.^.~.T.E.^.{.~.*XT.4X~.4X4XqXqXqXqXqXqXqXqX",
"qXqXqXqXqXqXqXqX0X6X4X4X4X&X3X4X3XE.4XE.4X&XW.4X}.^.3X3XC.~.~.~.].Q.4X{.N.4X~.].].E.4X4X&XP.E.&X3X4X4X4X4X}.4X6X6X4X4X3X6X6X6X~.0X8X3X6X4X0X7X6X6X8XJ.6X0X6X6X6X|.6X9X&X6X0X4X3X6XoX4XH.4XY.6X4X{.U.~.3X3X~.4X4X4X4X4X~.4X4X}.4XY.^.4X~.J.L.&XL.].~.L.E.4X~.4X~.4X~.R.^.3X%XE.~.}.4X3XJ.4X~.4X3X4X}.4X4X XJ.%X4X4X3X4X4X4X4X3X&X[.3XP.4X4XT.~.4X4X~.4.T.~.&XJ.~.^.6.~.f.T.~.2.^.L.!.~.E.E.E.L.E.E.T.6.~ Y D b h 6 3 > * o X & > < 6 p n V K Y } <.E.T.4.~.~.k.E.T.~.~.E.E.E.E.J.^.~.}.}.{.}.&X!.3X4X3X4X*X4X4X4XqXqXqXqXqXqXqXqX",
"qXqXqXqXqXqXqXqX7XT.6X4X4X3X&X8X4X4X4X4X+X}.~.4X}. X4.4XoX~.~.}.T.L.~.L.4X4X[.4X4XE.&X4X}.E.}.Q.3X3X8X4X4X6X7X4X{.Y.+X6X4X8XU.6Xa.Y.6X6X8X4X0X6X8X6X;X&X4X9X6X9X2.6X8X_.P.6X3X6X&XJ.~.7X6X3X6X6X8X6X3X^.4X6X4X6X4X4X4X~.W.4XL.*XE.4XY.].3XE.{.{.{.{.H.4.~.{.3X4X3XJ.4X4X{.4X{.4X4X4XL.4X4X4X3XL.4X^.J.4X6X}.{.~.4X3XE.8X4X4X4X4X4X*X4X~.~.4X4XR.4X4X^.4X~.~.~.~.4X~.^.~.*X~.Q.~.~.~.~.W.E.E.E.E.~.T.T.~.E.T.!.T.J.E.E.E.T.T.T.E.q.~.E.m.E.E.a.%.Z.E.T.7.T.E.7.T.E.^.E.^.E.~.~.a.}.*XE.W.3XJ.E.}.}.4X}.^.4X4X4X4XqXqXqXqXqXqXqXqX",
"qXqXqXqXqXqXqXqX9X6X}.3X4X3X4XW.E.Y.4X&X4X{.4X4X*X4XE.oX4X{.}.H.4X3XL.~.m.4X{.{.^.3X4X4X4X~.4XE.^.4X{.~.4X4X6X6X6X3X4X8X6X6X|.6X6XY.3X6X6X0X:X0X0X4X7X6X6X0XL.L.3X3X6X3X4X8X6X3X7X6X9XoX{.4X8X0X4X3XQ.3XL.8X4X6X4X4X^.Y.3X~.!.4X4X~.4X4X{.>X{.4X4X~.L.E.^.{.}.E.}.{.4X4X~.3X4X4X4X}.4X4X8X&X4X4X4Xa.4X{.{.4X4X6X}.6X4X3X{.4X~.4X6X4X{.3X{.{.*X4X4X3X^.E.~.~.4X~.&X^.W.^.E.E.&XE.I.^.~.~.~.~.~.~.s.~.!.~.E.~.2.L.~.E.i.2.J.T.s.~.E.J.R.E.E.~.!.E.E.~.E.J.~.!.~.2.~.k.^.^.(.}.~.~.~.{.~.{.!.~.~.4X~.*XL.~.4XL.4XQ.qXqXqXqXqXqXqXqX",
"qXqXqXqXqXqXqXqX0X6X4XH.6X3X4X4X4X4X4X4X4XL.4X4X4XL.4XL.4XE.~.{.{.!.J.4X4X4X}.3X4X~.~.Y.Y.3XL.4X4X3X4X4X&X6X8X{.6X4X7X6X6X6X6XL.Y.6XY.Y.8X+X0XY.0X6X6X3X3X9X6X0X4X0X3X6X6X4X6XU.6X3X6X7X4X8X4XU.4XE.8X6X4X8X&X4X X&X4X4X4X&X4X4X3X4XE.4X{.4X4X~.4X}.{.s.{.L.4XJ.T.3X4X}.4X3Xa.4X4X3X*X3X4X{.{.8X4X4X4X4X4X4X4X3X4X4X6X4X6X3X4X4X4X*X4XJ.4X|.4X{.4XE.&X}.L.].f.~.m.Q.*XP.&XE.W.*X~.~.~.~.W.2.L.Q.W.~.2.{ ^.s.E.W.R.E.!.E.E.T.7.E.E.E.E.T.7.~.T.L.7.7.~.E.~.~.E.^.W.~.~.E.~.^.^.*XI.^.{.}.{.^.4X~.4X4X~.4X{.3X4X6XqXqXqXqXqXqXqXqX",
"qXqXqXqXqXqXqXqX0X6X4X3X*X6X3X4X4X3XY.4X4XP.3XY.N.4X3XT.4X4X4X~.}.4X(.4X}.~.4X+.[.4XT.H.~.4X}.6X4X4X4X&X4X6X3X6X4X&X4X4X6X0X{.6X6X0X8X0X0X6X~.6X8X$X6X0X4X6X0X-X0X5X8X0X4X0X0X3X0X8X*X8X6X4X6X6X3XY.3X6X6X6X6X4Xn.4X~.4XE.4X4X3X4XL.~.4X4X4X4X&X4X4X4X4X4X4X3X~.Y.~.4XH.E.E.n.4X4X4XL.4X6X{.4X3X6X4X_.7X8X+X4X4X4X3X~.4X4X X~.4X~.3X4XI.&X3XQ.4X~.~.{.3X4X4X*X&XE.4X{.[.T.}.}.~.T.Y.m.E.Q.~.].~.H.~.~.s.~.m.O.~.E.~.E.Q.~.~.T.T.4.~.s.!.!.~.~.E.J.~.Q.E.W.E.E.~.~.R.~.s.^.^.[.~.E.J.4XJ.~.{.4X~.3X*X4X*X&X4XM.4XqXqXqXqXqXqXqXqX",
"qXqXqXqXqXqXqXqX3X4X4X5X4X6X6X6X|.4X}.4Xs.4X4X}.{.4X4X4X4X4X4Xq.4XW.&X4X4X*X4X4X4X~.4XP. X*X4X4X3X4X6X6X6X3X8XI.H.4X X~.`.*X~.9XI.4X~.Y.0X6XY.0X0X0X6X8X|.0X6X0XY.6XI.6X3X&Xm.8X6X8X0X6X8X8X6X6X8X{.3X8X6X8X4X4X4X6X&X4X4X5X&X4XQ.&X4X&X}.3X{.4X4X4X4Xs.4X4X4X~..XL.4XP.4X4XH.(.4X3X4X5X4X6XI.6X3X~.4X4X{.|.4X8X4X6Xn.6X6X6XH.7X4X6X4X4X4X4XY.4X4X~.].4X3X~.4X!.E.*X~.4XL.*X3X~.~.{.~.J.~.^.4.~.^.~.T.{.~.W.E.].Q.~.E.~.T.J.E.~.E.7.L.~.<.L.^.E.~.~.T.~.p.~.~.~.^.~.~.~.[.~.3X^.Y.~.4X~.~.&X4X^.~.4X4X4XE.3X{.4XqXqXqXqXqXqXqXqX",
"qXqXqXqXqXqXqXqX9X4X6XY.4X4X8X~.4X4X+X4X4X6X3XU.4XY.4X3X4XL.4X4X4X4X4XI. X4X}.~.4X~.4X4X4X4X4XY.{.4X3X~.6X4X6XY.^.6X3X8X6X0X6X8X-X0X7X0X0X4X7X0X`.6X0X0XY.4X0X6X0X6X4X0X0X3X6X0X8X3X~.8X6X3X&X3X0X8X4X6X4X6X4X6X-X~.6X4X|.}.3X4X~.4X4X4X~.3X&X~.4X4X4X&X~.4X4X4X&X4X4X4XY.4X4XE.6X~.T.6XT.4X8XR.~.4X6X~.4X6X4X{.6X6X6X8X_.4X6X6XE.8X4X4X3XL.}.{.{.&X4X4X4XE.4X4X}.L.3XE.~.[.~.J.&X~.o.H.~.{.T.^.T.^.^.J.J.!.~.~.T.W.q.~.~.T.W.~.6.~.E.~.~.T.E.~.~.7._.T.^.~.~.~.^.L.~.{.~.^.^.4X^.I.$X4XJ.4X4X4X4X4X3X4X~.5X8X6XqXqXqXqXqXqXqXqX",
"qXqXqXqXqXqXqXqX0X6X*X8X3XU.3X6X6X5X4X4X3X4X3X{.4X4X~.H.{.&X4Xj.3X4X4XH.4X*X4X3X8X3X6X{.6X4X6X3X~.3X8XH.4X8X~.5X8X~.4X6X0X6X6X6X6X0X0XI.6X4X0X6X0X6X0XY.0X}.&X0X8X8X6X8X0X6X6X0X6X3X0X6X3X0X6X7X~.&X&X6XY.-X8X}.~.4X7X4X4X4X8X6X4X4X4X6XOX4X4XJ.L.4X*X4X+.4XY.{.&X4X4X~.4X4X6X8X4X4X6X-X7X4X4X8X&X6X6X6X8X6X6X+X8XW.4X3X4X7X~.4XY.Y.6X4X~. X4X4X~.|.4XK.4X4XY.}.{.4X4X{.~.^.H.!.~.E.E.L.E.T.~.^.].{.^.^.T.<.E.~.{.6.~.^.6.^.!.}.L.j.W.}.^.~.~.~.Y.Y.^.L.~.^.E._.~.{.~.}.~.4X4X^.^.%X*X^.~.4X4X4X4X~.>X6X3X4XT.H.qXqXqXqXqXqXqXqX",
"qXqXqXqXqXqXqXqX8X6X4X&X8X6XE.6X6X8X8X6X4X4X X&X4X3X4X4X4X3X X4X~.4X4X*X4X4XJ.6X4X8X3X4X8X6X X8X3X6X4X6X6X6XY.8X3X6X3X6X6X8X7X0X0X8X3X X0X0X0X8X0X8X8X0X0X9X0X0X0X6X0X0X6X0X0X0X6X0X0X6X3X&X*X6X4X6X8X6X;X6X4X8XL.3X6X>X4X4X4X4XY.Q.4X4XE.4XL.4X4X4X4X3X6X}.4X4X4X4X3X4X6X3X4X4X4X8X6X4X3X6X6X4X8X6XH.9XY.8X4X~.8X6X6X4X6X4X8X~.4XP.4X6X&X4X4X8XE.4X4X4X4X~.4Xk.D.4X4XH.%X3X4X}.4X~.~.{.!.3X}.^.~.E.4X~.3X~.o.E.j.4X^.~.~.{.~.E.{.~.~.~.~.^.^.}.}.~.^.^.~.^.~.E.}.!.j.~.~.k.4X4X4X4X+X4X4X3X_.-X*X|.~.4X4X4X6X6XqXqXqXqXqXqXqXqX",
"qXqXqXqXqXqXqXqX0X6X6X4X0X4X&X{.8X8X4XY.L.5X4X4X4X6XH.4X4X4X3X~.4X4X}.*X|.4X4X4XY.4XL.4X8X4X6X3X4X|.~.0X6X0X8X6X*X0X0X+X~.6X6X0X8X0X6X0X0X7X8X0X#X0X0XE.6X8X6X6X0X8X5X&X3X8X0X6XP.3X4X4X0X8X0X9X6X0X3X6X0X8X{.^.+X6X~.8X4X6X8X4X4XY.3X4X4X*X4X4X3X4X4X~.3X8X8XY.3X*X4X4X4X3X4X4X3XL.6X4X6X6X4X6X4X4X{.6XP.6X6X6X5X8X6X&X_.3X6X6X~.6X4XL.n.6X8X8X~.6XN.&X4X4X4X4X&X3X^.4X%X3X}.3XJ.J.~.}.~.!.}.{.~.~.~.~.~.Q.L.~.~.~.{.E.}.~.J.~.^.^.*X^.^.^.^.~.^.~.^.E.^.J.{.E.}.4X}.}.4X}.~.~.~.4X4X4X4X*X3X4X4X4X~.3X6X4X6X6XqXqXqXqXqXqXqXqX",
"qXqXqXqXqXqXqXqX0X0X6X4X6X4X}.4X3X|.7X6X4X8X6X4X4XH.4X X^.3X4X3X8X6X{. X4X4X}.6X~.4X6X<X~.4X4X3X6X&X8X6XH.6X6X+X4X0X*X6X8X{.~.6X0X8X0X0X~.8X8X3X0X0X8X0X0X0X0X{.0X8X X0X9X0X4X4X6X0X|.0X4X6X6X6X3X4X6X4X6X6X~.4X4X3X6X8X3X4X4X|.4XQ.4X4X~.4X4X8X3X4X4X*X2.4X4XL.~.3XY.4X4XY.J.~.8X}.8X3XP.6XP.6X3X3X0X6X4X3X0X4X8X6X6X4X6X8X6X~.4X6XJ.8X~.6X6X*X4X4X3X{.4XE.&X8XN.3X4X&X*X4X4X~.4X{.}.~.}.3X4X{.~.}.^.}.J.L.^.E.H.3X%X~.3X~.L.T.o.~.{.}.J.~.~.^.4XE.~.{.*X4X}.~.6.].4X{.*X&X4X3X4X~.H. X4X4X4X6XJ.4X-X6X4XU.4X6XqXqXqXqXqXqXqXqX",
"qXqXqXqXqXqXqXqX0X0X&X6X6X6X0X0X6XU.6X6X8X4X4X6X8X{.4X4X4X4X8X.X4X4X4X8X6X4XoXP.6X8X6X6XE.6X4X6X6X3X6X3X0X4X|.9X6X3X0X6X0X0X6X6X6X0X3X0XY.3X5X3X0X0X0X}.0X0X0XP.0X4X0X0X0X0X0X8X0X0X0X4X0X4X{.0X6X0X~.8X6X5X3X3X3XH.3X4X6X~.6X{.4X3X4X4X4X4X3X3X6X4X6X4X3X4X6X6X3X X6X8X&X5X6X4X4X6X5X3X6X~.*X3X3X4X~.6X4X0X6X0X0X}.6X0X&X6X6X6XU.6X4X/.0X8X4X3X4X4X6X4X6X4X4X4X4X{.4X~.4X4X*XL.>X4X4X4XI.&X4XE.{.^.3X~.6.}.T.4X[.4X[.^.V.E.4X~.~.}.L.~.T.~.E.4X~.4X!.+X^.}.{.{.~.4X4X4X4X~.^.~.P.T.~.{.3X3X6X~.4X8X~.6X|.4X6X8XqXqXqXqXqXqXqXqX",
"qXqXqXqXqXqXqXqX9X6X9X3X8X6X4X6X4X4X3X4X4X|.&X4X6X4X4X4X6X8X6X8X4X6X4X4X3X4X8X4X~.3XL.6X-X3X7X4X3X&X8X4X*X0X6X4X8X4X4X3X9X0XL.9X0X0X3X8X3X0X0X0X0X8X0X5X7X9X{.5X3X6X0X&X0X7X6X0X0X0X6X8X0X4X0X4X3X{.9X7X0X8X6X6X6X6X6X6X3Xn.8X7XH.4X6.3X^.4X3X6X4X5X8X4X4.^.6X8X4XP.6X4X-X].8X`.6X_.Y.4X8X7X X6X&X6X6X8X0X6X8X6X{.6X6X3X6X6X4X4X8X8X0X6X6X3XE.6X4X6X6X8XE.&X6X6X4X8X4X4X~.3X4X~.W.4X~.4XO.T.&XL.Y.4X4XU.L.T.4X!.4X~.4X~.4X}.4X].4X~.4X}.E.&X~.3X4X}.W.L.}.*X3X~.+X4X3Xn.+X3X4XJ.{.8X~.7XY.4X4X4X6X6XY.8X4X6X4X|.qXqXqXqXqXqXqXqX",
"qXqXqXqXqXqXqXqX7X6X0X8X6X8X6X6X6X8XE.4X6XP.3X4X~.&X8XY.~.6X7X{.6X4X4XY.;X8X6X&X6X1X4X8X4X6X3X8X6X6X&X6X6X~.0X6X4X8X6X6X0X0X|.3X0X&X~.Y.6X9X0X0X3X+X0X0X0X0X8X0X0X0X0X&XoX0X0X6X6X0XH.7X7X8X0X0X;X6X4X6X3X6X6X3Xn.J.7X8X8X6X8X6X4X8X8X3X4X6X4X*X9X3X7X4X~.6XH.6X4XP.8X3X3X8XoX3X6X3X6X6X0X4X4X6X9X6X4X6X4X0X6X7X3X9X0XK.+X6X6X0X4X6X3X&X6X4XY.&X~.6X4X}.|.4X8X4X6X4X&X4X~.}.4X4X}.4X3X4X4X4X].4X4X4X4X}.~.4X*X}.L.}.4X3X^.L.~.J.}.Y.R.&X~.W.3X3X}.~.2.4X4X}.{.{.4XH. X4X4X4X4X{.4X4X4X4X8X4X4X6X4X9X4X6X6X6X0X4XqXqXqXqXqXqXqXqX",
"qXqXqXqXqXqXqXqX0XY.8X3X7X0X0X X0X4X4X8X6X8X4X6X3X6X6X6X6X8X6X3X4X8X3X6X6X0X$X6X3X3X2.L.{.0X0X3X|.{.I.9X=XK.0X4X3XU.0X4X0X6X6X{.0X7X0XU.6X8X0X6X8X7X8X6X0X4X3X~.0X0X7X0X5X6X0X0X5X0X4X3X6X6X0X3XY.~.0X8X6X3X3X8XoX0X3X~.0X4X6X~.5X6X6X8X6X8X~.8X6X4X3X6X6X4XP.4X6X6X6X6X4X4X6X4XP.6XR.&X$X6X7X3X8X3X6X0X6X0XY.8X0X6X6Xs.6X0X4X8X0X6X0X6X6X~.4X9X6X~.P.J.J.4X4XJ.4X4X3X4X6.4X4X{.4X4X~.4X{.4X4X(.~.d.{.!.T.*X3Xk.4X}.}.T.J.&X*X4X4X}.~.}.E.4X3XT.~.].I.4X4X4X4X4X4X+X4X4X4X4X6X{.}.{.&X6X6X5X4X8X~.3X8X6X4X8X8X&XqXqXqXqXqXqXqXqX",
"qXqXqXqXqXqXqXqX0X0X3XI.H.~.6X0X7X8X_.6X6X0X4X6X7X5X9X6X6X3X7X6X3X6X7X6X6X4X0X6X4X8X6X6X4X4X0X6X3X6X6X0X8X7X3X6X6X6X6XY.0X6X8X0X3X5X0X{.8X0X;X0X6X0X9X0X0X8X6X8X0X0X0X0X2X9X3X6X0X8XP.8X0X8X0X0X0X0X5X4X~.6X3X6X6X6XU.8X6X6X0X6X6X6X&X~.6X8X~.6X8X{.3X5X8X;X6X&X6X6X8X4XY.9X3X6X6X6X8X0X3X6X0X X6X0X0X4X0X5X6X0XP.0X6X6X0X6X6X3X6X*XP.&X0X6X4X6X8X5X6X&X4X0X&X3X4X6X6X3X6X3XJ.4X}.4X&X4X~.N.4X~.3X^.4X3X&X3XJ.4XL.4X4X4Xp.}.4XW.P.E.4XR.~.3X4X~.4X4X&X~.4X~.4X4X4X4X}.4X4X4X{.6X4X8X4X4X6X8X8X6XY.8X6X6X8X6X`.4XqXqXqXqXqXqXqXqX",
"qXqXqXqXqXqXqXqX0X0X0X9X8X6X9X{.~.6X6X4X4XY.4X6X4X6X8X4X{.6X8X4X0X6X4X5X6XE.6X3X8X6X0X6X8X&X3X4X3X0X0X9X&X6X4X4X8X&X6X3X0X9X0X3X0X0X0X8X0X4X0X0X,X6X0X6X8X0X0X-X3X0X3X0X0X4X0X0X0X8X6X4X0X8X6X0X3X-X6X0X9X~.6X4X6X3X4X6X8X4X8XY.6X$X3X4X4X6XU.{.6X6X3X3X6X4X&X4X4X{.6X8X6XY.6X0X6XoX3X+XL.3X0X8X0X6X8X6X6X8X0X6X&X5X0X0X0X}.0X5XoX6X6X6X3X4X3XU.6X&X7X6X6X6X8X6X4X3X4X6X6X~.3X~.{.~.&X4X].3X4X~.4X4X4X}. X3Xa.J.4X&X4X{.3X*XL.4XW.3X4XE.4X3X4X3XE.4X4X4X{.!.P.4X}.4X4X&X4X{.3X4X6X4X6X4X3X6X6X6X8X3X6X0X6X0X6X0XqXqXqXqXqXqXqXqX",
"qXqXqXqXqXqXqXqX0X0X8X8X3X3X6X6X6X0X6X0X0X8X3X6X3X0X3X4X3X_.~.Y.5X6X4X6X6X0X|.P.4X9X4X3X6X4XP.3X0X3X3X6X3X6X8X5X{.&X4X6X0X0X6X0X8X0X0X0X0X6X9X6X8X0X{.0X0X0X0X8X0X6X9X6X0X0X0XP.0X0X8XF.0X8X0X0X8X0X3XL.4X6X6X3X8X6X6X0X6X6X6X4X8X6X6X6X6XP.7X-X~.4X{.6X3X8X6X6X0X3XY.3X4X8X0X5X6X0X|.6X~.6X&X6X6X0X9X0X8X0X0X0X6X+XJ.6X8X8X0X].M.0X8X3X%X7X0X6X8X0XY.J.4X4X6X{.4X3X XY.4X{.8X3XY.4XOX&X4X&X4X4X{.4X~.6XL.E.4X4X4X4X4X_.T.4X~.L.4XE.4X~.~.3X4X4X4XH.4X4X4X3X3X4X4X4X4X4X3X4X*X7X4X6X4X4X6X6X8X3X4X0X6XI.&X6X8X8XqXqXqXqXqXqXqXqX",
"qXqXqXqXqXqXqXqX5X7XL.0X8X6X3X0X9X8X4X3X~.6X6XL.4X6X5X6X4X0X8X5X0X6X5X3X3X4X8X_.Y.Y.3X3X6X8X&X6X6X0X6X3X3X7X0X3X7X0XY.0X0X0X8X8X3X0X0X6X0XY.3X0X7X5X6X0X0X^.0X6X0X0X6X0X7X0X0X4X6X3X0X8X5X7X-X6X4X7X6X0X8X3X0X6X8X0X8X6X6X8X0X4X8X8X8X9X4X6X4X6X+XP.+X6X0X0X4X0X&X6X6X3X0X8X8X0X6X4X8X4X8X7X0X9X3X0X4X6X0X6X6X5X-X3X0X{.0X6X3X4X6X6X9X0X9X8X0X6X6X6X4XY.7X6X4X4X8X3XE.L.{.4X4X4X_.5XY.4XQ.Y.6X~.L.~.4X~.4X4X4X4X4X4X4X8X6X4X3X3X4X4X4X4X].~.4X4X~.4XL.4X3X~.Y.4X7X4X{.[.*X8X6XY.3X8X6X&X8X3X6X4X6X6X6XI.3X0XY.3XqXqXqXqXqXqXqXqX",
"qXqXqXqXqXqXqXqX9X~.9X0X0X~.3X6X0X8X8X;X6X6X3X4X{.3X6X8X0X4X8X8X6X6X7X0X6X0X6X0X9X6X3X4X0X6X+X6X8X0X0X;X5X0X0X0X8X0X9X6X}.0X6X5X0X0X~.0X7X0X6X0X0X5X0X6X0X8X3X9X0X0X9X0X6X{.0X0X9X0X0X7X0X0X8X0X0X3X0X0X0X4X9X+X4X6X0X6X4X5X3X6X0X6X7X6X6X3X6X6X6X6X5X6X6X6X5X0X4X6X0X6X4X6X&X0X0X{.3X0X6X0X6X5X6X0X6X0X6X9X4X3X8X8X0X6X7X6X7X3X6X~.6X6X0X6X6X0X8X4X8X3X8X6X8X6XP.{.&X8X6X@X8XJ.6X6X6X4X4X}.3X6X{.4X8X6X{.4X&X4X4X4X4X&X4X4X4X4X4X4X4X3X^.3X4XI.5X8X6X4X4X4XY.4X_.4X6X6XY.6X|.6X5X6X3X&X{.6X6X4X4X8X6X0X0X_.4X9XqXqXqXqXqXqXqXqX",
"qXqXqXqXqXqXqXqX0X0X0X5X3X0X0X0X6X8X0X6X8X7X0X3X6X7X0X6X8X6X6X6X3XI.P.~.0X:X4X0X6X3X8X7X4X3X9X6X6X8X~.L.6X0X8X0X9X0X8X~.0X0X4X6X3X~.6X0X0X0X0X0X0X6X<X8X0X0X0X6X;X0X0XI.3X0X0X5X0X0X5X0X3X4X0X6X3X4X4XY.0X4X0X8X6X0X7X3X0X0X8X8X6X6X0X6X9X4X3X0X4X0X~.6X6X6X&X6X^.0X0X6X[.4X6X7X9X8X9X8X6X8X6X0X6X0X7X6X8X0X0X!._.0X8X3X0X0X0X4X0X9X0X3X6X6X6X0X6X8X4X6X6XP.3X0X3X6X6X6XY.S.6X&X6X8X4X4X X&X6X8X6X6X8X4X4X3X3Xd.6X4X4X3X^.4X3X4X}.4X4XQ.6X&X4X4X4X6X4X~.*X X8X6XQ.7X6XP.{.7X6X4X4X6X8X6X3X6X8X0X6X6X6X0X6X4XQ.0XqXqXqXqXqXqXqXqX",
"qXqXqXqXqXqXqXqX5X7X8X6X8X3X6Xd.9X0X6X0X6X4X XL.0X0X0X3X9X0X4X6X0X6X0X3X6X8X0X5X9X0XT.~.3X0X6X3X7X0X6X X5X:X6X0X6X3X0X0X0X+X8X8X0X7X6X0X0X3X8X8X0X7X9X).0X3X8X9X0X0X8X_.0X3X0X0X6X:X0X0X0X3X0X0X7X0X7X+X0X0X~.6X0X~.6X0X0X0X{.0X3X6X8X6X0X3X6X0X3X}.&X6X0X8X8X6X6X8X7X9X8X0X%X3X6X~.8X8XY.0X6X0X0X0X6X3X0X8X8X0X0X6X6X6X0X6X0X6X3X0X#X0X6X8X0X3X X0X6X4X6X0X3X0X0X8X3X8X4X8X6X6X{.4X6X6X6X3X8X8Xn.6X6X6X6X7X&X3X6X4X8X6X4XU.&X4XE.4X3X6X6X{.*XY.6X6X6X4X4XY.6X4X6X4X6X~.4X6X6X8X4X~.7X6X6X5X8XY.~.8X8X0X0X9X0X0XqXqXqXqXqXqXqXqX",
"qXqXqXqXqXqXqXqX5X8X0X3X3X0X6XH.7X8X0X0X0X0X6X0X3X0X8X$X6X0X0X8X3XY.8X0X6X8X0X0X8X6X0X0X0X6X0X0X0X&X4X6X~.9X3X0X0X0X4X0X6X8X0X0XY.9X7X>X0X0X&X6X5X0X0XY.0X0X0X0X0XY.0X6XY.3X0X9X5X0X0X4X0X5X+X0X0X0X_.H.Y.6XI.8X0X6X6X0X4X0X6X3X8X0X3X3X6X4X0X6X{.9X6X6X0X8XoX+X6X6X6X0X6X8X0X6X6X0X3X3X6X0X0X~.4X0X7X3X6X0X0X0X0X0X|.6X!.7X;XY.Y.8X~.0X8X0X0X0X3X9XQ.6X0X6X3X6X6X0X4X4X3X6X8X6X6X8X8X6X8X6X6X6X~.8X4X3X~.7X6XY.6X8X6X8X6X6X6X4XP.3X{.4X8X4X4X6X4X4X7X4X6X4X4X4X8X3X6X-X6X6X3X6X0X6X8X4XP.Y.0X6X4X0X0X6X0XP.8X6XqXqXqXqXqXqXqXqX",
"qXqXqXqXqXqXqXqX0X0XU.0X5X8X8X4X~.0X0X0X8X6X6X0X0X9X6X4X4X7X0X6X6X0X9X0X8X&X6X0X6X0X0X6X0X8X6X6X0X3X+X9Xm.P.8X9X0X0X6X9XY.0X0X0X8X0X3X0X0X0X0X0X6X0X5X0X0X9X0X4X0XY.9X0X4X9X0X0X>XD.0X0X6X0X0X0X3X6XF.8X0X0X~.0X6X0X8XP.0X6X9X3X0X5X9Xn.0X0X6X7X6X0X3X4X4X6X0X3X*X0X,X6X4X3X3X0X0X0X3X0X0X0X8X4X0X8X0Xs.0X0X3X0X0XH.6X0X3X6XY.0X3X8X3X~.4X5X4XN.0X6X6X8X0X5X8X6X0X0X0X0X8X6X3X4X6X4X4X4X6X6X7X6X6X&X&X6XY.4X&X8X&X6X6X6X{.&X5X8X3X6X{.3X6X&X7X3X&X6X6XP.6XoX3X8X4X6X4XL.~.7X6X&XP.0X6X8X6X6X;X0X3X8X-X8X6X0X0X0XqXqXqXqXqXqXqXqX",
"qXqXqXqXqXqXqXqXqX6XY.0X0X0X X0X0X0X4X8X0X3X6X4X8X6X0X8X4XY.6X0X6X6X8XY.0X4X6X0X0X8X0XU.6X0X0X0X0X~.4X4X].3X8X0X0X0X0X7X0X8X8X0X3X0X0X0X0X0X7X0X4X6X0X0X0X6XY.0X0X0XQ.0X6X7X6X0X0X0X0X0X&X0X7X6X0X0X6X8XP.4XQ.0X0X0X0X8X8X8X0X6X0X3X~.0X6X8X6X0X6X&XY.0X0X0X0X4X6X6X^.8X0X0X6X0XY.3X8X].0X0X5X3X0X8X0X0X0X6XY.3X0X3X6X6X6X0X0X}.0X6X7X&X8X6X0X4X0X6XY.0X6X0X6XY.7XY.6X8X6X4X0X6X*X8X6X3X8X5X3X{.L.6X7X4X6X0X4X6X4XP.4X6X3X8X6X6X8X6X~.6X4X4X9X6X).6XI.3X4X4X6X0X<X6X6X4X7X6X8X3X6X0X0X8X0X0X6X0X3X0X6X0X0Xa.6XqXqXqXqXqXqXqXqXqX",
"qXqXqXqXqXqXqXqXqX8XY.0X0X0X0X6X0X0X6X0X0X0X<X6X9X0X0X6X6X6X{.0X0XP.6X0X{.+X4X0X6X0X~.8X3X8X6XL.0XY.0X>X3X0X8X4X0X0X8X0X7X6X6X0X9X0X0X0X0X9X0X0X0X0X{.P.0X0X0X8X0X0X0X0X0X X0X0X8X5X6X_.0X0X0X>X+X9X-X0X0X0X{.9X6X8X&X5X5X+X0X6X0X0X6X7X0X0X3X0X3X6X6X6X6X0X4X6Xn.8X6X6X6X8X8X{.`.9X3X8X0X0X0X3X0X0X3X0X0XY.3X7X0X0X4X8X0X0X7X0X0X0X0X0X8X0X0X8X6XP.0X6XP.!.3X0X6XV.8X0X6X9X6X0X6X0X8X3X6X>X0X8X8X4X6X8X6X6X6X8X3X4X4X8X{.;X6X+X6X8X|.8X6X6XH.4X6X3X0X6X~.4X4X8X6X4X8X4X3X7X6X&X4X3X6Xd.6X8X5X6X8X4X0X>X0X_.0XqXqXqXqXqXqXqXqXqX",
"qXqXqXqXqXqXqXqXqX6X0X0X0X0X4X0X}.0X4X0X3X4X3X4X6X8X0X0X6X6X0X3X0X8X0X6X0X6X&X4X0X0X0XY.8X9X0X0X0X0X0X0X0X0X6X6X3X0X0X0X4X9X4X0X8X0X0X7X6X0XP.0X7X0X0X6X0X0X0X0X0X6X0X9X0X9X3X0XY.8X0X0X0X0X5X6X9XY.~.6X0X6X9X0X8X0X6X6X0X6X0X7X0X0X0X8X0X6X3X0X6X0X7X>X0X0X4X6X8X|.6X0X].0X0X9X6X0X7X0X0X3X3X0X5X;X|.0X0X0X6X3X0X3X0X5X0X6X0X0X0X6X0X7XP.6X3X|.0X0X8X8X0X0X0X0X0X8X6X3X7X6X0X6X0X6X4X6X6X3X8X6X5X6X0X~.0X0X3X*X8X8X4X4X6X4X&X6X8X6X6X6X8X4X6X8X0XQ.0X7X6XY.0X0X6XI.[.4X0X~.0X0X0X0X9X3X3X6X'.8X0X6X9X8X6X7X9XqXqXqXqXqXqXqXqXqX",
"qXqXqXqXqXqXqXqXqX0X0X0XY.P.4X0X8X4X8X0X{.6XL.7X0X X6X6X0X3X0XY.0X0X6X0X0X0X0X9X>X0X3X0X9X6X8X4X6X8X6X0XY.0X0X8X3X0X8X3X8X0X0X0X0X0XY.0X4X0X0X6X4X0X0X3X0X9X6X7X6X0X3X0X5X0X0X0X0X6XU.8X9X6X0X8X0X0X0X0X0X0X0X0X5X3X3X0XP.0X8X0X3X3X6X0X4X0X_.0X3X%X3X0X3X{.9X0X0X4X&X6X3X8X0X0X6X8X0X0X9X0X6X8X0X6X0X9X0XY.0X0X0X5X0X0X8X3X0X0X0X0X0X0X0X9X3X3X5X0XI.0X4X9X0X6X*X6X0X3X0X3X9X8X3X5X9X0X&X8X6X~.6X8X6X6XY.*X6X3X6X4X4X0X-X0X+.6X0X8X6X4X6X4X4X6X4X8X0X6X8X5X6XI.{.9X&X3X3X3X9X7X{.6X0XY.<X0X5X6X4X9X6X&X1X0XY.qXqXqXqXqXqXqXqXqX",
"qXqXqXqXqXqXqXqXqXqX0X0X3X4X0X0X5X0X0X6X6XU.0XR.Y.Y.0X0X@.8X6X0X6X8X5X6X8X6X6X0X0X0X9X8X0X0X0X0X0X0X0X0X0XP.&X9X0X0X0X0X0X0X6X0XY.5X6X;X8X0X8X6X0X0X0X3X0X0X6X0X0X0X0X0X0X0X0X0X{.0X_.3X9X0X6X0X0X0X3X9X6X3X0X3X0XY.6X5X0XY.0X9X&X5X0X0X8X8X0X6X0X0X0X8X>X6X7X0X6X0X0X8X{. X6X9X0X9X0X0X0X4X0XI.4X0X3X8X0X0X[.3X6X3X0X0X9X0X3X0X0X9X0X6X0XY.3X8X0X0X0X4X6X4X4X6X3X0X6X0X7X0X9X6X8X0X0X6X3X6X0X0X6X6X6X8X6X0X6X4X6X0X4X^.6X6XH.5X6X0X0X0X3X3X8X6X8X6X6X8X6X0X0X7X6X8X6X6X6X4X0X0X4X0X8X4X0X6X9X9X6X X3X8X6X0XqXqXqXqXqXqXqXqXqXqX",
"qXqXqXqXqXqXqXqXqXqX8X0X0X0X3X3X6X;X0X4X6X0X0X9X8X0X:X0X0X0X6X7X8X0X0X8X3X0X9X0X0X8X5X0X0X0X0X8X6X0X0X5X9X9X|.6X6X0X0X0X0X0XY.8X0XU.0X0X0X0X3X0X0X0X0X6X3X0X0X0X6X8X0X8X3X5XY.0X0X3X3X0X4X0X0X6X6X0X9X0X0X0X0X0X6X*X0X0X0X0X0X3X0X0X>X0X0X0X0X0X0X0X6X0X8X9X~.;X0X0X4X7X0X0X7X0X0X9X0X0X0X0X3X9X0X0X0X7X0X9X0X0X0X0X0X0X0X0X0X0X3X6X6X0X0X0X0X0X3X0X4X0X0XP.7X0X0X3X0X0X6X0X0X;X7X0XU.0X0X0X0X0X0X0X0X0X0X0X6X0X0X0X0X0X0X0X0X0X0X0X3X5X0X9X6X0X0X5XQ.9X0X0X9X0X0X0X0X8X0X0X>X0X0X0X4X0X0X0X0X8X&X0X3X0X1X0XqXqXqXqXqXqXqXqXqXqX",
"qXqXqXqXqXqXqXqXqXqXU.Y.4X0X7X0XU.9X0X0X3X3X0X6XoX0X0X3X6X0X0X0X3X0X0X6X7X5X9X0X0X>X0X9X<X0X0X0X3X;X7X0X0X0X{.0X0X0X0X0X0X0X0X4X0X0X0X0X0X3X0X:X0X0X3X7X0X0X0X3X6X9X0X0X0X0X6X0X3X6X0X8X0X0X0X0X0X6X6X7X0X8X6X0X9X3X3XY.j.0XY.0X0X0X0X8X9X0X0X4X7X0X0X0X X+X6X0X0X0X0X0X0X0X>X0X0X0X0X0X8X0X3X0X0X0X0X0X0X6X0X0X0X0X0X0X3X3X0X0XY.0X9X0X0X0X3X0X0X0X7X5X0X_.9X0X0X6X0X0X3X6X0X0X0X8X0X6X0X0X0X9X0X3X0X0X0X0X0X0X3X0X0X0X9X0X~.U.0X6X0X0X0X0X8X0X0X0X0X0X8X0X0XY.0X7X+X0X0X0X6X9X0X3X9X`.7X3X0X0X0X0X0X0X0X0XqXqXqXqXqXqXqXqXqXqX",
"qXqXqXqXqXqXqXqXqXqX0X0X9X9X|.0X0X3X0X0X0X8X<X6X0XY.6X0X0X9X0X0X0X0X0X0X(.6X0X0X6X3X0X0X0XU.3X3X9X0X7X@X3X3X6X6X0X_.0X4X8X0X0X8X0X0X0X0X4X7X3X8X0X3X7X9X0X#X0XY.6X0X0X0XU.+X+X0X8X0X0X9X0X0X0X0X0X0X0X0X0X0X6X0X0X9X0X0X6X0X0X9X0X6X3X6X6X0X{.0X0X*X+X0X X&X6X0X8X0X&X0X0X3X0X0X9X8X0X0X0X3X6X0X0X0X0X9X5X0X0X0X9X6X{.0X0X0X3X0X6X0X8X0X0X7X0X0X0X0X0X0X0X0X6X0X0X0X0X0X0X6X0X0X0X6X0X0X0X0X0X6X0X0X0X6X9X0X9X0X_.8X0X0X0X0X8X4X0X0X0X9X0X>X0X0X0X0X0X0X0X0X0X0X9X0X8X0XY.8X7X7X0X6X0X0X0X0X9X0X0X0X3X0X6X0XqXqXqXqXqXqXqXqXqXqX",
"qXqXqXqXqXqXqXqXqXqXqX3X0X0X0X0X6X0X9X0X8X5X&X0X0X9X0X0X0X0X8X3X0X0X0X0X0X0X0X3X3X0X0X0X0X&X6X3X0X7X&X0X6X0X9X3X0X_.0X0X0X3X0X9X0X0X0X0X0X0X0X0X+X4X3X0X9X7X0X3XoX0X0X0X4X0X8X0X0X0X7X3X0X0X_.0X0X9X0XU.0X0X0X0X6X6X0X6X7X0X9X0X0X0X0X0X0X5X0X0X9X0X0X3X0X0X0X0X6X3X0X0X0X0X0X0X0X3X9X8X0X0X0X0X0X0X0X0X1X9X0X6X0X0X8X0X8X6X*X0X0X0X0XY.0X9X0X0X0X5X8X0X6XY.3X0X9X0X0X8X6X0X6X0X9X3X&X6X0X8X0X9X9X0X0X0X8X0X0XY.0X9X6X6X0X0X0X0X0XL.9X9X0X0X0X0X4X>X6X0X0X0X6X6X0X0X6X6X0X&X5X3X0X9X0X0XL.0XU.#X0X8X0XU.0XqXqXqXqXqXqXqXqXqXqXqX",
"qXqXqXqXqXqXqXqXqXqXqX7X0X3X7X0X0X|.0X0X0X0X0X6X0X0X0X0X0X7X0X0X0X0X0X0X9X3X0X0X_.0X6X0X6X5X0X9X0X0X0X0X0X0X0X9X0X0X0X0X0X{._.0X0X5X&X0X0X9X0X0X0X0XU.0X0X0X0X0Xe.0X0X3X0X7X9X0X3X0X5X0X0X0X7X0XU.^.0X4X0X6X0X0X0X&X0X8X9X0X5X0X0X0X9X0X0X0X0X0X6X7X0X0X0X3X0X9X0X9X0X0X8XY.6X3X5X0X9X0X+X0X6X0XT.3X0X0X0X0X0X7X8X8X8X0X0X0X0X0X0X0X3X5X7X0X7X8X0X7X0X9XY.9XU.}.0X0X6X0X0X0X6X0X0X0X0X0X0X0XK.6XU.0X0X9X0X0X0X5X9X0X0X0X4X0X3X0X3X0X0X0X0X0X6X0X0X0X0X0X0X0X3X0X8X0X0X0X0X9X0X6X6X8X*X0X0X6X0X0X6X0X0X6X0XqXqXqXqXqXqXqXqXqXqXqX",
"qXqXqXqXqXqXqXqXqXqXqXY.0X7X9X0X8X0X0XY.0XY.0X0X0Xm.9X0X#X0X0X0X0X0X0X0X0X0X0X0X3X0X0X0XY.7X0X0X3X9X0X0X8X0X0X0X0X0X0X>X0X0X6X0X0X3X0X0X0X0X0X0X0X0X6X0X{.0X0X0X0X0X0X0X0X0X0X0X7X9X8X6X0X0X0X0X0X0X0X0X0X0X0X3X0X9X0X6X0X>X0X3X0X0X6X0X0X8X0X0X7X6X0X5X0XY.6X0X9X8X6X0X7X0X9XI.0X0X9X0X6X0X9X0X0X9X0X0X0X3X6X4X9X0X0X5X5X7X3X0XE.0X9X8X3X0X0X6X0X>X6X0X0X6X0X6XP.0X4X4X9X0X0X5X8X0X3X0X;X8X0X3X0X0X0X0X>X0X0X0X|.3X5X0X0X0X0X0X0X0X9X0X6X7X0X0X0X0X0X0X0X3X0X0X0X8X0X0X0X0X0X0X3X6X3X0X0XG.0X6X0X0X0X0X0XqXqXqXqXqXqXqXqXqXqXqX",
"qXqXqXqXqXqXqXqXqXqXqXqX0X0X3X0X5X0X{.0X0X0X7X6X8X0X0X8X0X0X0X0X6X*X0X3XK.3X0X0X9X0X0X9X0X0X|.6X0X0X0X0X0X8X8X0X4X0X0X0X0X0X0X0X8X0X0X6X9X0X8X0X6X3X0X0X0X7X0X9X6X+X8X0X3X0X0X6X0X0X0X0X0X6X0X4X6X6X0X0X0X0X0X0X>X0X0X4X0X0XY.0X0XU.3X0X3X0X0X0X8X0X7Xd.0X3X0X0X_.>X7X0X0X0X0X0X0X0X`.0X0X6X0X0X~.0X0X4X0X3X0X0X6X0X0X0X0X0X0X0X9X+X7X0X0X0X3X8X0X0XY.8X0X0X3X0X5X5X8X0X6X9X0X0X0X0X3X|.0X0X0X~.0X0X0X0X0X3X+XH.>X3X8X0X0X3X0X0X0X9X0X8X7X6XoX6X0X0X0X<X0X0X0X0X6X0X0X0X3X0X6X5X8X8X0X0X4X9X0X|.9X0X0X0XqXqXqXqXqXqXqXqXqXqXqXqX",
"qXqXqXqXqXqXqXqXqXqXqXqX0XY.0X0X8X6X3X9X0X0X0X0X0X7X X0X6X0X0X0X0X0X0X3X0X4X6X7X6X0X0X0X3X3X0X0X0X0X0X0X0X6X0X0X0X0X8X0X0X3X3X0X0X3X0X0X6X0X0X0X3X0X0X0X0X0X9X0X3X6X0X0X0X0X4X0X0X0X0X7X0X3X0X0X0X3X0X0X0X0X0X0X6X0X6X7X0X=X5X0X6X0X0X9X3X0X+XU.0X0X0X0X0X0X0XU.0X8X0X0X0X3X0X0X0X0X0X0X6X0X6X0X0X4X0X0X0X0XU.6X0X8X3X0X0X3X0X8X6X0X0X3X9X9XY.0X0X0X3X9X0X0X0X0X3X7X0X6X>X0X0X9X4X3XP.6X0XY.0X0X0X0XY.7X0X0X0X6X0X0X0X0X0X0X0X6X0X0X6X0X0X0X0X0X0X0XY.9X4X0X8X/.6XY.0X0X5X0X0X0X0X0X0X0X0X0X9X0X0X0X0X0XqXqXqXqXqXqXqXqXqXqXqXqX",
"qXqXqXqXqXqXqXqXqXqXqXqXqX0X0X0X0X0X0X0X0X0X0X0X3X0X0X9X0X0X0X0X0X+X0X0X0X6X0X0X0X0X0X0X0X0X0X0X>X8X0X0X0X3X3X6X9X6X0X0X0X0X,X0XY.0X0X0X3X0X3X7X0X0X7X0X0X0X0X0X0X0X0X0X&X9X9X6X6X0X>X0X9X0X0X0X3X3X0X0X0X8X0X0X0X0X7X6X8XU.6X0X3X3X6X0X0X0X9X0X0X6X7X{.0X0X0X0X0X9XY.7X0X3X0X8X0X8X0X0XT.9X0X0X0XY.0X5X0X0X3X6X,X0X8X0X0X0X0X0X0X0X3X0X8X4X4X0X0X0X0X0X0X,X+X6X0X0X0X0X0X6X8X0X0X0X9X3X0X8X3X0X3X6X0X0X6X0X0X0X0X0X0X0XP.0X0X6X;X0X9X0X6X0X0X0X0X0X0X0X0X0X0X0X8X0X6X0X0X9X7X3X_.9X0X0X&X9X3X0X0X0X3XqXqXqXqXqXqXqXqXqXqXqXqXqX",
"qXqXqXqXqXqXqXqXqXqXqXqXqX0X0X0X0X0X0X0X7X5X0X8X9XH.0X4X3X0X0X+X7X0X0X0X3X0X0X0X3XY.0X3X0X0X0X0X4X8X0X0X0X0X0X0X3X0X0X0X7X0X6X0X7X0X7X5X0X0X0X0X9X0X0X0X0X0X6X3X0X3X0X0X9X0X0X0X9X9X0X5X0X9X0X0X6X0X0X8XY.0X0X6X0X8X0X0X3X0X0X0X0X9X0X0X8X9X0X0X0X>X3XU.6X0X0X3X0X9X3X0X0X0X6X0X0X6X7X0X8X7X,X6XY.0X0X9X0X0X9XY.>X0X0X0X0X0X3X0X9X8X3X0X0X0X8X8X0X9X0X0X0X0X3X3X0X5X0X6X0X6X9X8X5X0X9X8X9X9X0X0X3X7X6X0X0X9X9X0X&X6X0X0X6X0X9X3X6X8X3X0X0X0X0X0X{.0X0X7X6X0X0X|.4X-X0X0X7X6X6X0X0X7X0X0X0X7X^.0X0X0X0XqXqXqXqXqXqXqXqXqXqXqXqXqX",
"qXqXqXqXqXqXqXqXqXqXqXqXqXqX0X3XY.9X6X0X0X0X0XP.0X6X9X6X3X0X0X0X0X8X0X9X0X0X0X7X0X0X0X8X6X8X3X9X6X8X0X0X|.0X7X0X8X3X5X0X0X6X0X5X0X0X0XY.0X0X0X0X6XP.3X0X0X0X0X0X0X0X0X0X0X0X8X0X7X3X0X6X0X0X5X0X0X+X6X6X7X0X0X0X9X~.0X8X0X8X4X0X3X0X3X0X>X0X3X0X0X0X0X6X0X3X0X0XoX0X0X0X0X0X3X0X9X0X6X0X0X8X0X0X6X6X6X0X0X0X9X0X0X8X0X6X0X0X0X3X0X3X3X0X0X0X0X0X6X8X3X6X8XY.9X7X0X9X0X0X0X6X0X0X3X0X0X6X&X3X0X0X>X0X0X0X0X6X0X9X0X0X0X0X6X3X9X0X0X0X8X0X0X{.|.0X9X0X0X+X0X0X0X0X6X0X5XK.0X3X0X0X0X6X0X3X6X6X0X0X0X8XqXqXqXqXqXqXqXqXqXqXqXqXqXqX",
"qXqXqXqXqXqXqXqXqXqXqXqXqXqX{.0X0X0X6X9X0X0X0X6X0X0X9X8X0XY.0X0X0X3X9X6X0X3X>X0X5X0X0X0X9X0X0X0X0X0X0X9X6X9X0X3X0X0X7X0X>X0X0X6X9X-X9X0X0X0X0X0X3X7X9X6X0X0X0X0X0X6X0X3XH.0X0X8X0X0X X0X5X4X9X0X0X0XK.3X0X6X0X0X0X5X0X0X9X0X4X8X6X0X0X6X0X3X0X0X3X0X0X6X5X0X0X5X6X~.0X0X3X8X0X0X0X0X0X9X9X0X0X9X0X0X0X0X0X_.0X0X6X0X0X3X0X9X0X6X0X&X0X8X>X0X0XP.9X0X0X5X9X3X0X|.0X0X0X0X6X0X0X>X8X0X0X0X0X>X7X9X8X0X0X6X7X0X6X9X5X0X0X0X7X0X0X0X0X0X8X0X0X9X0X&X3XP.|.6X|.0X0X0X0X0X0X8X9X6X0XY.7X0X0X0X0X0X0X0X0X0XqXqXqXqXqXqXqXqXqXqXqXqXqXqX",
"qXqXqXqXqXqXqXqXqXqXqXqXqXqXqX0X0X7X0X8X9X6X9X0X&X0X9X0X0X6X0X9X0X0X0X6X8X3X0X0X0X0X0X0X6X0X3X0X0X0X0X0X0X0X0X0X0X0X0X5X1X0X0X5X0X0X8X`.0X9X0X0X6XU.0X0X0X0X0X0X0X0X6X6X0X0X0X6X0X0X0X0X0X0X0X0X0X0X6X8X0X0X0X0X3X0X0X0X0X0X,X3X0X9X0XY.0X6X0X0X0X9XY.0X9X0X0X6X~.0X0X0X X0X0X6X0X8X0X0X8X0X9X0X7X7X0X0X0X9X0X9X0X0X5X0X5X0X0X6X0X9XP.0X0X0X0X0X0X0X0X0X0X9X7X9X0X0X6X4X6X0X0X3X6X0X7X0X0X0X3X3X>X9X0X0X0X9X0X0X6X0X0X0X0X0X0X6X6X9X7XD.0X9XH.6X0X8X0X0X0X5X6X0X9X6XY.3X3X0X0X0X0X0X6X0X0X8X0X0X0XqXqXqXqXqXqXqXqXqXqXqXqXqXqXqX",
"qXqXqXqXqXqXqXqXqXqXqXqXqXqXqX0X&X0X0X9X0X0X0X6X0X0X0X0X5X0X8X>X0X0X0X0X0X0XoX0X0X8X0X0X0X_.6X+X3X0X0X0X0X0X0X9X6X9X3X6X0X3X0X6X0X0X0X0X0X0X0X0X3X0X6X0X0X9X0X0X0X0X0X0X0X0X0X0X0X0X0X0X0X0X0X0X9X0X0X0X0X5X0X0X0X0X0X0X3X0X8X9X7X0X4X0X9X0X0X0XY.9X0X3X0X0X0X0X0X0X9X0XM.0X0X0X0X0X0X0X6X8X9X0X6X0X_.0X0X0X6X0X0X6X0X0X0X0X0X3X0X9X0X<X0X0X3X9X0X0X0X8X0X3X3X7X9X0XY.6X0X0X6X9X8X3X0X0X0X0X0X9X0X0X6X0X0X9X9X0X6X0X0X8X8X6X9X0X0X>X3X0X0X0X3X0X`.6X6XL.6XP.0X0X6X0X6X0X0X0X1X0XU.0X0X0X6X0X6X0X0XqXqXqXqXqXqXqXqXqXqXqXqXqXqXqX",
"qXqXqXqXqXqXqXqXqXqXqXqXqXqXqXqX0X3X0X0X0X6X6X>X0X0X0X0X0X0X6X0X6X0X0X8X9X,X6X0X0X0X0XY.0X0X3X0X6X_.9X0X0X0X0X7X0X0X0X9X0X0X9X0X8X0X5X6X6X0X7X5X0X0X0X0X3X3X0X0X0X6X0X7X0X0X6X3X6X0X0X0X0X0X6X8X0X9X0X0X0X0X>X8X9X3X7X8X4XU.9X0X0X0X0X0X0X0X0X0X0X0X^.0X8X0X0X0X0X0X0X9X+X0X9X6X0X6X0X+X0X3XY.0X8X0X0X0X0X0X0X9X6X0X0X0X0X0X9X8X0X0X0X7X3X0X1XoX0X0X0X0X9X>X4X0X0X7X&X0X0X6X0X3X0X>X0X8X).0X0X0X4X0X0X7X9X3X0X9X5X0X0X0X0X4X0X6X0X0X0XU.0X0X0X0X7X0X0X8X|.0X0X0X&X3X0X5X0X>X3XY.0X0X0XY.0X5X0X0XqXqXqXqXqXqXqXqXqXqXqXqXqXqXqXqX",
"qXqXqXqXqXqXqXqXqXqXqXqXqXqXqXqX0X0X0X0X0X0X|.3X5X3X0X0X0X0X0X{.4X0X0X0X0X0X7X3X6X0X0X0X0X0X0X0X0X8X0X9X0X6X6X0XK.0X0X:X1X0X6X0X0X0X3X0X9X0X0X6X0X8X0X9X9X0X3X0X8X5X3X8X0X6X0X6X6X0X0X0X9X0X0X0X6X0X9X7X#X8X0X6X0X0X0X0X0X6X0X9X0X~.&X3X:X0X0X0X6X8X0X0X5X8X3X0X0X5X5X0X0XI.0X0X6X0X0X0X0X+X0X0X3X0X8X4X0X6X6XK.0X0X0X0X9X0X6X0X5X9X0X9X9X0X6X0X4X0X0X0X0X0X0X0X0X7X0X0X0X0X+X0X0X1X6X X9X0X0X0X0X>X3X0X0X0X3X0X0X*X|.0X0X8X0X9X0X0X6XY.3X0X0X0X8X0X6X7X0X0X0X0X0X0X0X0X0X0X0X0X+X0X9X5X0X0X5X3XqXqXqXqXqXqXqXqXqXqXqXqXqXqXqXqX",
"qXqXqXqXqXqXqXqXqXqXqXqXqXqXqXqXqX*X0X8X7X0XY.0X0X0X0X0X0X3X5X3X0X>X0X0X5X0X9X0X6X6X7X0X0X0X0X0X<X0X0XU.0X6X0X4X0X6X0X0X0X0X0X0X0X3X6X9X>X0X0X0X0X~.3X0X0X0X9X6X6X0XH.Y.3XY.5X0X0X0X0X0X0X4X0X0X0X0X0X7X0X:X0X0XQ.0X0X0X0X0X0X~.9X5X7X0X9X0X0XY.0X0X7X0X0X3X3X3X0X0X0X8X>X3X6X7X0X0X0X5X0X0X0X0X0X0X0XY.<X9X0X0X0X0X0X0X0XY.9X0X0X0X6X0X0X9X4X0X0X0X*X0X0X3X0X6X6X7X+X0X8X3X0X0X0X3X6X0X3X0XY.9X9X0X0X6X5X0X3X0X9X0X9X0X3X0X0X7X5X9X6X6X0X0X0X0X0X0X0X0X6X0X0X0X0X>X0X6X7X0X0X0X0X2X0X=X0X0X0XqXqXqXqXqXqXqXqXqXqXqXqXqXqXqXqXqX",
"qXqXqXqXqXqXqXqXqXqXqXqXqXqXqXqXqXqX0X0X7X0X0X0X9X0X0X0X3X8X0X7X0X9X0X0X_.3X0X6X3X0X7X0X0X0X0X5X0X0X8X0X0X0X0X0X6X7X0X0X0X0X0X0X0X0X8X8X6X0X0X9X0XY.0X8X0X9X0X6X8X0X0X0X6X0X0X0X0X0X0X0X0X0X{.0X8X6X0X0X9X0X3X0X0X>X0X5X0X0X0X3X>X0X0X3X0X0X7X0X3X6X0X0X9XY.Y.0X>X0X0X0X0X0X0X0X0X0X8X0X0X0X0X3X6X0X0X:X8X0X0X0X0X0X0X0X0X0X4X8X~.3X0X0X8X8X0X6X0X0X0X0X0X0X0X7X8X0X9X3X0X6X0X0X6X8X0X0X0X6X0X0X0X0X3X0X0X0X0X0X0X0X&X5X0X0X5X0X6X0X0X0XY.0X0X9XU.0X0X0X6X0X0X0X3X0X0X0X3X0X0X0X5X0X8X0X3X XqXqXqXqXqXqXqXqXqXqXqXqXqXqXqXqXqXqX",
"qXqXqXqXqXqXqXqXqXqXqXqXqXqXqXqXqXqX0X0X7X6X5X0X0X0X0X0X6X7X0X8X3X0X0X0X4X0X0X0X0X0X9X0X0X3X0X0X&X0X0X9X0X0X0X9X0X0X0X0X0X3X0X5X0X8X0X0X0X7X).0X0X0X0X0X3X0X0X0X0X0X0X0X3X0X0X0X0X3X0X0X0X0X3X3X0X0X0X6X0X0X0X0X0X0X7X3X0X9X0X0X0X0X0X5X0X9X0X7X0X0X0X0X6X0X0X5X6X0X0X0X0X0X5X0X0X0X0X0X5X8X0X0X0X0X`.$X5X0XY.0X4X6X1X0X0X0X0X0X0X5X0X0X-X3X6X0X0X4X0X0X0X0X0X0X0X9X0X9X0X0X0X9X0X0X0X6X0X0X0X0X6X0X0X0X9X0X&X8X4X0X0X6X0X0X0X6X7X0X0X6X0X0X7X0X8X0X0X6X0X0X0X0X0X0X8X(.6X0X9X0X0X0X7X0X0X7XqXqXqXqXqXqXqXqXqXqXqXqXqXqXqXqXqXqX",
"qXqXqXqXqXqXqXqXqXqXqXqXqXqXqXqXqXqXqX0X7X5X0X0X0X9X0X>X0X0X9X4X8X0X0X0X4X0X0X3X0X0X0X0XY.6X7X0X9X0X0X_.3X0X0X0X0X0X0X_.~.0XP.0X0X0X9X0X3X6X7X6X0X0X0X4X9X0X0X8X>X0X9XL.0X0X0X0X0X0X0X0X3X0XQ.0X0X0X9X0XL.0X9X8X0X0X0X3X0X0X0X].0X5XY.0X0X4X0X0X8X0X0X0X+XT.3X0X0X+X#X0X6X0X0X3X0X6X0X0X0X6X0X0X0X3X0X0X0X6X0X5X8X9X0X0X0X5X3X8X0X0X9X0X0X9X0X0X0X0X0X0X0X0X0X8X0X0X0X0X0XH.0X0X0X8X6X0X6X0X0X0X0X0X0X0X0X0X`.0X0X0X0X0X0X0X4X+X6X~.8X9X6X0X3X8X7X0X3X0X0X3X(.0X3X0X0X0X7X0X6X0X0X0X0X0X0XqXqXqXqXqXqXqXqXqXqXqXqXqXqXqXqXqXqXqX",
"qXqXqXqXqXqXqXqXqXqXqXqXqXqXqXqXqXqXqXqX0X0X9X0X0X7X0X3X0X9X6X0X0X0X0X0X6X0X0X9X0X0X0X6XY.6X0X0X0X0X9X0X0X0X0X0X0X3X0X0X5X0X0X0X0X0X0X0X0X~.0X0X0X0X0X0X0X0X0X0X9X0X0X8X0X0X0X0X0X0X0X8X0X6X0X0X0X8X8X9X0X0X0X0X0X0X8XL.0X8X0X9X0X+X0X0X7X{.0X0X0X0X0X0X0X0X-X+X0X3X0X0XU.0X0X9X0X0X3X6X0X8X0X4X6X0X0X6X{.U.0X0X0X5X0X8X3X0X8X0X0X0X0X0X5X0X0X6X_.3X6X0X3X6X0X0X0X6X_.8X0X0X6X0X0X0X0X7X8X3X0X0X0X0X0X0X0X0X0X+X_.0X0X*X9X7X0X6X3X0X0X8X6X0X0X0X6X0X3X8X0X0X0X8X4X4X>X0X4X0X0X0X9X0X9X0XqXqXqXqXqXqXqXqXqXqXqXqXqXqXqXqXqXqXqXqX",
"qXqXqXqXqXqXqXqXqXqXqXqXqXqXqXqXqXqXqXqX0X0X{.0X0X0X0X0X0X0X9X0X0X0X0X0X0X0X8X~.8X_.0X*X6X3X0X0X8X0X7X0X0X0X>X6X0X0X0X>X6X0X0X0X0X0X0X6X0X0X0X0X6X0X6X0X0X3X0X6X6X0X3X0X0X8X0X0X0X5X8X0X0X9X0X6X9XI.6X4X0X9X0X0X0X9X0X9X0X0X6X5X0X6X6X9X9X4X0X8X0X0X4X8X0X0X8X0X0X3X3X0X8X0X0X0X0X0X_.9X0X0X0X0X0X0X8X0X3X9X0X9X4X9X0X+X0X8XL.0X6X0X0X7X0X0X~.0X0X9X0X0X6X0X0X0X0X9X0X0X0XY.0X0X5X3X0X8X3X4X0X0X0X0X0X6X3X0X0X0X0X0X3X0X0X0X0X0X0X0X9X0X0X0X0X0X7X{.0X0X9X0X0X4X0X0X0X0X0X0Xc.I.3X8X8X0XqXqXqXqXqXqXqXqXqXqXqXqXqXqXqXqXqXqXqXqX",
"qXqXqXqXqXqXqXqXqXqXqXqXqXqXqXqXqXqXqXqXqX6X7X0X`.5X6X0X7X0X6X8X0X3X0X0X0X0X0X0X0X0X0X0X0X0X6X0X0X6X0X0X6X0X0X~.0X0X0X{.0X4X0XH.0X0X0X0X6X0X0X0X0Xe.0X0X5X0X0X0X0X0X>X0X4X0X6X7X8X0X0X0X4X1X0X0X0X5X8X0X0X6X0X3X0XP.8X8X0X0X0X1X7X6X5X4X0X0X0XY.8X0X0X>X0X0XU.0X0X0X6X0X;X6X7X3X0X0X0X).5X3X0X4X0X0X{.0X8X9X0X0X6X0X3X0X0X9X0X0X0X0X~.0X0X6X0X9X0X3X_.0X7X0X0X0X0X8X0X0X8X7X5X0X0X0XP.0X@X0X>X3XP.0X0X0X3X6X0X0X+X0X8X6X9X6X9X4X0X0X3X0X0X0X0X0X8X5X0X6X0X0X0X0X7X0X6X0X0X0X0X0X9X0X0XqXqXqXqXqXqXqXqXqXqXqXqXqXqXqXqXqXqXqXqXqX",
"qXqXqXqXqXqXqXqXqXqXqXqXqXqXqXqXqXqXqXqXqXqX0X0X0X6X7X4X0X0X5X0X0X0X0XY.0X0X0X0X0X0X0X0X0X0X5X0X0X0X0X9X7X7X0X0X0X0X8X0X6XS.0X0X0X0X0X0X0X6X6X3X6X_.7X5X0X3X0X0X0X0X0X5X0X).8X0X8X0X3X~.0X9X4X8X0X0X6X6X0X0X9X3X0X6X5X0X0X0X{.0X0X9X0X0X0X0X0X0X0X0X0X0X0X0X>X0X0X0X0X0X0X0X0X0X0X0X0X0X8X4X0X0X0X0X0X0X0X0XK.0X0X6X0X0X0X6X0X0X4X3X0X0X6X0X0X0X0X9X0X0X0X0X0X0X0X3X0X6X0X0X0X7X0X8X0X0X7XL.0X0X0X0X0X0X8X0X0X0X0X0X0X0X_.0X0X0X6X0X0X0X0X6X0X0X9X0X0X6X0X0X0X6X0X0X0X0X0X8X0X8X6X6XqXqXqXqXqXqXqXqXqXqXqXqXqXqXqXqXqXqXqXqXqXqX",
"qXqXqXqXqXqXqXqXqXqXqXqXqXqXqXqXqXqXqXqXqXqXqX0X0X0X3X_.0X0X0X0X9X0X0X6X0X3X0X0X7X0X0X1X0X0X0X0X6X9X0X_.8X0X>X0X0XL.8X9X9X4X9X0X6X0XU.0X6X9X0X0X0X0X9X+X6X6X3X0X0X3X0X6X3XP.0X3X0X0X0X9X0X0X0X0X0X8X0X0X0X0X>X0X4X6X|.0XU.3X9X6X0XP.0X4X0X8X0X8X0X6X0X0X0X0X0X0X0X0X0X8X0X6X0X0X8X0X0X0X9X>X0XL.6X0X>X0X0X0X9X0X3X0X0X9X0X9X0X`.0X0X4X0X0X0X0X0X6X0X0X0X6X0X0X0X0X0X0X3X0X0X8X0X6X0X0X8X0X0X X7X9X0X3X0X0X0X0X0X0X0X9X6X0X8X6X0X5X0X0X0X0X0X0X0X0X0X0X0X8X4X7X7X0X0X0X0X0X3X0X3X0XqXqXqXqXqXqXqXqXqXqXqXqXqXqXqXqXqXqXqXqXqXqXqX",
"qXqXqXqXqXqXqXqXqXqXqXqXqXqXqXqXqXqXqXqXqXqXqXqX0X0X0X0X0X0X{. X0X0X0X6X0X0X0X0X0X0X3X6X0X9X6X0X0X0X0X0X6X4X9X0X{.0X9X8X0X8X8X0X6X0X9X0X0X3X3X0X0X0X0X0X7X0X0X8X0X0X7X0X7X0X0X0X8X0X0X>X9X0X0X6X3X0X0X0X0X0X0X0X6X0X0X0X~.0X0X0X0X0X5X0X0X3X0X6X0X0X9X0X0X0X9X7X6X0X0X0X0X5X0X3X7X0X0X8X0X8X0X5X0X8X0X5X8X0X0X4X3X3X0X0X0X0X0X0X0X7X0X0X3X0X0X0X0X0X0X0X0X9X6X0X0X0X0X0X0X0X0X0X9X6X0X9X0X0X0X0X0X0X0X0X6X0X0X8X6X0X0X0X0XW.7X4X0X0X{.8X0X0X0X0XH.0X<X0X0X0X0X0X0X0X0X0X|.+X5X0XqXqXqXqXqXqXqXqXqXqXqXqXqXqXqXqXqXqXqXqXqXqXqXqX",
"qXqXqXqXqXqXqXqXqXqXqXqXqXqXqXqXqXqXqXqXqXqXqXqXqX6X0X3X0X9X0X0X0X8X0X0X0X0X0X0X0X0X0X0X0X0X0X0X0X0X0X0X3X0X0X+X0X0X0X*X6X0X0X9X0X5X6X0X4X0X0X6X3X0X0X0X7X0X3X0X0X8X0X0X0X0XU.0X0X0X3X9X4X6X0X0X0X9X0X0X0X0X0X0X0X0X0X0X0X0X0X5X0X3X0X6X0X0X0X6X0X0X0X3X6X6X0X0XOX0XU.0X3X3X0X0X0X0X0X0X0X0X0X9X7X5X9X{.0X0X9X0X0X0X0X0X0X0X5X0X0X6X0X0X0X0X0X5X6X0X0X0XY.8X0X0X0X0X3X0X0X0X8X5X0X0X5X0X0X6X0X5X0X0X0X0X0X0X0X0X8X7X9X0X9X0XY.3X9X6X3X0X0X0X>X0X8X6X0X0X6X0X9X9X>X9X0XU.3X9X3XqXqXqXqXqXqXqXqXqXqXqXqXqXqXqXqXqXqXqXqXqXqXqXqXqX",
"qXqXqXqXqXqXqXqXqXqXqXqXqXqXqXqXqXqXqXqXqXqXqXqXqXqX0X_.0X6X0X3X0X0X0X0X0X0X0X0XU.0X0X0X8X6X0X0X5X7X0X0X8X7X0X6X0X0X6X0X0X0X0X0X0X0X8X6X6X3X0X0X0X7X0X0X0X0X0X0X0X6X,X0X8X6X6X0X9X9X8X0X0X0X0X0X0X8X+X8X0X3X8X0X0X9X0X0X0X0X3X>X0X5X0X0X0X0X0X5X0X0X0X0X0X:X0X0X0X0X0X6X0X9X0X0X0X0X6X0X0X9XOX0X0X8X0X_.0X6XU.0X5X0X0X5X0X0X0X0X6X0X0X0X0X0X0X0X0XY.0X0X0X8X0X0X0X~.4X0X0X0X9X0X9X0X8X0X0X0X0X0X0X0X9X$X0X X6X3X9X8X6X0X0X0X0X5X0X0X0X0X4X9X0X8X0X4X7X0X0X5X0X0X6X&X|.9X~.0XqXqXqXqXqXqXqXqXqXqXqXqXqXqXqXqXqXqXqXqXqXqXqXqXqXqX",
"qXqXqXqXqXqXqXqXqXqXqXqXqXqXqXqXqXqXqXqXqXqXqXqXqXqXqX0X0X0X0X0X6X5X0X0X0X6X3X0X0X0X9X0X0X9X8XI.0X0X8X0X0X0X7X0X0X0X0X6X0X6X0X0X0X3X0X0X0X0X0X6X3X4X0X9X0X0X7X0X3X0XY.0X0X0X0X0X3X0X0X6X6X6X3X0X0X0X3X0X0X7X5X0X+X0X0X7X0X0X0X0X0X0X9X6X6X0X0X6X0X>X5X0X0X0X0X0X0X7X0X6X0X0X0X0X0X0X6X0X0X6X0X>X5X0X0X>X0X9X-X0X0X0X0X0X3X6X3X0X6X8X0X0X0X9X>X0X0X6X0X0X0X3X0X0X0X0X_.0X9X0X0X+.3XY.0X0X5X/.9X0X0X4X0X0X6X0X0X6X0X8X0X0X0X0X9X0X0X0X0X3X0X0X0X0X7X9X0X3X9X{.0X0X0X9X3X6X0XqXqXqXqXqXqXqXqXqXqXqXqXqXqXqXqXqXqXqXqXqXqXqXqXqXqXqX",
"qXqXqXqXqXqXqXqXqXqXqXqXqXqXqXqXqXqXqXqXqXqXqXqXqXqXqXqX0X5X0X6X0X_.0X0X0X0X0X8X7X0X0X3X8X0X0X0X0X0X3X0X0XU.9X0X0X0X0X0X0X0X0X3XU.9X6X8X0X0X0X6X3X0X9X0X8X-X8X0X0X7XU.7X+X0X0X0XY.0X6X3X3X0X3X7X3X3X0X3X0X0X0X8X0X0X0X0X0X0X6X5X0X0X0X0X0X0X0X0X0X0X3X0X0X6X0X6X0X0X0X8X3X0X0X0X0X0X0X0X0X0X7X8X0X0X3X4X6X0X0X8X0X3X0X0X0X0X0X0X0X0X0X0X9X9X0X0X0X0X7X0X8X6X0X6X0XY.8X3X0X0X&X0X0X0X0X0X0X0X0XY.6X0X0X6X0X7X0X_.8X0X0X0X0X3X0X8X0X0X0X9X0X6X4X0X0X0X0X6X0X0X0X0XY.0X9XY.qXqXqXqXqXqXqXqXqXqXqXqXqXqXqXqXqXqXqXqXqXqXqXqXqXqXqXqX",
"qXqXqXqXqXqXqXqXqXqXqXqXqXqXqXqXqXqXqXqXqXqXqXqXqXqXqXqXqX0X6X0X0X0X3X7X0X0X0X0X0X0X0X0X0X8X6X0X0X0X X0X0X0X0X0X0X6X6X3X9X0X0X3X|.6X0X0X6X0X6X0X0X9X0X3X0X0X0X0X4X0X0X0X0X0X0X6X0X0XP.0X0X0X7X0X6X>X0X0X3X9X0X9X{.5X3X6X0X0X0X0X0X0X0X0X3X0X3X9X7X5X0X0X0X9X0X9X0X5X0X0X0X@X0X0X+X0X0X0X6X6X9X5X3X3X0X0X0X0X8X0X8X0X0X0X0X8X7X5X0X0X3X0X6X3X0X0X0X0X0X0X7X0X8X0X5X0X>X0X0X0X6X0X6X9X6X0X<X0X}.0X0X0X0X3X0X0X0X6X0X0X0XU.0X0X5X0X8X0X0X0X0X0X8X0X3X6X0X0X0X0X8X0X0X0X0XqXqXqXqXqXqXqXqXqXqXqXqXqXqXqXqXqXqXqXqXqXqXqXqXqXqXqXqXqX",
"qXqXqXqXqXqXqXqXqXqXqXqXqXqXqXqXqXqXqXqXqXqXqXqXqXqXqXqXqXqX3X0X0X9X0X0X0X0X0XY.0X9X8X0X0X0X0X0X~.0X0X0X0X0X0X0X0X0X0XS.0X8X6X0X4X0X0X0X7X5X0X0X0X0X0X0X0X>X0X9X0X0X{.U.3X0X0X0X0X0X0X0XU.0X_.0X0X0X0X0X0X0X9X0X0X7X3X8X0X0X7X,X0X0X0X0X9X0X6X0X0X8X0X0X8X0X6X0X0X0X6X>X9X6X0X0X0X6X0X0X9X5X0X0X7X3X0X0X0X0X6X0X0X5X3X0X0X4X3X0X8X0X0X3X6X7X0X0X8X0X0X5X9X0X0X3X3X2XY.8X9X0X0X0X3X6X0X9X9X0X0X9X0X0X0X0XY.8Xn.0X0X6X7X0X0X6X0X>X0X0X0X-X6X0X0X9X6X9X0X0X3X9X0X0X0XY.qXqXqXqXqXqXqXqXqXqXqXqXqXqXqXqXqXqXqXqXqXqXqXqXqXqXqXqXqXqX",
"qXqXqXqXqXqXqXqXqXqXqXqXqXqXqXqXqXqXqXqXqXqXqXqXqXqXqXqXqXqXqXqX0X0X9X0X7X0X0XY.0X0X0X0X0X0X0X8X0X0X9X0X0X0X0X{.0X0X0X0X0X0X9X0X0X4X9X3X0X0X0X0X0X9X0X6X0X0X6X0X0X0X8XW.3X0X3X0X0X7X9X0XY.>X0X0X7X8X0X0X0X0X0X5X0X0X0X8X0X0X0X0X0X0X0X0X5X0X0X0X_.0X0X0X0X0X6X9X0X0X0X8X0X0X0X6X9X0X0X0X7X0X0X0X3X0X0X&X7X0X0X0X9X3X0X6X0X4X0X0X0X0X&X0X9X9X0X0X0X0X0X0X0X0X0X0X0X0X8X1X0X0X9X0X0X0X+X0X0X0X8X5X;X8X0X6X3X0X0X0X3X0X3X3X0X0X0X0X3X0X0X0X0X0X0X6X0X4X0X6X0X0X3X0XqXqXqXqXqXqXqXqXqXqXqXqXqXqXqXqXqXqXqXqXqXqXqXqXqXqXqXqXqXqXqXqX",
"qXqXqXqXqXqXqXqXqXqXqXqXqXqXqXqXqXqXqXqXqXqXqXqXqXqXqXqXqXqXqXqXqX5X0X0X7X0X0X0X3X0X0X8X3X0X>X0X0XY.0X0X).3X0XP.9X9X0X0XY.0X0X0XN.6X0X0X0X0X0X6X0X0X9X7X0X0X0X9X8X6X0X0X0X0X0X7X8X:X0X3X+X0X0X6X6X0X3X0X0X0X0X0X0X0X0X0X|.0X0X0X0X0X0X0X0X0X6X3X6X0X3X0X5X0X0X9X0X5X6X0X3X0X&X_.0X0X7X0X0X0X0X0X6X0X0X0X0X0X0XU.0X0X0X9X0X0X0X6X+X0X6X0X6X0X&X0X3X7X9X6X9X0X3X>X0X0XS.0X0X1X8X0X0X0X#X0X0X0X8XY.>X0X3X0X+X8X0X>X3X0X0X0X0X0X6X9X0X0X0X0X0X0X0X9X0X0X0X0X0X0X&XqXqXqXqXqXqXqXqXqXqXqXqXqXqXqXqXqXqXqXqXqXqXqXqXqXqXqXqXqXqXqXqXqX",
"qXqXqXqXqXqXqXqXqXqXqXqXqXqXqXqXqXqXqXqXqXqXqXqXqXqXqXqXqXqXqXqXqXqXqX0X0X0X0X5X0X0X6X0X9X0X0X0X0X5X0XY.0X0X0X0X0X9X0X0X+X0X0X9X0X6X&X0XY.0X0X0X8X0X3X0X0XY.0X0X0X9X6X0X0X0X3X0Xc.0X0X0X0X6X0X0X~.0X0X0X3X7X9X0X0X0X0X0XY.0X0X0X0X0X0X8X0X0X0X{.0X0X0X6X0X0X6X0X4X0X0X0X6X0X0X0X0X0X0X0X0X0X0X0X0X0X0X6X3X9X0X5X0X9X9X0X0X4XL.0X0X0X0X0XL.0X-X0X0X0X0X5X0X0X8X0X0X0X6X0X0X0X0X0X0X;X4X3X0X9X0X0X0X0X0X9X0X0X0X0X0X5X9X0X0X0X0X0X0X0X5X0X3X0X3X3X0X0X6X0X0XqXqXqXqXqXqXqXqXqXqXqXqXqXqXqXqXqXqXqXqXqXqXqXqXqXqXqXqXqXqXqXqXqXqXqX",
"qXqXqXqXqXqXqXqXqXqXqXqXqXqXqXqXqXqXqXqXqXqXqXqXqXqXqXqXqXqXqXqXqXqXqXqX0X6X6X0X0X0X0X0XI.7X0X0X0X0X0X0X0X0X0X9X9X0X0X7X0X0X0X0X0X0X6X0X0X0X6X0X4X7X7X6X0X6X0X7X0X0X0X0X0X4X0X0X0X7X8X0X5X6X7X6X3X0X&X0X0X3X6X0X4XY.6X8X0X6X*X6X}.5X3X0X0X0X9X0X0XU.0X0X0X0X6X0X6X0X0X0X0X0X0X5X6X0X0X0X0X0X0X0X0X0X9X0X6X0X3X6X0X3X5X5X8X0X0X8X0X0X|.0X0X0X0X&X0X0X0X0X0X3X0X0X0X0X0X0X0X0X0X0X0X0X0X5X0X0X0XY.0X0X8X6X0X0X0X0X7X0X6X6X0X7X6X6X0X0X9X0X3X8X0X0X0X0X0X0XqXqXqXqXqXqXqXqXqXqXqXqXqXqXqXqXqXqXqXqXqXqXqXqXqXqXqXqXqXqXqXqXqXqXqXqX",
"qXqXqXqXqXqXqXqXqXqXqXqXqXqXqXqXqXqXqXqXqXqXqXqXqXqXqXqXqXqXqXqXqXqXqXqXqXqX3X0X0X(.0X0X0X0X6XS.9X0X0X0X0X0X0XU.6X0X8X{.0X0X0X0X0X0X0X9XU.8X0X0X0X0X0X0X0X6X0X0X5X0X5X3X8X9X3X6X0X0X7X{.0X0X0X0XY.U.V.6X9X6X<X0X6X0X0X6X0X6X0X0XU.0X0X0X0X8X8X0X0X9X0X0X7X3XY.U.6X0X0X0X8X0X5X7X0X0X3X0X0X6X0X7X0XP.0X0X$X6X0X5X0X3X0X7X0X6X6X0X0X&X8X5X0X7X0X9X6X0X0X0X0X9X8X8X0XY.0X0X0X7X0X0X0XY.0X7X0X6X0X8X7XY.0X0X6X^.0X0X_.0X8X0X0X0X0X8X0XY.3X0X9X0X6X0X3X0XqXqXqXqXqXqXqXqXqXqXqXqXqXqXqXqXqXqXqXqXqXqXqXqXqXqXqXqXqXqXqXqXqXqXqXqXqXqX",
"qXqXqXqXqXqXqXqXqXqXqXqXqXqXqXqXqXqXqXqXqXqXqXqXqXqXqXqXqXqXqXqXqXqXqXqXqXqXqXqX7X0X0XY.0X0X0X0X0X0X6X0X+X0X0X0X0X0X0X9X0X0X7X3X0X0X6X0X0X4X0X0X&X0X3X0X0X0X0X9X0X5X0X0X0X8X0X0X$X0X4X7X9X0X0X6XU.Y.0X0X0X7X0X0X0X0X0X0X3X0X0X6X0X7X].0X9X0X8XY.0X9X0X6X9X0X0X0X,X0X|.7X4X4X0X0X6X7X0X0X0X6X3X0X0XU.~.0X9X0X3X0X6X0X6X0X0X0X0X0X6X0X0X0X6X7XY.8X X8X9X0X3X3X3X6X0X0X0X0X0X9X0X6X0X0X9X0X8X0X0X0X0X3X0X0XU.<X0X0X0X0X0X0XY.0X X9X3X0X0X0X8X6X6X9XqXqXqXqXqXqXqXqXqXqXqXqXqXqXqXqXqXqXqXqXqXqXqXqXqXqXqXqXqXqXqXqXqXqXqXqXqXqXqXqX",
"qXqXqXqXqXqXqXqXqXqXqXqXqXqXqXqXqXqXqXqXqXqXqXqXqXqXqXqXqXqXqXqXqXqXqXqXqXqXqXqXqXqX0X0XL.0X0X0X0X0X0X{.>X0X0X0X0X0X0X0X3X0X0X7X0X0X0X9X0X0X7X0X0X0X0X0X0X0X5X0X0X0X0X0X0X2X3X0X8X0X3X0X0X0X0X6X9X0X0X0X+X6X0X{.0X9X8X9X0X0X0X0X_.6X0X|.0X0X3X-X0X0X6X0X0X0X7X0X0X0X0X3X0X0X0X6X7X0X9X0X0X0X0X9X0X6X0X0X6X0X$XU.0X0X4X0X0X0X6X0X5X0X0X0X0X0X0X5X0X0X0X~.0X0X0X0X0X0X0X9X0X6X0X0X0X0X0X7X0X<X0X0X7X0X0X0X0X0X0X0X0X0XOX0X0X8X0X0X0X0X0X0X0X0XqXqXqXqXqXqXqXqXqXqXqXqXqXqXqXqXqXqXqXqXqXqXqXqXqXqXqXqXqXqXqXqXqXqXqXqXqXqXqXqXqXqX",
"qXqXqXqXqXqXqXqXqXqXqXqXqXqXqXqXqXqXqXqXqXqXqXqXqXqXqXqXqXqXqXqXqXqXqXqXqXqXqXqXqXqXqXqX8X4X0X5X8X5XY.0X0XK.0X8X6X0X6X0X4X0X0X9X0X0X4X5X0X0XY.3X9X0X0X6X0X6X0X0X0X9X0X9X0X0X0X3X0X0X0X9X0X0X0X9X0X6X0X0X<X0X0X3X0X6X0X9X0X0X9X9X0X0X0X0X6X0X8X0X0X6X0X0X3X0X0X0X0X0X0X0X0X0X6X1X9X3X0X0X0X3X0XY.0X0X5X0X0X0X8X0X3X0X0X0X3X0X0X0X8X0X0X5X3X0X3X0X6X6X0X0X0X3X0X0X0X0X0X9X0X6X0X0X0X0X0X0X0X0X6X0X0XY.3X0X9X9X7X6X0X0X0X0X3X0X0X8X0X0X0X0XqXqXqXqXqXqXqXqXqXqXqXqXqXqXqXqXqXqXqXqXqXqXqXqXqXqXqXqXqXqXqXqXqXqXqXqXqXqXqXqXqXqXqXqX",
"qXqXqXqXqXqXqXqXqXqXqXqXqXqXqXqXqXqXqXqXqXqXqXqXqXqXqXqXqXqXqXqXqXqXqXqXqXqXqXqXqXqXqXqXqXqX0X0X6X0X0X0X0X6X0X0X0X8X0X7X0X0X0X6X0X0X0X0X0X0X7X6X0X6X9X8X9X9X0X0X0X7X0X7X7X0X0X6X0X0X4X0X0X0X0X7X0X6X0X0X0X0X>X0X9X8X3X5X0X0X8XH.0X0X3X8XY.0X0X0X6X8X0X0XY.0X0X0X0X6X3X0X4X].0X0X6X0X0X0X8X0X0X0X0X0XH.0X0X0X0X0X3X1X0X0X0X0X0X0X3X9X0XY.9X0XOX0X0X0X8X5X0X;X6X0X0X0X0X0X_.8X7X9X0X0X0X0X6X0X0X X5X0X9X6X0X0X6X9X0XP.0X X0X3X0X3X7X0XqXqXqXqXqXqXqXqXqXqXqXqXqXqXqXqXqXqXqXqXqXqXqXqXqXqXqXqXqXqXqXqXqXqXqXqXqXqXqXqXqXqXqXqXqXqX",
"qXqXqXqXqXqXqXqXqXqXqXqXqXqXqXqXqXqXqXqXqXqXqXqXqXqXqXqXqXqXqXqXqXqXqXqXqXqXqXqXqXqXqXqXqXqXqXqXqX7X0X0X0X8X0X0X0XY.6X0X0X0X0X0X0X0X0X0X0X0X0X0X0X6X0X_.0X0X0X0X8X0X0X9X0X0X6X0X0X0X0X0X0X3X0X7X0X8X7X6X0X0X0X7X0X0X0X0X6X0X3X9X-X0X0X6X0X0X4X0X0X6X7X3X3X3X6X0X9X0X0X0XU.0X8X>X6X0X9X0X0X~.0X3X0X8X0X6X0X0X9X3X0X9X0X9X0X7X0X0X0X0X0X0X0X<X0XY.6X0X3X-X0X1X0XP.0X0X0X0X3X9X6X`.0X0X7X6X0X0X0X0X8X0X3X0X0X0X6X0X0X0X0X0X&X0X0XqXqXqXqXqXqXqXqXqXqXqXqXqXqXqXqXqXqXqXqXqXqXqXqXqXqXqXqXqXqXqXqXqXqXqXqXqXqXqXqXqXqXqXqXqXqXqXqXqX",
"qXqXqXqXqXqXqXqXqXqXqXqXqXqXqXqXqXqXqXqXqXqXqXqXqXqXqXqXqXqXqXqXqXqXqXqXqXqXqXqXqXqXqXqXqXqXqXqXqXqXqXqXqX_.3X0X6X6X0X0X3X7X+X3X0X0X0X0X6X0X7X9X0X9X0X0X0X0X7X0X7X9X5X0X0X0X0X0X0X0X0X0X3X0X3X0X7X0X0X0X6X0X0X0X8X5X4X0X0X0X0X0X0X0X0X6X#X6X0X0X8X0X0X3X0X&X0X0X0X0XY.0X0X0X6X0X9X9X3X0X/.8X8X0X0X6X9X3X0X0X0X9X0X0X6X0X0X0X0X0X0X0X0X0X0X0X7X0X8X7X0X3X0X>X0X0X3X0X0X0X0X0X0X0X0X<X0X3X0X0X8X0XoX0X0X0X0X0X9X7X0X>X0XqXqXqXqXqXqXqXqXqXqXqXqXqXqXqXqXqXqXqXqXqXqXqXqXqXqXqXqXqXqXqXqXqXqXqXqXqXqXqXqXqXqXqXqXqXqXqXqXqXqXqXqXqX",
"qXqXqXqXqXqXqXqXqXqXqXqXqXqXqXqXqXqXqXqXqXqXqXqXqXqXqXqXqXqXqXqXqXqXqXqXqXqXqXqXqXqXqXqXqXqXqXqXqXqXqXqXqXqXqXqXqX0X0XY.0X3X~.0X0X0X0X0X5X0X0X0X0X0X0X5X0X0X0X0X0X3X0X_.0X0X3X3X0X0X0X0X0X0X0X9X9X0X3X0X0X0X0X0X0X0X0X0X0X0X0X0X0X9X0X8X0X6X4X0X0X0X`.0X9X6X0X0X0X0X0X3X7X0X0X0X0X0X9X0X0X0X0X6X0X0X9X0X0X0X0Xn.4X0X8X0X0X).0X7XU.0X0X8X6X0X0X8X0X0X9X9X0X4X3X0X0X0X0X0X3X X3X0X X3X0X8X0X5X0X0X;X0X0X0X0X0X0XqXqXqXqXqXqXqXqXqXqXqXqXqXqXqXqXqXqXqXqXqXqXqXqXqXqXqXqXqXqXqXqXqXqXqXqXqXqXqXqXqXqXqXqXqXqXqXqXqXqXqXqXqXqXqXqXqX",
"qXqXqXqXqXqXqXqXqXqXqXqXqXqXqXqXqXqXqXqXqXqXqXqXqXqXqXqXqXqXqXqXqXqXqXqXqXqXqXqXqXqXqXqXqXqXqXqXqXqXqXqXqXqXqXqXqXqXqXqXqXqXqXqXqXqXqXqXqXqXqXqXqXqXqXqXqXqXqXqXqXqXqXqXqXqXqXqXqXqXqXqXqXqXqXqXqXqXqXqXqXqXqXqXqXqXqXqXqXqXqXqXqXqXqXqXqXqXqXqXqXqXqXqXqXqXqXqXqXqXqXqXqXqXqXqXqXqXqXqXqXqXqXqXqXqXqXqXqXqXqXqXqXqXqXqXqXqXqXqXqXqXqXqXqXqXqXqXqXqXqXqXqXqXqXqXqXqXqXqXqXqXqXqXqXqXqXqXqXqXqXqXqXqXqXqXqXqXqXqXqXqXqXqXqXqXqXqXqXqXqXqXqXqXqXqXqXqXqXqXqXqXqXqXqXqXqXqXqXqXqXqXqXqXqXqXqXqXqXqXqXqXqXqXqXqXqXqXqXqXqXqXqXqXqXqX",
"qXqXqXqXqXqXqXqXqXqXqXqXqXqXqXqXqXqXqXqXqXqXqXqXqXqXqXqXqXqXqXqXqXqXqXqXqXqXqXqXqXqXqXqXqXqXqXqXqXqXqXqXqXqXqXqXqXqXqXqXqXqXqXqXqXqXqXqXqXqXqXqXqXqXqXqXqXqXqXqXqXqXqXqXqXqXqXqXqXqXqXqXqXqXqXqXqXqXqXqXqXqXqXqXqXqXqXqXqXqXqXqXqXqXqXqXqXqXqXqXqXqXqXqXqXqXqXqXqXqXqXqXqXqXqXqXqXqXqXqXqXqXqXqXqXqXqXqXqXqXqXqXqXqXqXqXqXqXqXqXqXqXqXqXqXqXqXqXqXqXqXqXqXqXqXqXqXqXqXqXqXqXqXqXqXqXqXqXqXqXqXqXqXqXqXqXqXqXqXqXqXqXqXqXqXqXqXqXqXqXqXqXqXqXqXqXqXqXqXqXqXqXqXqXqXqXqXqXqXqXqXqXqXqXqXqXqXqXqXqXqXqXqXqXqXqXqXqXqXqXqXqXqXqXqXqX",
"qXqXqXqXqXqXqXqXqXqXqXqXqXqXqXqXqXqXqXqXqXqXqXqXqXqXqXqXqXqXqXqXqXqXqXqXqXqXqXqXqXqXqXqXqXqXqXqXqXqXqXqXqXqXqXqXqXqXqXqXqXqXqXqXqXqXqXqXqXqXqXqXqXqXqXqXqXqXqXqXqXqXqXqXqXqXqXqXqXqXqXqXqXqXqXqXqXqXqXqXqXqXqXqXqXqXqXqXqXqXqXqXqXqXqXqXqXqXqXqXqXqXqXqXqXqXqXqXqXqXqXqXqXqXqXqXqXqXqXqXqXqXqXqXqXqXqXqXqXqXqXqXqXqXqXqXqXqXqXqXqXqXqXqXqXqXqXqXqXqXqXqXqXqXqXqXqXqXqXqXqXqXqXqXqXqXqXqXqXqXqXqXqXqXqXqXqXqXqXqXqXqXqXqXqXqXqXqXqXqXqXqXqXqXqXqXqXqXqXqXqXqXqXqXqXqXqXqXqXqXqXqXqXqXqXqXqXqXqXqXqXqXqXqXqXqXqXqXqXqXqXqXqXqXqXqX",
"qXqXqXqXqXqXqXqXqXqXqXqXqXqXqXqXqXqXqXqXqXqXqXqXqXqXqXqXqXqXqXqXqXqXqXqXqXqXqXqXqXqXqXqXqXqXqXqXqXqXqXqXqXqXqXqXqXqXqXqXqXqXqXqXqXqXqXqXqXqXqXqXqXqXqXqXqXqXqXqXqXqXqXqXqXqXqXqXqXqXqXqXqXqXqXqXqXqXqXqXqXqXqXqXqXqXqXqXqXqXqXqXqXqXqXqXqXqXqXqXqXqXqXqXqXqXqXqXqXqXqXqXqXqXqXqXqXqXqXqXqXqXqXqXqXqXqXqXqXqXqXqXqXqXqXqXqXqXqXqXqXqXqXqXqXqXqXqXqXqXqXqXqXqXqXqXqXqXqXqXqXqXqXqXqXqXqXqXqXqXqXqXqXqXqXqXqXqXqXqXqXqXqXqXqXqXqXqXqXqXqXqXqXqXqXqXqXqXqXqXqXqXqXqXqXqXqXqXqXqXqXqXqXqXqXqXqXqXqXqXqXqXqXqXqXqXqXqXqXqXqXqXqXqXqXqX",
"qXqXqXqXqXqXqXqXqXqXqXqXqXqXqXqXqXqXqXqXqXqXqXqXqXqXqXqXqXqXqXqXqXqXqXqXqXqXqXqXqXqXqXqXqXqXqXqXqXqXqXqXqXqXqXqXqXqXqXqXqXqXqXqXqXqXqXqXqXqXqXqXqXqXqXqXqXqXqXqXqXqXqXqXqXqXqXqXqXqXqXqXqXqXqXqXqXqXqXqXqXqXqXqXqXqXqXqXqXqXqXqXqXqXqXqXqXqXqXqXqXqXqXqXqXqXqXqXqXqXqXqXqXqXqXqXqXqXqXqXqXqXqXqXqXqXqXqXqXqXqXqXqXqXqXqXqXqXqXqXqXqXqXqXqXqXqXqXqXqXqXqXqXqXqXqXqXqXqXqXqXqXqXqXqXqXqXqXqXqXqXqXqXqXqXqXqXqXqXqXqXqXqXqXqXqXqXqXqXqXqXqXqXqXqXqXqXqXqXqXqXqXqXqXqXqXqXqXqXqXqXqXqXqXqXqXqXqXqXqXqXqXqXqXqXqXqXqXqXqXqXqXqXqXqXqX",
"qXqXqXqXqXqXqXqXqXqXqXqXqXqXqXqXqXqXqXqXqXqXqXqXqXqXqXqXqXqXqXqXqXqXqXqXqXqXqXqXqXqXqXqXqXqXqXqXqXqXqXqXqXqXqXqXqXqXqXqXqXqXqXqXqXqXqXqXqXqXqXqXqXqXqXqXqXqXqXqXqXqXqXqXqXqXqXqXqXqXqXqXqXqXqXqXqXqXqXqXqXqXqXqXqXqXqXqXqXqXqXqXqXqXqXqXqXqXqXqXqXqXqXqXqXqXqXqXqXqXqXqXqXqXqXqXqXqXqXqXqXqXqXqXqXqXqXqXqXqXqXqXqXqXqXqXqXqXqXqXqXqXqXqXqXqXqXqXqXqXqXqXqXqXqXqXqXqXqXqXqXqXqXqXqXqXqXqXqXqXqXqXqXqXqXqXqXqXqXqXqXqXqXqXqXqXqXqXqXqXqXqXqXqXqXqXqXqXqXqXqXqXqXqXqXqXqXqXqXqXqXqXqXqXqXqXqXqXqXqXqXqXqXqXqXqXqXqXqXqXqXqXqXqXqXqX",
"qXqXqXqXqXqXqXqXqXqXqXqXqXqXqXqXqXqXqXqXqXqXqXqXqXqXqXqXqXqXqXqXqXqXqXqXqXqXqXqXqXqXqXqXqXqXqXqXqXqXqXqXqXqXqXqXqXqXqXqXqXqXqXqXqXqXqXqXqXqXqXqXqXqXqXqXqXqXqXqXqXqXqXqXqXqXqXqXqXqXqXqXqXqXqXqXqXqXqXqXqXqXqXqXqXqXqXqXqXqXqXqXqXqXqXqXqXqXqXqXqXqXqXqXqXqXqXqXqXqXqXqXqXqXqXqXqXqXqXqXqXqXqXqXqXqXqXqXqXqXqXqXqXqXqXqXqXqXqXqXqXqXqXqXqXqXqXqXqXqXqXqXqXqXqXqXqXqXqXqXqXqXqXqXqXqXqXqXqXqXqXqXqXqXqXqXqXqXqXqXqXqXqXqXqXqXqXqXqXqXqXqXqXqXqXqXqXqXqXqXqXqXqXqXqXqXqXqXqXqXqXqXqXqXqXqXqXqXqXqXqXqXqXqXqXqXqXqXqXqXqXqXqXqXqXqX",
"qXqXqXqXqXqXqXqXqXqXqXqXqXqXqXqXqXqXqXqXqXqXqXqXqXqXqXqXqXqXqXqXqXqXqXqXqXqXqXqXqXqXqXqXqXqXqXqXqXqXqXqXqXqXqXqXqXqXqXqXqXqXqXqXqXqXqXqXqXqXqXqXqXqXqXqXqXqXqXqXqXqXqXqXqXqXqXqXqXqXqXqXqXqXqXqXqXqXqXqXqXqXqXqXqXqXqXqXqXqXqXqXqXqXqXqXqXqXqXqXqXqXqXqXqXqXqXqXqXqXqXqXqXqXqXqXqXqXqXqXqXqXqXqXqXqXqXqXqXqXqXqXqXqXqXqXqXqXqXqXqXqXqXqXqXqXqXqXqXqXqXqXqXqXqXqXqXqXqXqXqXqXqXqXqXqXqXqXqXqXqXqXqXqXqXqXqXqXqXqXqXqXqXqXqXqXqXqXqXqXqXqXqXqXqXqXqXqXqXqXqXqXqXqXqXqXqXqXqXqXqXqXqXqXqXqXqXqXqXqXqXqXqXqXqXqXqXqXqXqXqXqXqXqXqXqX"
};
